<?xml version="1.0" encoding="UTF-8"?>
<map version="1.5" tiledversion="1.7.2" orientation="orthogonal" renderorder="right-down" compressionlevel="0" width="60" height="50" tilewidth="16" tileheight="16" infinite="0" nextlayerid="18" nextobjectid="207">
 <tileset firstgid="1" name="x01 - cave" tilewidth="16" tileheight="16" tilecount="288" columns="16">
  <image source="Mines/mine" width="256" height="288"/>
  <tile id="1">
   <properties>
    <property name="Buildable" value="T"/>
    <property name="Type" value="Stone"/>
   </properties>
  </tile>
  <tile id="2">
   <properties>
    <property name="Buildable" value="T"/>
    <property name="Type" value="Stone"/>
   </properties>
  </tile>
  <tile id="3">
   <properties>
    <property name="Buildable" value="T"/>
    <property name="Type" value="Stone"/>
   </properties>
  </tile>
  <tile id="17">
   <properties>
    <property name="Buildable" value="T"/>
    <property name="Type" value="Stone"/>
   </properties>
  </tile>
  <tile id="18">
   <properties>
    <property name="Buildable" value="T"/>
    <property name="Type" value="Stone"/>
   </properties>
  </tile>
  <tile id="19">
   <properties>
    <property name="Buildable" value="T"/>
    <property name="Type" value="Stone"/>
   </properties>
  </tile>
  <tile id="33">
   <properties>
    <property name="Buildable" value="T"/>
    <property name="Type" value="Stone"/>
   </properties>
  </tile>
  <tile id="34">
   <properties>
    <property name="Buildable" value="T"/>
    <property name="Type" value="Stone"/>
   </properties>
  </tile>
  <tile id="35">
   <properties>
    <property name="Buildable" value="T"/>
    <property name="Type" value="Stone"/>
   </properties>
  </tile>
  <tile id="137">
   <properties>
    <property name="Buildable" value="T"/>
    <property name="Spawnable" value="T"/>
    <property name="Type" value="Stone"/>
   </properties>
  </tile>
  <tile id="138">
   <properties>
    <property name="Buildable" value="T"/>
    <property name="Spawnable" value="T"/>
    <property name="Type" value="Stone"/>
   </properties>
  </tile>
  <tile id="139">
   <properties>
    <property name="Buildable" value="T"/>
    <property name="Spawnable" value="T"/>
    <property name="Type" value="Stone"/>
   </properties>
  </tile>
  <tile id="140">
   <properties>
    <property name="Buildable" value="T"/>
    <property name="Spawnable" value="T"/>
    <property name="Type" value="Stone"/>
   </properties>
  </tile>
  <tile id="149">
   <properties>
    <property name="Buildable" value="T"/>
    <property name="Type" value="Stone"/>
   </properties>
  </tile>
  <tile id="150">
   <properties>
    <property name="Buildable" value="T"/>
    <property name="Type" value="Stone"/>
   </properties>
  </tile>
  <tile id="151">
   <properties>
    <property name="Buildable" value="T"/>
    <property name="Type" value="Stone"/>
   </properties>
  </tile>
  <tile id="152">
   <properties>
    <property name="Buildable" value="T"/>
    <property name="Type" value="Stone"/>
   </properties>
  </tile>
  <tile id="153">
   <properties>
    <property name="Buildable" value="T"/>
    <property name="Spawnable" value="T"/>
    <property name="Type" value="Stone"/>
   </properties>
  </tile>
  <tile id="154">
   <properties>
    <property name="Buildable" value="T"/>
    <property name="Spawnable" value="T"/>
    <property name="Type" value="Stone"/>
   </properties>
  </tile>
  <tile id="155">
   <properties>
    <property name="Buildable" value="T"/>
    <property name="Spawnable" value="T"/>
    <property name="Type" value="Stone"/>
   </properties>
  </tile>
  <tile id="165">
   <properties>
    <property name="Buildable" value="T"/>
    <property name="Diggable" value="T"/>
    <property name="Type" value="Dirt"/>
   </properties>
  </tile>
  <tile id="166">
   <properties>
    <property name="Buildable" value="T"/>
    <property name="Type" value="Stone"/>
   </properties>
  </tile>
  <tile id="167">
   <properties>
    <property name="Buildable" value="T"/>
    <property name="Type" value="Stone"/>
   </properties>
  </tile>
  <tile id="168">
   <properties>
    <property name="Buildable" value="T"/>
    <property name="Type" value="Stone"/>
   </properties>
  </tile>
  <tile id="169">
   <properties>
    <property name="Buildable" value="T"/>
    <property name="Spawnable" value="T"/>
    <property name="Type" value="Stone"/>
   </properties>
  </tile>
  <tile id="170">
   <properties>
    <property name="Buildable" value="T"/>
    <property name="Spawnable" value="T"/>
    <property name="Type" value="Stone"/>
   </properties>
  </tile>
  <tile id="171">
   <properties>
    <property name="Buildable" value="T"/>
    <property name="Spawnable" value="T"/>
    <property name="Type" value="Stone"/>
   </properties>
  </tile>
  <tile id="172">
   <properties>
    <property name="Type" value="Stone"/>
   </properties>
  </tile>
  <tile id="181">
   <properties>
    <property name="Buildable" value="T"/>
    <property name="Diggable" value="T"/>
    <property name="Type" value="Dirt"/>
   </properties>
  </tile>
  <tile id="182">
   <properties>
    <property name="Buildable" value="T"/>
    <property name="Type" value="Stone"/>
   </properties>
  </tile>
  <tile id="183">
   <properties>
    <property name="Buildable" value="T"/>
    <property name="Diggable" value="T"/>
    <property name="Type" value="Dirt"/>
   </properties>
  </tile>
  <tile id="184">
   <properties>
    <property name="Buildable" value="T"/>
    <property name="Type" value="Stone"/>
   </properties>
  </tile>
  <tile id="185">
   <properties>
    <property name="Buildable" value="T"/>
    <property name="Type" value="Stone"/>
   </properties>
  </tile>
  <tile id="186">
   <properties>
    <property name="Buildable" value="T"/>
    <property name="Type" value="Stone"/>
   </properties>
  </tile>
  <tile id="187">
   <properties>
    <property name="Buildable" value="T"/>
    <property name="Type" value="Stone"/>
   </properties>
  </tile>
  <tile id="188">
   <properties>
    <property name="Buildable" value="T"/>
    <property name="Type" value="Stone"/>
   </properties>
  </tile>
  <tile id="193">
   <properties>
    <property name="Buildable" value="T"/>
    <property name="Type" value="Wood"/>
   </properties>
  </tile>
  <tile id="198">
   <properties>
    <property name="Buildable" value="T"/>
    <property name="Type" value="Stone"/>
   </properties>
  </tile>
  <tile id="199">
   <properties>
    <property name="Buildable" value="T"/>
    <property name="Type" value="Stone"/>
   </properties>
  </tile>
  <tile id="200">
   <properties>
    <property name="Buildable" value="T"/>
    <property name="Type" value="Stone"/>
   </properties>
  </tile>
  <tile id="201">
   <properties>
    <property name="Buildable" value="T"/>
    <property name="Type" value="Stone"/>
   </properties>
  </tile>
  <tile id="202">
   <properties>
    <property name="Buildable" value="T"/>
    <property name="Type" value="Stone"/>
   </properties>
  </tile>
  <tile id="203">
   <properties>
    <property name="Buildable" value="T"/>
    <property name="Type" value="Stone"/>
   </properties>
  </tile>
  <tile id="204">
   <properties>
    <property name="Type" value="Stone"/>
   </properties>
  </tile>
  <tile id="209">
   <properties>
    <property name="Buildable" value="T"/>
    <property name="Type" value="Wood"/>
   </properties>
  </tile>
  <tile id="210">
   <properties>
    <property name="Buildable" value="T"/>
    <property name="Type" value="Wood"/>
   </properties>
  </tile>
  <tile id="211">
   <properties>
    <property name="Buildable" value="T"/>
    <property name="Type" value="Wood"/>
   </properties>
  </tile>
  <tile id="212">
   <properties>
    <property name="Buildable" value="T"/>
    <property name="Type" value="Wood"/>
   </properties>
  </tile>
  <tile id="217">
   <properties>
    <property name="Buildable" value="T"/>
    <property name="Type" value="Stone"/>
   </properties>
  </tile>
  <tile id="218">
   <properties>
    <property name="Buildable" value="T"/>
    <property name="Type" value="Stone"/>
   </properties>
  </tile>
  <tile id="219">
   <properties>
    <property name="Buildable" value="T"/>
    <property name="Type" value="Stone"/>
   </properties>
  </tile>
  <tile id="225">
   <properties>
    <property name="Buildable" value="T"/>
    <property name="Type" value="Wood"/>
   </properties>
  </tile>
  <tile id="226">
   <properties>
    <property name="Buildable" value="T"/>
    <property name="Type" value="Wood"/>
   </properties>
  </tile>
  <tile id="227">
   <properties>
    <property name="Buildable" value="T"/>
    <property name="Type" value="Wood"/>
   </properties>
  </tile>
  <tile id="228">
   <properties>
    <property name="Buildable" value="T"/>
    <property name="Type" value="Wood"/>
   </properties>
  </tile>
  <tile id="233">
   <properties>
    <property name="Buildable" value="T"/>
    <property name="Type" value="Stone"/>
   </properties>
  </tile>
  <tile id="234">
   <properties>
    <property name="Buildable" value="T"/>
    <property name="Type" value="Stone"/>
   </properties>
  </tile>
  <tile id="235">
   <properties>
    <property name="Buildable" value="T"/>
    <property name="Type" value="Stone"/>
   </properties>
  </tile>
  <tile id="240">
   <properties>
    <property name="Type" value="Wood"/>
   </properties>
  </tile>
  <tile id="241">
   <properties>
    <property name="Type" value="Wood"/>
   </properties>
  </tile>
  <tile id="242">
   <properties>
    <property name="Type" value="Wood"/>
   </properties>
  </tile>
  <tile id="246">
   <properties>
    <property name="Passable" type="bool" value="false"/>
    <property name="Water" type="bool" value="true"/>
   </properties>
  </tile>
  <tile id="247">
   <properties>
    <property name="Passable" type="bool" value="false"/>
    <property name="Water" type="bool" value="true"/>
   </properties>
  </tile>
  <tile id="248">
   <properties>
    <property name="Passable" type="bool" value="false"/>
    <property name="Water" type="bool" value="true"/>
   </properties>
  </tile>
  <tile id="256">
   <properties>
    <property name="Type" value="Wood"/>
   </properties>
  </tile>
  <tile id="257">
   <properties>
    <property name="Type" value="Wood"/>
   </properties>
  </tile>
  <tile id="258">
   <properties>
    <property name="Type" value="Wood"/>
   </properties>
  </tile>
  <tile id="260">
   <properties>
    <property name="Passable" type="bool" value="false"/>
    <property name="Water" type="bool" value="true"/>
   </properties>
  </tile>
  <tile id="262">
   <properties>
    <property name="Passable" type="bool" value="false"/>
    <property name="Water" type="bool" value="true"/>
   </properties>
  </tile>
  <tile id="263">
   <properties>
    <property name="Passable" type="bool" value="false"/>
    <property name="Water" type="bool" value="true"/>
   </properties>
  </tile>
  <tile id="264">
   <properties>
    <property name="Passable" type="bool" value="false"/>
    <property name="Water" type="bool" value="true"/>
   </properties>
  </tile>
  <tile id="265">
   <properties>
    <property name="Passable" type="bool" value="false"/>
    <property name="Water" type="bool" value="true"/>
   </properties>
  </tile>
  <tile id="266">
   <properties>
    <property name="Passable" type="bool" value="false"/>
    <property name="Water" type="bool" value="true"/>
   </properties>
  </tile>
  <tile id="272">
   <properties>
    <property name="Type" value="Wood"/>
   </properties>
  </tile>
  <tile id="273">
   <properties>
    <property name="Type" value="Wood"/>
   </properties>
  </tile>
  <tile id="274">
   <properties>
    <property name="Type" value="Wood"/>
   </properties>
  </tile>
  <tile id="275">
   <properties>
    <property name="Passable" type="bool" value="false"/>
    <property name="Water" type="bool" value="true"/>
   </properties>
  </tile>
  <tile id="276">
   <properties>
    <property name="Passable" type="bool" value="false"/>
    <property name="Water" type="bool" value="true"/>
   </properties>
  </tile>
  <tile id="277">
   <properties>
    <property name="Passable" type="bool" value="false"/>
    <property name="Water" type="bool" value="true"/>
   </properties>
  </tile>
  <tile id="281">
   <properties>
    <property name="Passable" type="bool" value="false"/>
    <property name="Water" type="bool" value="true"/>
   </properties>
  </tile>
  <tile id="282">
   <properties>
    <property name="Passable" type="bool" value="false"/>
    <property name="Water" type="bool" value="true"/>
   </properties>
  </tile>
 </tileset>
 <tileset firstgid="289" name="paths" tilewidth="16" tileheight="16" tilecount="64" columns="4">
  <image source="paths" width="64" height="256"/>
 </tileset>
 <tileset firstgid="353" name="x11 - fall_ATK_AToMS_foliage" tilewidth="16" tileheight="16" tilecount="925" columns="25">
  <image source="fall_ATK_AToMS_foliage.png" width="400" height="592"/>
 </tileset>
 <tileset firstgid="1278" name="x12 - ATK_AToMS_INcave" tilewidth="16" tileheight="16" tilecount="1377" columns="27">
  <image source="ATK_AToMS_INcave.png" width="432" height="816"/>
  <tile id="28">
   <animation>
    <frame tileid="28" duration="150"/>
    <frame tileid="34" duration="150"/>
    <frame tileid="40" duration="150"/>
    <frame tileid="46" duration="150"/>
   </animation>
  </tile>
  <tile id="29">
   <animation>
    <frame tileid="29" duration="150"/>
    <frame tileid="35" duration="150"/>
    <frame tileid="41" duration="150"/>
    <frame tileid="47" duration="150"/>
   </animation>
  </tile>
  <tile id="30">
   <animation>
    <frame tileid="30" duration="150"/>
    <frame tileid="36" duration="150"/>
    <frame tileid="42" duration="150"/>
    <frame tileid="48" duration="150"/>
   </animation>
  </tile>
  <tile id="31">
   <animation>
    <frame tileid="31" duration="150"/>
    <frame tileid="37" duration="150"/>
    <frame tileid="43" duration="150"/>
    <frame tileid="49" duration="150"/>
   </animation>
  </tile>
  <tile id="55">
   <animation>
    <frame tileid="55" duration="150"/>
    <frame tileid="61" duration="150"/>
    <frame tileid="67" duration="150"/>
    <frame tileid="73" duration="150"/>
   </animation>
  </tile>
  <tile id="56">
   <animation>
    <frame tileid="56" duration="150"/>
    <frame tileid="62" duration="150"/>
    <frame tileid="68" duration="150"/>
    <frame tileid="74" duration="150"/>
   </animation>
  </tile>
  <tile id="57">
   <animation>
    <frame tileid="57" duration="150"/>
    <frame tileid="63" duration="150"/>
    <frame tileid="69" duration="150"/>
    <frame tileid="75" duration="150"/>
   </animation>
  </tile>
  <tile id="58">
   <animation>
    <frame tileid="58" duration="150"/>
    <frame tileid="64" duration="150"/>
    <frame tileid="70" duration="150"/>
    <frame tileid="76" duration="150"/>
   </animation>
  </tile>
  <tile id="82">
   <animation>
    <frame tileid="82" duration="150"/>
    <frame tileid="88" duration="150"/>
    <frame tileid="94" duration="150"/>
    <frame tileid="100" duration="150"/>
   </animation>
  </tile>
  <tile id="83">
   <animation>
    <frame tileid="83" duration="150"/>
    <frame tileid="89" duration="150"/>
    <frame tileid="95" duration="150"/>
    <frame tileid="101" duration="150"/>
   </animation>
  </tile>
  <tile id="84">
   <animation>
    <frame tileid="84" duration="150"/>
    <frame tileid="90" duration="150"/>
    <frame tileid="96" duration="150"/>
    <frame tileid="102" duration="150"/>
   </animation>
  </tile>
  <tile id="85">
   <animation>
    <frame tileid="85" duration="150"/>
    <frame tileid="91" duration="150"/>
    <frame tileid="97" duration="150"/>
    <frame tileid="103" duration="150"/>
   </animation>
  </tile>
  <tile id="109">
   <animation>
    <frame tileid="109" duration="150"/>
    <frame tileid="115" duration="150"/>
    <frame tileid="121" duration="150"/>
    <frame tileid="127" duration="150"/>
   </animation>
  </tile>
  <tile id="110">
   <animation>
    <frame tileid="110" duration="150"/>
    <frame tileid="116" duration="150"/>
    <frame tileid="122" duration="150"/>
    <frame tileid="128" duration="150"/>
   </animation>
  </tile>
  <tile id="111">
   <animation>
    <frame tileid="111" duration="150"/>
    <frame tileid="117" duration="150"/>
    <frame tileid="123" duration="150"/>
    <frame tileid="129" duration="150"/>
   </animation>
  </tile>
  <tile id="112">
   <animation>
    <frame tileid="112" duration="150"/>
    <frame tileid="118" duration="150"/>
    <frame tileid="124" duration="150"/>
    <frame tileid="130" duration="150"/>
   </animation>
  </tile>
  <tile id="136">
   <animation>
    <frame tileid="136" duration="150"/>
    <frame tileid="142" duration="150"/>
    <frame tileid="148" duration="150"/>
    <frame tileid="154" duration="150"/>
   </animation>
  </tile>
  <tile id="137">
   <animation>
    <frame tileid="137" duration="150"/>
    <frame tileid="143" duration="150"/>
    <frame tileid="149" duration="150"/>
    <frame tileid="155" duration="150"/>
   </animation>
  </tile>
  <tile id="138">
   <animation>
    <frame tileid="138" duration="150"/>
    <frame tileid="144" duration="150"/>
    <frame tileid="150" duration="150"/>
    <frame tileid="156" duration="150"/>
   </animation>
  </tile>
  <tile id="139">
   <animation>
    <frame tileid="139" duration="150"/>
    <frame tileid="145" duration="150"/>
    <frame tileid="151" duration="150"/>
    <frame tileid="157" duration="150"/>
   </animation>
  </tile>
  <tile id="162">
   <animation>
    <frame tileid="162" duration="150"/>
    <frame tileid="168" duration="150"/>
    <frame tileid="174" duration="150"/>
    <frame tileid="180" duration="150"/>
   </animation>
  </tile>
  <tile id="163">
   <animation>
    <frame tileid="163" duration="150"/>
    <frame tileid="169" duration="150"/>
    <frame tileid="175" duration="150"/>
    <frame tileid="181" duration="150"/>
   </animation>
  </tile>
  <tile id="164">
   <animation>
    <frame tileid="164" duration="150"/>
    <frame tileid="170" duration="150"/>
    <frame tileid="176" duration="150"/>
    <frame tileid="182" duration="150"/>
   </animation>
  </tile>
  <tile id="165">
   <animation>
    <frame tileid="165" duration="150"/>
    <frame tileid="171" duration="150"/>
    <frame tileid="177" duration="150"/>
    <frame tileid="183" duration="150"/>
   </animation>
  </tile>
  <tile id="166">
   <animation>
    <frame tileid="166" duration="150"/>
    <frame tileid="172" duration="150"/>
    <frame tileid="178" duration="150"/>
    <frame tileid="184" duration="150"/>
   </animation>
  </tile>
  <tile id="167">
   <animation>
    <frame tileid="167" duration="150"/>
    <frame tileid="173" duration="150"/>
    <frame tileid="179" duration="150"/>
    <frame tileid="185" duration="150"/>
   </animation>
  </tile>
  <tile id="189">
   <animation>
    <frame tileid="189" duration="150"/>
    <frame tileid="195" duration="150"/>
    <frame tileid="201" duration="150"/>
    <frame tileid="207" duration="150"/>
   </animation>
  </tile>
  <tile id="190">
   <animation>
    <frame tileid="190" duration="150"/>
    <frame tileid="196" duration="150"/>
    <frame tileid="202" duration="150"/>
    <frame tileid="208" duration="150"/>
   </animation>
  </tile>
  <tile id="191">
   <animation>
    <frame tileid="191" duration="150"/>
    <frame tileid="197" duration="150"/>
    <frame tileid="203" duration="150"/>
    <frame tileid="209" duration="150"/>
   </animation>
  </tile>
  <tile id="192">
   <animation>
    <frame tileid="192" duration="150"/>
    <frame tileid="198" duration="150"/>
    <frame tileid="204" duration="150"/>
    <frame tileid="210" duration="150"/>
   </animation>
  </tile>
  <tile id="193">
   <animation>
    <frame tileid="193" duration="150"/>
    <frame tileid="199" duration="150"/>
    <frame tileid="205" duration="150"/>
    <frame tileid="211" duration="150"/>
   </animation>
  </tile>
  <tile id="194">
   <animation>
    <frame tileid="194" duration="150"/>
    <frame tileid="200" duration="150"/>
    <frame tileid="206" duration="150"/>
    <frame tileid="212" duration="150"/>
   </animation>
  </tile>
  <tile id="217">
   <animation>
    <frame tileid="217" duration="150"/>
    <frame tileid="223" duration="150"/>
    <frame tileid="229" duration="150"/>
    <frame tileid="235" duration="150"/>
   </animation>
  </tile>
  <tile id="218">
   <animation>
    <frame tileid="218" duration="150"/>
    <frame tileid="224" duration="150"/>
    <frame tileid="230" duration="150"/>
    <frame tileid="236" duration="150"/>
   </animation>
  </tile>
  <tile id="219">
   <animation>
    <frame tileid="219" duration="150"/>
    <frame tileid="225" duration="150"/>
    <frame tileid="231" duration="150"/>
    <frame tileid="237" duration="150"/>
   </animation>
  </tile>
  <tile id="220">
   <animation>
    <frame tileid="220" duration="150"/>
    <frame tileid="226" duration="150"/>
    <frame tileid="232" duration="150"/>
    <frame tileid="238" duration="150"/>
   </animation>
  </tile>
  <tile id="244">
   <animation>
    <frame tileid="244" duration="150"/>
    <frame tileid="250" duration="150"/>
    <frame tileid="256" duration="150"/>
    <frame tileid="262" duration="150"/>
   </animation>
  </tile>
  <tile id="245">
   <animation>
    <frame tileid="245" duration="150"/>
    <frame tileid="251" duration="150"/>
    <frame tileid="257" duration="150"/>
    <frame tileid="263" duration="150"/>
   </animation>
  </tile>
  <tile id="246">
   <animation>
    <frame tileid="246" duration="150"/>
    <frame tileid="252" duration="150"/>
    <frame tileid="258" duration="150"/>
    <frame tileid="264" duration="150"/>
   </animation>
  </tile>
  <tile id="247">
   <animation>
    <frame tileid="247" duration="150"/>
    <frame tileid="253" duration="150"/>
    <frame tileid="259" duration="150"/>
    <frame tileid="265" duration="150"/>
   </animation>
  </tile>
  <tile id="268">
   <properties>
    <property name="Water" type="bool" value="true"/>
   </properties>
  </tile>
  <tile id="271">
   <animation>
    <frame tileid="271" duration="150"/>
    <frame tileid="277" duration="150"/>
    <frame tileid="283" duration="150"/>
    <frame tileid="289" duration="150"/>
   </animation>
  </tile>
  <tile id="272">
   <animation>
    <frame tileid="272" duration="150"/>
    <frame tileid="278" duration="150"/>
    <frame tileid="284" duration="150"/>
    <frame tileid="290" duration="150"/>
   </animation>
  </tile>
  <tile id="273">
   <animation>
    <frame tileid="273" duration="150"/>
    <frame tileid="279" duration="150"/>
    <frame tileid="285" duration="150"/>
    <frame tileid="291" duration="150"/>
   </animation>
  </tile>
  <tile id="274">
   <animation>
    <frame tileid="274" duration="150"/>
    <frame tileid="280" duration="150"/>
    <frame tileid="286" duration="150"/>
    <frame tileid="292" duration="150"/>
   </animation>
  </tile>
  <tile id="295">
   <properties>
    <property name="Passable" type="bool" value="false"/>
    <property name="Water" type="bool" value="true"/>
   </properties>
  </tile>
  <tile id="298">
   <animation>
    <frame tileid="298" duration="150"/>
    <frame tileid="304" duration="150"/>
    <frame tileid="310" duration="150"/>
    <frame tileid="316" duration="150"/>
   </animation>
  </tile>
  <tile id="299">
   <animation>
    <frame tileid="299" duration="150"/>
    <frame tileid="305" duration="150"/>
    <frame tileid="311" duration="150"/>
    <frame tileid="317" duration="150"/>
   </animation>
  </tile>
  <tile id="300">
   <animation>
    <frame tileid="300" duration="150"/>
    <frame tileid="306" duration="150"/>
    <frame tileid="312" duration="150"/>
    <frame tileid="318" duration="150"/>
   </animation>
  </tile>
  <tile id="301">
   <animation>
    <frame tileid="301" duration="150"/>
    <frame tileid="307" duration="150"/>
    <frame tileid="313" duration="150"/>
    <frame tileid="319" duration="150"/>
   </animation>
  </tile>
  <tile id="321">
   <properties>
    <property name="Passable" type="bool" value="false"/>
    <property name="Water" type="bool" value="true"/>
   </properties>
  </tile>
  <tile id="322">
   <properties>
    <property name="Passable" type="bool" value="false"/>
    <property name="Water" type="bool" value="true"/>
   </properties>
  </tile>
  <tile id="323">
   <properties>
    <property name="Water" type="bool" value="true"/>
   </properties>
  </tile>
  <tile id="325">
   <animation>
    <frame tileid="325" duration="150"/>
    <frame tileid="331" duration="150"/>
    <frame tileid="337" duration="150"/>
    <frame tileid="343" duration="150"/>
   </animation>
  </tile>
  <tile id="326">
   <animation>
    <frame tileid="326" duration="150"/>
    <frame tileid="332" duration="150"/>
    <frame tileid="338" duration="150"/>
    <frame tileid="344" duration="150"/>
   </animation>
  </tile>
  <tile id="327">
   <animation>
    <frame tileid="327" duration="150"/>
    <frame tileid="333" duration="150"/>
    <frame tileid="339" duration="150"/>
    <frame tileid="345" duration="150"/>
   </animation>
  </tile>
  <tile id="328">
   <animation>
    <frame tileid="328" duration="150"/>
    <frame tileid="334" duration="150"/>
    <frame tileid="340" duration="150"/>
    <frame tileid="346" duration="150"/>
   </animation>
  </tile>
  <tile id="352">
   <animation>
    <frame tileid="352" duration="150"/>
    <frame tileid="358" duration="150"/>
    <frame tileid="364" duration="150"/>
    <frame tileid="370" duration="150"/>
   </animation>
  </tile>
  <tile id="353">
   <animation>
    <frame tileid="353" duration="150"/>
    <frame tileid="359" duration="150"/>
    <frame tileid="365" duration="150"/>
    <frame tileid="371" duration="150"/>
   </animation>
  </tile>
  <tile id="354">
   <animation>
    <frame tileid="354" duration="150"/>
    <frame tileid="360" duration="150"/>
    <frame tileid="366" duration="150"/>
    <frame tileid="372" duration="150"/>
   </animation>
  </tile>
  <tile id="355">
   <animation>
    <frame tileid="355" duration="150"/>
    <frame tileid="361" duration="150"/>
    <frame tileid="367" duration="150"/>
    <frame tileid="373" duration="150"/>
   </animation>
  </tile>
  <tile id="376">
   <properties>
    <property name="Water" type="bool" value="true"/>
   </properties>
  </tile>
  <tile id="379">
   <animation>
    <frame tileid="379" duration="150"/>
    <frame tileid="385" duration="150"/>
    <frame tileid="391" duration="150"/>
    <frame tileid="397" duration="150"/>
   </animation>
  </tile>
  <tile id="380">
   <animation>
    <frame tileid="380" duration="150"/>
    <frame tileid="386" duration="150"/>
    <frame tileid="392" duration="150"/>
    <frame tileid="398" duration="150"/>
   </animation>
  </tile>
  <tile id="381">
   <animation>
    <frame tileid="381" duration="150"/>
    <frame tileid="387" duration="150"/>
    <frame tileid="393" duration="150"/>
    <frame tileid="399" duration="150"/>
   </animation>
  </tile>
  <tile id="382">
   <animation>
    <frame tileid="382" duration="150"/>
    <frame tileid="388" duration="150"/>
    <frame tileid="394" duration="150"/>
    <frame tileid="400" duration="150"/>
   </animation>
  </tile>
  <tile id="403">
   <properties>
    <property name="Passable" type="bool" value="false"/>
    <property name="Water" type="bool" value="true"/>
   </properties>
  </tile>
  <tile id="406">
   <animation>
    <frame tileid="406" duration="150"/>
    <frame tileid="412" duration="150"/>
    <frame tileid="418" duration="150"/>
    <frame tileid="424" duration="150"/>
   </animation>
  </tile>
  <tile id="407">
   <animation>
    <frame tileid="407" duration="150"/>
    <frame tileid="413" duration="150"/>
    <frame tileid="419" duration="150"/>
    <frame tileid="425" duration="150"/>
   </animation>
  </tile>
  <tile id="408">
   <animation>
    <frame tileid="408" duration="150"/>
    <frame tileid="414" duration="150"/>
    <frame tileid="420" duration="150"/>
    <frame tileid="426" duration="150"/>
   </animation>
  </tile>
  <tile id="409">
   <animation>
    <frame tileid="409" duration="150"/>
    <frame tileid="415" duration="150"/>
    <frame tileid="421" duration="150"/>
    <frame tileid="427" duration="150"/>
   </animation>
  </tile>
  <tile id="429">
   <properties>
    <property name="Passable" type="bool" value="false"/>
    <property name="Water" type="bool" value="true"/>
   </properties>
  </tile>
  <tile id="430">
   <properties>
    <property name="Passable" type="bool" value="false"/>
    <property name="Water" type="bool" value="true"/>
   </properties>
  </tile>
  <tile id="431">
   <properties>
    <property name="Water" type="bool" value="true"/>
   </properties>
  </tile>
  <tile id="432">
   <animation>
    <frame tileid="432" duration="150"/>
    <frame tileid="438" duration="150"/>
    <frame tileid="444" duration="150"/>
    <frame tileid="450" duration="150"/>
   </animation>
  </tile>
  <tile id="433">
   <animation>
    <frame tileid="433" duration="150"/>
    <frame tileid="439" duration="150"/>
    <frame tileid="445" duration="150"/>
    <frame tileid="451" duration="150"/>
   </animation>
  </tile>
  <tile id="434">
   <animation>
    <frame tileid="434" duration="150"/>
    <frame tileid="440" duration="150"/>
    <frame tileid="446" duration="150"/>
    <frame tileid="452" duration="150"/>
   </animation>
  </tile>
  <tile id="435">
   <animation>
    <frame tileid="435" duration="150"/>
    <frame tileid="441" duration="150"/>
    <frame tileid="447" duration="150"/>
    <frame tileid="453" duration="150"/>
   </animation>
  </tile>
  <tile id="436">
   <animation>
    <frame tileid="436" duration="150"/>
    <frame tileid="442" duration="150"/>
    <frame tileid="448" duration="150"/>
    <frame tileid="454" duration="150"/>
   </animation>
  </tile>
  <tile id="437">
   <animation>
    <frame tileid="437" duration="150"/>
    <frame tileid="443" duration="150"/>
    <frame tileid="449" duration="150"/>
    <frame tileid="455" duration="150"/>
   </animation>
  </tile>
  <tile id="459">
   <animation>
    <frame tileid="459" duration="150"/>
    <frame tileid="465" duration="150"/>
    <frame tileid="471" duration="150"/>
    <frame tileid="477" duration="150"/>
   </animation>
  </tile>
  <tile id="460">
   <animation>
    <frame tileid="460" duration="150"/>
    <frame tileid="466" duration="150"/>
    <frame tileid="472" duration="150"/>
    <frame tileid="478" duration="150"/>
   </animation>
  </tile>
  <tile id="461">
   <animation>
    <frame tileid="461" duration="150"/>
    <frame tileid="467" duration="150"/>
    <frame tileid="473" duration="150"/>
    <frame tileid="479" duration="150"/>
   </animation>
  </tile>
  <tile id="462">
   <animation>
    <frame tileid="462" duration="150"/>
    <frame tileid="468" duration="150"/>
    <frame tileid="474" duration="150"/>
    <frame tileid="480" duration="150"/>
   </animation>
  </tile>
  <tile id="463">
   <animation>
    <frame tileid="463" duration="150"/>
    <frame tileid="469" duration="150"/>
    <frame tileid="475" duration="150"/>
    <frame tileid="481" duration="150"/>
   </animation>
  </tile>
  <tile id="464">
   <animation>
    <frame tileid="464" duration="150"/>
    <frame tileid="470" duration="150"/>
    <frame tileid="476" duration="150"/>
    <frame tileid="482" duration="150"/>
   </animation>
  </tile>
  <tile id="484">
   <properties>
    <property name="Water" type="bool" value="true"/>
   </properties>
  </tile>
  <tile id="511">
   <properties>
    <property name="Passable" type="bool" value="false"/>
    <property name="Water" type="bool" value="true"/>
   </properties>
  </tile>
  <tile id="537">
   <properties>
    <property name="Passable" type="bool" value="false"/>
    <property name="Water" type="bool" value="true"/>
   </properties>
  </tile>
  <tile id="538">
   <properties>
    <property name="Passable" type="bool" value="false"/>
    <property name="Water" type="bool" value="true"/>
   </properties>
  </tile>
  <tile id="539">
   <properties>
    <property name="Water" type="bool" value="true"/>
   </properties>
  </tile>
  <tile id="1107">
   <properties>
    <property name="Type" value="Grass"/>
   </properties>
  </tile>
  <tile id="1108">
   <properties>
    <property name="Type" value="Grass"/>
   </properties>
  </tile>
  <tile id="1109">
   <properties>
    <property name="Type" value="Grass"/>
   </properties>
  </tile>
  <tile id="1110">
   <properties>
    <property name="Type" value="Grass"/>
   </properties>
  </tile>
  <tile id="1111">
   <properties>
    <property name="Type" value="Grass"/>
   </properties>
  </tile>
  <tile id="1112">
   <properties>
    <property name="Type" value="Grass"/>
   </properties>
  </tile>
  <tile id="1113">
   <properties>
    <property name="Type" value="Grass"/>
   </properties>
  </tile>
  <tile id="1114">
   <properties>
    <property name="Type" value="Grass"/>
   </properties>
  </tile>
  <tile id="1115">
   <properties>
    <property name="Type" value="Grass"/>
   </properties>
  </tile>
  <tile id="1116">
   <properties>
    <property name="Type" value="Grass"/>
   </properties>
  </tile>
  <tile id="1117">
   <properties>
    <property name="Type" value="Grass"/>
   </properties>
  </tile>
  <tile id="1118">
   <properties>
    <property name="Type" value="Grass"/>
   </properties>
  </tile>
  <tile id="1119">
   <properties>
    <property name="Type" value="Grass"/>
   </properties>
  </tile>
  <tile id="1120">
   <properties>
    <property name="Type" value="Grass"/>
   </properties>
  </tile>
  <tile id="1121">
   <properties>
    <property name="Type" value="Grass"/>
   </properties>
  </tile>
  <tile id="1134">
   <properties>
    <property name="Type" value="Grass"/>
   </properties>
  </tile>
  <tile id="1135">
   <properties>
    <property name="Type" value="Grass"/>
   </properties>
  </tile>
  <tile id="1136">
   <properties>
    <property name="Type" value="Grass"/>
   </properties>
  </tile>
  <tile id="1137">
   <properties>
    <property name="Type" value="Grass"/>
   </properties>
  </tile>
  <tile id="1138">
   <properties>
    <property name="Type" value="Grass"/>
   </properties>
  </tile>
  <tile id="1139">
   <properties>
    <property name="Type" value="Grass"/>
   </properties>
  </tile>
  <tile id="1140">
   <properties>
    <property name="Type" value="Grass"/>
   </properties>
  </tile>
  <tile id="1141">
   <properties>
    <property name="Type" value="Grass"/>
   </properties>
  </tile>
  <tile id="1142">
   <properties>
    <property name="Type" value="Grass"/>
   </properties>
  </tile>
  <tile id="1143">
   <properties>
    <property name="Type" value="Grass"/>
   </properties>
  </tile>
  <tile id="1144">
   <properties>
    <property name="Type" value="Grass"/>
   </properties>
  </tile>
  <tile id="1145">
   <properties>
    <property name="Type" value="Grass"/>
   </properties>
  </tile>
  <tile id="1146">
   <properties>
    <property name="Type" value="Grass"/>
   </properties>
  </tile>
  <tile id="1147">
   <properties>
    <property name="Type" value="Grass"/>
   </properties>
  </tile>
  <tile id="1148">
   <properties>
    <property name="Type" value="Grass"/>
   </properties>
  </tile>
  <tile id="1161">
   <properties>
    <property name="Type" value="Grass"/>
   </properties>
  </tile>
  <tile id="1162">
   <properties>
    <property name="Type" value="Grass"/>
   </properties>
  </tile>
  <tile id="1163">
   <properties>
    <property name="Type" value="Grass"/>
   </properties>
  </tile>
  <tile id="1164">
   <properties>
    <property name="Type" value="Grass"/>
   </properties>
  </tile>
  <tile id="1165">
   <properties>
    <property name="Type" value="Grass"/>
   </properties>
  </tile>
  <tile id="1166">
   <properties>
    <property name="Type" value="Grass"/>
   </properties>
  </tile>
  <tile id="1167">
   <properties>
    <property name="Type" value="Grass"/>
   </properties>
  </tile>
  <tile id="1168">
   <properties>
    <property name="Type" value="Grass"/>
   </properties>
  </tile>
  <tile id="1169">
   <properties>
    <property name="Type" value="Grass"/>
   </properties>
  </tile>
  <tile id="1170">
   <properties>
    <property name="Type" value="Grass"/>
   </properties>
  </tile>
  <tile id="1171">
   <properties>
    <property name="Type" value="Grass"/>
   </properties>
  </tile>
  <tile id="1172">
   <properties>
    <property name="Type" value="Grass"/>
   </properties>
  </tile>
  <tile id="1173">
   <properties>
    <property name="Type" value="Grass"/>
   </properties>
  </tile>
  <tile id="1174">
   <properties>
    <property name="Type" value="Grass"/>
   </properties>
  </tile>
  <tile id="1175">
   <properties>
    <property name="Type" value="Grass"/>
   </properties>
  </tile>
  <tile id="1188">
   <properties>
    <property name="Type" value="Grass"/>
   </properties>
  </tile>
  <tile id="1189">
   <properties>
    <property name="Type" value="Grass"/>
   </properties>
  </tile>
  <tile id="1190">
   <properties>
    <property name="Type" value="Grass"/>
   </properties>
  </tile>
  <tile id="1191">
   <properties>
    <property name="Type" value="Grass"/>
   </properties>
  </tile>
  <tile id="1192">
   <properties>
    <property name="Type" value="Grass"/>
   </properties>
  </tile>
  <tile id="1193">
   <properties>
    <property name="Type" value="Grass"/>
   </properties>
  </tile>
  <tile id="1194">
   <properties>
    <property name="Type" value="Grass"/>
   </properties>
  </tile>
  <tile id="1195">
   <properties>
    <property name="Type" value="Grass"/>
   </properties>
  </tile>
  <tile id="1196">
   <properties>
    <property name="Type" value="Grass"/>
   </properties>
  </tile>
  <tile id="1197">
   <properties>
    <property name="Type" value="Grass"/>
   </properties>
  </tile>
  <tile id="1198">
   <properties>
    <property name="Type" value="Grass"/>
   </properties>
  </tile>
  <tile id="1199">
   <properties>
    <property name="Type" value="Grass"/>
   </properties>
  </tile>
  <tile id="1200">
   <properties>
    <property name="Type" value="Grass"/>
   </properties>
  </tile>
  <tile id="1201">
   <properties>
    <property name="Type" value="Grass"/>
   </properties>
  </tile>
  <tile id="1202">
   <properties>
    <property name="Type" value="Grass"/>
   </properties>
  </tile>
  <tile id="1215">
   <properties>
    <property name="Type" value="Grass"/>
   </properties>
  </tile>
  <tile id="1216">
   <properties>
    <property name="Type" value="Grass"/>
   </properties>
  </tile>
  <tile id="1217">
   <properties>
    <property name="Type" value="Grass"/>
   </properties>
  </tile>
  <tile id="1218">
   <properties>
    <property name="Type" value="Grass"/>
   </properties>
  </tile>
  <tile id="1219">
   <properties>
    <property name="Type" value="Grass"/>
   </properties>
  </tile>
  <tile id="1220">
   <properties>
    <property name="Type" value="Grass"/>
   </properties>
  </tile>
  <tile id="1221">
   <properties>
    <property name="Type" value="Grass"/>
   </properties>
  </tile>
  <tile id="1222">
   <properties>
    <property name="Type" value="Grass"/>
   </properties>
  </tile>
  <tile id="1223">
   <properties>
    <property name="Type" value="Grass"/>
   </properties>
  </tile>
  <tile id="1224">
   <properties>
    <property name="Type" value="Grass"/>
   </properties>
  </tile>
  <tile id="1225">
   <properties>
    <property name="Type" value="Grass"/>
   </properties>
  </tile>
  <tile id="1226">
   <properties>
    <property name="Type" value="Grass"/>
   </properties>
  </tile>
  <tile id="1227">
   <properties>
    <property name="Type" value="Grass"/>
   </properties>
  </tile>
  <tile id="1228">
   <properties>
    <property name="Type" value="Grass"/>
   </properties>
  </tile>
  <tile id="1229">
   <properties>
    <property name="Type" value="Grass"/>
   </properties>
  </tile>
  <tile id="1242">
   <properties>
    <property name="Type" value="Grass"/>
   </properties>
  </tile>
  <tile id="1243">
   <properties>
    <property name="Type" value="Grass"/>
   </properties>
  </tile>
  <tile id="1244">
   <properties>
    <property name="Type" value="Grass"/>
   </properties>
  </tile>
  <tile id="1245">
   <properties>
    <property name="Type" value="Grass"/>
   </properties>
  </tile>
  <tile id="1246">
   <properties>
    <property name="Type" value="Grass"/>
   </properties>
  </tile>
  <tile id="1247">
   <properties>
    <property name="Type" value="Grass"/>
   </properties>
  </tile>
  <tile id="1248">
   <properties>
    <property name="Type" value="Grass"/>
   </properties>
  </tile>
  <tile id="1249">
   <properties>
    <property name="Type" value="Grass"/>
   </properties>
  </tile>
  <tile id="1250">
   <properties>
    <property name="Type" value="Grass"/>
   </properties>
  </tile>
  <tile id="1251">
   <properties>
    <property name="Type" value="Grass"/>
   </properties>
  </tile>
  <tile id="1252">
   <properties>
    <property name="Type" value="Grass"/>
   </properties>
  </tile>
  <tile id="1253">
   <properties>
    <property name="Type" value="Grass"/>
   </properties>
  </tile>
  <tile id="1254">
   <properties>
    <property name="Type" value="Grass"/>
   </properties>
  </tile>
  <tile id="1255">
   <properties>
    <property name="Type" value="Grass"/>
   </properties>
  </tile>
  <tile id="1256">
   <properties>
    <property name="Type" value="Grass"/>
   </properties>
  </tile>
  <tile id="1269">
   <properties>
    <property name="Type" value="Grass"/>
   </properties>
  </tile>
  <tile id="1270">
   <properties>
    <property name="Type" value="Grass"/>
   </properties>
  </tile>
  <tile id="1271">
   <properties>
    <property name="Type" value="Grass"/>
   </properties>
  </tile>
  <tile id="1272">
   <properties>
    <property name="Type" value="Grass"/>
   </properties>
  </tile>
  <tile id="1273">
   <properties>
    <property name="Type" value="Grass"/>
   </properties>
  </tile>
  <tile id="1274">
   <properties>
    <property name="Type" value="Grass"/>
   </properties>
  </tile>
  <tile id="1275">
   <properties>
    <property name="Type" value="Grass"/>
   </properties>
  </tile>
  <tile id="1276">
   <properties>
    <property name="Type" value="Grass"/>
   </properties>
  </tile>
  <tile id="1277">
   <properties>
    <property name="Type" value="Grass"/>
   </properties>
  </tile>
  <tile id="1278">
   <properties>
    <property name="Type" value="Grass"/>
   </properties>
  </tile>
  <tile id="1279">
   <properties>
    <property name="Type" value="Grass"/>
   </properties>
  </tile>
  <tile id="1280">
   <properties>
    <property name="Type" value="Grass"/>
   </properties>
  </tile>
  <tile id="1281">
   <properties>
    <property name="Type" value="Grass"/>
   </properties>
  </tile>
  <tile id="1282">
   <properties>
    <property name="Type" value="Grass"/>
   </properties>
  </tile>
  <tile id="1283">
   <properties>
    <property name="Type" value="Grass"/>
   </properties>
  </tile>
  <tile id="1296">
   <properties>
    <property name="Type" value="Grass"/>
   </properties>
  </tile>
  <tile id="1297">
   <properties>
    <property name="Type" value="Grass"/>
   </properties>
  </tile>
  <tile id="1298">
   <properties>
    <property name="Type" value="Grass"/>
   </properties>
  </tile>
  <tile id="1299">
   <properties>
    <property name="Type" value="Grass"/>
   </properties>
  </tile>
  <tile id="1300">
   <properties>
    <property name="Type" value="Grass"/>
   </properties>
  </tile>
  <tile id="1301">
   <properties>
    <property name="Type" value="Grass"/>
   </properties>
  </tile>
  <tile id="1302">
   <properties>
    <property name="Type" value="Grass"/>
   </properties>
  </tile>
  <tile id="1303">
   <properties>
    <property name="Type" value="Grass"/>
   </properties>
  </tile>
  <tile id="1304">
   <properties>
    <property name="Type" value="Grass"/>
   </properties>
  </tile>
  <tile id="1305">
   <properties>
    <property name="Type" value="Grass"/>
   </properties>
  </tile>
  <tile id="1306">
   <properties>
    <property name="Type" value="Grass"/>
   </properties>
  </tile>
  <tile id="1307">
   <properties>
    <property name="Type" value="Grass"/>
   </properties>
  </tile>
  <tile id="1308">
   <properties>
    <property name="Type" value="Grass"/>
   </properties>
  </tile>
  <tile id="1309">
   <properties>
    <property name="Type" value="Grass"/>
   </properties>
  </tile>
  <tile id="1310">
   <properties>
    <property name="Type" value="Grass"/>
   </properties>
  </tile>
  <tile id="1323">
   <properties>
    <property name="Type" value="Grass"/>
   </properties>
  </tile>
  <tile id="1324">
   <properties>
    <property name="Type" value="Grass"/>
   </properties>
  </tile>
  <tile id="1325">
   <properties>
    <property name="Type" value="Grass"/>
   </properties>
  </tile>
  <tile id="1326">
   <properties>
    <property name="Type" value="Grass"/>
   </properties>
  </tile>
  <tile id="1327">
   <properties>
    <property name="Type" value="Grass"/>
   </properties>
  </tile>
  <tile id="1328">
   <properties>
    <property name="Type" value="Grass"/>
   </properties>
  </tile>
  <tile id="1329">
   <properties>
    <property name="Type" value="Grass"/>
   </properties>
  </tile>
  <tile id="1330">
   <properties>
    <property name="Type" value="Grass"/>
   </properties>
  </tile>
  <tile id="1331">
   <properties>
    <property name="Type" value="Grass"/>
   </properties>
  </tile>
  <tile id="1332">
   <properties>
    <property name="Type" value="Grass"/>
   </properties>
  </tile>
  <tile id="1333">
   <properties>
    <property name="Type" value="Grass"/>
   </properties>
  </tile>
  <tile id="1334">
   <properties>
    <property name="Type" value="Grass"/>
   </properties>
  </tile>
  <tile id="1335">
   <properties>
    <property name="Type" value="Grass"/>
   </properties>
  </tile>
  <tile id="1336">
   <properties>
    <property name="Type" value="Grass"/>
   </properties>
  </tile>
  <tile id="1337">
   <properties>
    <property name="Type" value="Grass"/>
   </properties>
  </tile>
  <tile id="1348">
   <properties>
    <property name="NoSpawn" value="All"/>
   </properties>
  </tile>
  <tile id="1349">
   <properties>
    <property name="NoSpawn" value="All"/>
    <property name="Passable" type="bool" value="false"/>
   </properties>
  </tile>
  <tile id="1350">
   <properties>
    <property name="Type" value="Grass"/>
   </properties>
  </tile>
  <tile id="1351">
   <properties>
    <property name="Type" value="Grass"/>
   </properties>
  </tile>
  <tile id="1352">
   <properties>
    <property name="Type" value="Grass"/>
   </properties>
  </tile>
  <tile id="1353">
   <properties>
    <property name="Type" value="Grass"/>
   </properties>
  </tile>
  <tile id="1354">
   <properties>
    <property name="Type" value="Grass"/>
   </properties>
  </tile>
  <tile id="1355">
   <properties>
    <property name="Type" value="Grass"/>
   </properties>
  </tile>
  <tile id="1356">
   <properties>
    <property name="Type" value="Grass"/>
   </properties>
  </tile>
  <tile id="1357">
   <properties>
    <property name="Type" value="Grass"/>
   </properties>
  </tile>
  <tile id="1358">
   <properties>
    <property name="Type" value="Grass"/>
   </properties>
  </tile>
  <tile id="1359">
   <properties>
    <property name="Type" value="Grass"/>
   </properties>
  </tile>
  <tile id="1360">
   <properties>
    <property name="Type" value="Grass"/>
   </properties>
  </tile>
  <tile id="1361">
   <properties>
    <property name="Type" value="Grass"/>
   </properties>
  </tile>
  <tile id="1362">
   <properties>
    <property name="Type" value="Grass"/>
   </properties>
  </tile>
  <tile id="1363">
   <properties>
    <property name="Type" value="Grass"/>
   </properties>
  </tile>
  <tile id="1364">
   <properties>
    <property name="Type" value="Grass"/>
   </properties>
  </tile>
  <tile id="1375">
   <properties>
    <property name="NoSpawn" value="All"/>
   </properties>
  </tile>
  <tile id="1376">
   <properties>
    <property name="NoSpawn" value="All"/>
    <property name="Passable" type="bool" value="false"/>
   </properties>
  </tile>
 </tileset>
 <tileset firstgid="2655" name="x10 - fall_ATK_AToMS_EXaqua" tilewidth="16" tileheight="16" tilecount="1377" columns="27">
  <image source="fall_ATK_AToMS_EXaqua.png" width="432" height="816"/>
  <tile id="178">
   <animation>
    <frame tileid="178" duration="1000"/>
    <frame tileid="179" duration="1000"/>
   </animation>
  </tile>
  <tile id="180">
   <animation>
    <frame tileid="180" duration="1000"/>
    <frame tileid="181" duration="1000"/>
   </animation>
  </tile>
  <tile id="791">
   <properties>
    <property name="Type" value="Wood"/>
   </properties>
  </tile>
  <tile id="792">
   <properties>
    <property name="Type" value="Wood"/>
   </properties>
  </tile>
  <tile id="793">
   <properties>
    <property name="Type" value="Wood"/>
   </properties>
  </tile>
  <tile id="818">
   <properties>
    <property name="Type" value="Wood"/>
   </properties>
  </tile>
  <tile id="819">
   <properties>
    <property name="Type" value="Wood"/>
   </properties>
  </tile>
  <tile id="820">
   <properties>
    <property name="Type" value="Wood"/>
   </properties>
  </tile>
  <tile id="845">
   <properties>
    <property name="Type" value="Wood"/>
   </properties>
  </tile>
  <tile id="846">
   <properties>
    <property name="Type" value="Wood"/>
   </properties>
  </tile>
  <tile id="847">
   <properties>
    <property name="Type" value="Wood"/>
   </properties>
  </tile>
  <tile id="848">
   <animation>
    <frame tileid="848" duration="1000"/>
    <frame tileid="902" duration="1000"/>
   </animation>
  </tile>
  <tile id="849">
   <animation>
    <frame tileid="849" duration="1000"/>
    <frame tileid="903" duration="1000"/>
   </animation>
  </tile>
  <tile id="850">
   <animation>
    <frame tileid="850" duration="1000"/>
    <frame tileid="904" duration="1000"/>
   </animation>
  </tile>
  <tile id="851">
   <animation>
    <frame tileid="851" duration="1000"/>
    <frame tileid="905" duration="1000"/>
   </animation>
  </tile>
  <tile id="852">
   <animation>
    <frame tileid="852" duration="1000"/>
    <frame tileid="906" duration="1000"/>
   </animation>
  </tile>
  <tile id="853">
   <animation>
    <frame tileid="853" duration="1000"/>
    <frame tileid="907" duration="1000"/>
   </animation>
  </tile>
  <tile id="872">
   <properties>
    <property name="Type" value="Wood"/>
   </properties>
  </tile>
  <tile id="873">
   <properties>
    <property name="Type" value="Wood"/>
   </properties>
  </tile>
  <tile id="874">
   <properties>
    <property name="Type" value="Wood"/>
   </properties>
  </tile>
  <tile id="875">
   <animation>
    <frame tileid="875" duration="1000"/>
    <frame tileid="929" duration="1000"/>
   </animation>
  </tile>
  <tile id="876">
   <animation>
    <frame tileid="876" duration="1000"/>
    <frame tileid="930" duration="1000"/>
   </animation>
  </tile>
  <tile id="877">
   <animation>
    <frame tileid="877" duration="1000"/>
    <frame tileid="931" duration="1000"/>
   </animation>
  </tile>
  <tile id="878">
   <animation>
    <frame tileid="878" duration="1000"/>
    <frame tileid="932" duration="1000"/>
   </animation>
  </tile>
  <tile id="879">
   <animation>
    <frame tileid="879" duration="1000"/>
    <frame tileid="933" duration="1000"/>
   </animation>
  </tile>
  <tile id="880">
   <animation>
    <frame tileid="880" duration="1000"/>
    <frame tileid="934" duration="1000"/>
   </animation>
  </tile>
  <tile id="899">
   <properties>
    <property name="Type" value="Wood"/>
   </properties>
  </tile>
  <tile id="900">
   <properties>
    <property name="Type" value="Wood"/>
   </properties>
  </tile>
  <tile id="901">
   <properties>
    <property name="Type" value="Wood"/>
   </properties>
  </tile>
  <tile id="921">
   <properties>
    <property name="Type" value="Wood"/>
   </properties>
  </tile>
  <tile id="922">
   <properties>
    <property name="Type" value="Wood"/>
   </properties>
  </tile>
  <tile id="926">
   <properties>
    <property name="Type" value="Wood"/>
   </properties>
  </tile>
  <tile id="927">
   <properties>
    <property name="Type" value="Wood"/>
   </properties>
  </tile>
  <tile id="928">
   <properties>
    <property name="Type" value="Wood"/>
   </properties>
  </tile>
  <tile id="948">
   <properties>
    <property name="Type" value="Wood"/>
   </properties>
  </tile>
  <tile id="949">
   <properties>
    <property name="Type" value="Wood"/>
   </properties>
  </tile>
  <tile id="975">
   <properties>
    <property name="Type" value="Wood"/>
   </properties>
  </tile>
  <tile id="976">
   <properties>
    <property name="Type" value="Wood"/>
   </properties>
  </tile>
  <tile id="980">
   <properties>
    <property name="Type" value="Wood"/>
   </properties>
  </tile>
  <tile id="981">
   <properties>
    <property name="Type" value="Wood"/>
   </properties>
  </tile>
  <tile id="982">
   <properties>
    <property name="Type" value="Wood"/>
   </properties>
  </tile>
  <tile id="1159">
   <animation>
    <frame tileid="1159" duration="1000"/>
    <frame tileid="1186" duration="1000"/>
   </animation>
  </tile>
  <tile id="1160">
   <animation>
    <frame tileid="1160" duration="1000"/>
    <frame tileid="1187" duration="1000"/>
   </animation>
  </tile>
  <tile id="1183">
   <properties>
    <property name="Type" value="Wood"/>
   </properties>
  </tile>
  <tile id="1184">
   <properties>
    <property name="Type" value="Wood"/>
   </properties>
  </tile>
  <tile id="1185">
   <properties>
    <property name="Type" value="Wood"/>
   </properties>
  </tile>
 </tileset>
 <tileset firstgid="4032" name="x13 - ATK_AToMS_INextra" tilewidth="16" tileheight="16" tilecount="625" columns="25">
  <image source="ATK_AToMS_INextra.png" width="400" height="400"/>
  <tile id="48">
   <animation>
    <frame tileid="94" duration="100"/>
    <frame tileid="95" duration="100"/>
    <frame tileid="96" duration="100"/>
    <frame tileid="97" duration="100"/>
    <frame tileid="98" duration="100"/>
    <frame tileid="99" duration="100"/>
   </animation>
  </tile>
  <tile id="71">
   <animation>
    <frame tileid="119" duration="100"/>
    <frame tileid="120" duration="100"/>
    <frame tileid="121" duration="100"/>
    <frame tileid="122" duration="100"/>
    <frame tileid="123" duration="100"/>
    <frame tileid="124" duration="100"/>
   </animation>
  </tile>
 </tileset>
 <layer id="1" name="Back" width="60" height="50">
  <data encoding="csv">
0,0,0,0,0,0,0,0,0,0,0,0,0,0,0,0,0,0,0,0,0,277,277,2147483926,276,277,277,277,2147483909,277,277,276,277,277,277,277,277,0,0,0,0,0,0,0,0,0,0,0,0,0,0,0,0,0,277,277,261,278,277,0,
0,0,0,0,0,0,0,0,0,0,0,0,0,0,0,0,0,0,0,0,0,277,276,277,277,276,277,276,277,276,277,277,277,261,277,277,277,0,0,0,0,0,0,0,0,0,0,0,0,0,0,0,0,0,0,277,277,277,0,0,
2654,0,2654,2654,2654,2654,2654,2654,2654,2654,2654,2654,2654,2654,2654,0,0,0,0,0,0,0,277,277,277,277,261,277,277,277,277,277,277,277,277,277,0,0,0,0,0,0,0,0,0,2654,2654,2654,2654,2654,2654,2654,2654,0,2654,0,0,0,0,0,
90,2654,118,3554,3555,3556,2446,139,139,2446,2446,2446,2446,219,219,2654,2654,0,0,0,0,0,0,0,0,277,277,277,278,277,0,0,0,0,0,0,0,0,0,0,0,0,0,2654,2654,2446,2446,2446,219,219,219,219,219,2654,2147483791,2654,0,0,0,0,
106,2654,194,3581,3582,3583,167,2684354743,1610612921,168,169,2147483883,235,235,2147483891,2147483889,139,2654,2654,0,0,0,0,0,0,0,277,277,277,0,0,0,0,0,0,0,0,0,0,0,0,2654,2654,139,241,243,235,235,235,235,235,235,186,219,219,2654,0,2654,2654,2654,
235,236,2147483816,139,139,3221225672,153,166,166,2147483832,152,169,154,139,2147483907,3221225729,241,243,139,2654,2654,0,0,0,0,0,0,0,0,0,0,0,0,0,0,0,0,0,0,2654,2654,139,241,243,257,1073742083,154,139,141,139,139,139,234,235,186,2654,2654,2654,2446,2446,
168,3221225623,166,1610612887,2684354710,166,166,184,166,182,166,1073741975,169,139,2147483907,2147483905,1073742081,259,2147483891,2147483889,139,2654,2654,2654,2654,0,0,0,0,0,2654,2654,2654,2654,2654,2654,2654,2654,2654,139,2147483891,2147483889,1073742081,1073742083,1073742081,259,139,138,139,140,171,172,139,139,2446,2446,2446,2446,219,219,
166,166,184,166,166,166,184,2147483814,2147483814,2147483814,166,166,185,139,2147483923,2147483921,1073742081,1073742083,2147483907,2147483905,2147483891,2147483890,2147483889,2446,2446,2654,2654,2654,2654,2654,2446,2446,2446,2446,2446,2446,2446,241,242,243,2147483907,2147483905,257,1073742083,273,275,139,139,139,139,139,139,139,138,234,235,235,235,235,235,
2654,166,166,2147483830,2147483814,166,2147483814,166,166,184,166,166,2654,2654,2654,2654,273,275,2147483907,3221225729,2147483907,2147483906,2147483905,235,186,2446,2446,2446,2446,219,220,235,235,235,235,235,235,257,258,259,2147483907,2147483905,273,275,2654,2654,139,139,139,139,139,139,139,139,139,2,3,3,4,2654,
0,2654,166,166,2147483832,166,2147483814,166,2147483814,166,166,2654,0,0,0,0,2654,2654,2147483923,2147483921,2147483923,2147483906,2147483905,154,234,235,235,235,235,235,236,167,1073742024,1610612921,1073742024,168,169,1073742081,1073742082,275,2147483923,2147483921,2654,0,0,0,2654,139,3758096659,1610612995,1610613011,139,139,2654,2654,18,19,2147483667,20,2654,
0,2654,3221225640,200,2147483799,166,166,2147483830,166,166,2654,0,0,0,0,0,0,0,2654,2654,2654,2147483922,2147483921,168,169,140,167,1073742024,1610612921,1073742024,168,153,166,182,184,184,185,273,274,2654,2654,2654,0,0,0,0,2654,139,3758096658,1610612994,1610613010,139,2654,0,2654,18,19,19,20,2654,
0,0,2654,140,2147483833,166,166,166,166,2654,0,0,0,0,0,0,0,0,0,0,2654,168,153,182,3221225622,168,153,166,184,166,184,184,166,166,166,151,1610612921,153,166,2654,0,0,0,0,0,0,0,2654,3758096657,1610612993,1610613009,2654,0,2654,138,18,2147483667,19,20,138,
0,0,2654,139,154,2147483799,2654,2654,2654,0,0,0,0,0,0,0,0,0,0,2654,2654,166,184,166,166,166,184,166,166,184,166,166,166,2147483798,200,153,166,184,166,0,2654,0,0,0,0,0,0,0,2654,2654,2654,2654,0,2654,138,18,19,2147483667,20,138,
0,0,0,2654,139,2654,0,0,0,0,0,0,0,0,0,0,0,2654,2654,2446,2446,220,2684354711,166,2147483832,166,166,182,166,151,200,1073741992,200,201,2684354710,182,166,166,166,151,219,0,2654,0,0,0,0,0,0,0,0,0,0,2654,138,18,19,19,20,138,
0,0,0,0,2654,0,0,0,0,0,0,0,0,0,0,2654,2654,139,2147483891,2147483889,235,236,153,166,184,2147483798,1610612919,200,1073741992,170,139,139,139,183,166,166,166,166,166,1610612936,2147483891,2147483889,139,2654,2654,0,0,0,0,0,0,0,0,0,2654,18,2147483667,19,20,2654,
0,0,0,0,0,0,0,0,0,0,0,0,2654,2654,2654,139,241,243,2147483907,2147483905,139,2147483833,166,166,151,139,139,139,139,139,139,2654,2654,2654,2654,166,166,166,2684354712,139,2147483907,2147483905,2147483891,2147483889,139,2654,2654,2654,2654,2654,2654,2654,0,0,0,2654,19,19,2654,0,
0,0,0,0,0,2654,2654,2654,2654,2654,2654,2654,2654,241,242,243,257,1073742083,2147483907,2147483905,183,139,150,151,139,2654,2654,2654,2654,2654,2654,0,0,0,0,2654,2654,151,139,139,2147483907,2147483905,3221225731,3221225729,241,242,243,219,2446,2446,2446,2654,0,0,0,0,2654,2654,0,0,
0,0,0,2654,2654,219,219,219,2446,2446,2446,2446,219,257,258,259,1073742081,1073742083,2147483923,2147483921,2654,2654,2654,2654,2654,0,0,0,0,0,0,0,0,0,0,0,0,2654,2654,2654,2147483923,2147483921,3221225731,3221225729,1073742081,1073742082,1073742083,2147483883,235,235,2446,2654,0,0,0,0,0,0,0,0,
0,0,2654,2446,113,187,235,235,235,235,235,235,235,257,258,259,273,275,2654,2654,0,0,0,0,0,2147483756,0,0,0,0,0,0,0,0,0,0,0,0,0,0,2654,2654,2147483923,2147483921,257,258,259,139,139,139,139,2654,0,0,0,0,0,0,0,0,
0,2654,219,220,235,236,139,155,139,139,139,139,2147483802,273,274,275,2654,2654,0,0,0,0,0,0,0,91,0,0,0,0,0,0,0,0,0,0,0,0,0,0,0,0,2654,2654,273,274,275,139,155,139,139,2654,0,0,0,0,0,0,0,0,
0,2654,219,1073742044,139,139,170,167,168,168,169,138,139,139,2654,2654,0,0,0,0,1073741914,1073741915,0,1073741917,1073741914,2147483740,0,0,0,0,2654,2654,2654,2654,2654,0,0,1073741915,1073741916,0,0,0,0,2654,139,139,141,139,139,139,139,2654,0,0,0,0,0,0,0,0,
0,2654,219,1073742044,139,167,168,153,184,166,152,169,139,139,2654,0,0,0,0,0,0,0,0,0,0,2654,2654,2654,2654,2654,2446,2446,2446,2446,2446,2654,2654,0,0,0,0,0,0,2654,139,139,139,139,139,139,2446,2654,0,0,0,0,0,0,0,0,
2654,2446,219,220,167,3221225623,166,166,166,166,182,185,139,139,2654,2654,2654,2654,2654,2654,2654,2654,2654,2654,2654,2446,2446,2446,2446,2446,219,187,235,186,2446,2446,2446,2654,2654,2654,2654,2654,2654,2654,139,139,139,154,138,139,219,219,2654,2654,2654,2654,2654,2654,0,0,
2446,2446,187,236,2147483800,166,2147483830,166,166,2147483814,3221225625,201,139,218,2446,2446,219,219,2446,219,219,219,219,219,219,219,187,235,235,235,235,236,140,234,235,186,219,219,219,219,219,219,219,2446,2147483866,139,139,139,139,139,234,186,2446,2446,2446,219,219,219,2654,2654,
235,235,236,3221225623,166,166,166,184,166,151,201,154,139,234,235,235,235,235,235,235,235,235,235,235,235,235,236,141,247,248,248,248,248,249,170,234,235,235,235,235,235,235,235,235,236,139,139,139,139,139,139,234,235,235,235,235,186,219,2446,2446,
139,139,183,166,184,166,2147483814,166,2147483798,201,139,139,139,139,171,172,139,139,247,248,248,248,248,248,248,248,248,248,263,264,264,264,264,265,248,248,248,248,248,248,248,249,139,138,139,139,170,139,139,141,139,139,139,167,168,168,234,235,235,2446,
2446,139,183,2147483832,166,166,166,151,201,139,139,139,139,138,139,139,139,139,263,264,264,264,264,264,264,264,264,264,282,1546,267,249,1573,283,264,264,264,264,264,264,264,265,139,139,156,155,139,139,139,156,139,2147483820,2147483819,183,2147483832,166,1610612887,169,139,2446,
2446,167,3221225623,166,166,166,3221225625,201,170,139,139,139,156,139,139,139,139,139,1546,1573,1600,1546,1573,1546,1599,1546,1546,1546,1573,247,263,265,1546,1573,1546,267,266,1600,1599,1546,1573,1546,139,139,139,139,139,139,139,139,140,139,167,3221225623,182,166,166,152,168,153,
2446,183,166,166,2147483814,182,185,139,139,139,139,141,139,139,139,140,139,139,1546,1573,267,266,1573,1573,1573,1546,1546,1573,247,263,282,1546,247,248,248,263,282,1546,1573,1573,2147483788,139,139,139,141,139,156,139,154,139,139,139,183,166,166,166,184,166,166,166,
139,183,166,166,2147483832,2147483798,201,139,156,139,139,139,156,139,170,139,139,156,139,1573,283,282,1599,1546,267,249,1546,1546,263,265,249,247,263,264,264,282,1546,1546,139,139,139,139,139,139,139,139,139,139,139,139,139,139,2147483833,166,184,166,166,166,2147483830,166,
167,153,166,166,166,185,139,140,139,139,139,139,139,139,139,2147483820,2147483819,139,139,169,1573,1573,1546,1546,283,265,248,249,1546,283,265,263,282,1573,139,139,139,139,171,172,139,139,139,2654,139,139,139,139,139,170,139,139,199,150,166,166,166,166,184,166,
166,2147483830,2147483814,166,166,185,139,139,156,139,139,154,139,139,156,139,139,139,155,139,1573,267,249,247,249,283,264,265,266,1600,283,282,1573,139,139,139,139,139,139,139,156,139,139,2654,2654,139,139,139,139,139,139,139,139,2147483833,166,166,2147483832,166,166,166,
166,166,166,166,151,201,170,139,139,139,139,139,139,139,139,139,139,139,139,139,1546,283,265,263,265,249,1546,283,282,1546,139,170,139,139,139,141,139,139,140,139,139,139,2446,2654,0,2654,2654,139,139,139,139,139,139,199,3221225640,2147483799,166,166,166,166,
166,2147483832,166,166,185,139,139,138,139,139,156,139,139,155,139,139,170,139,139,139,139,1573,267,249,283,265,266,1546,1546,155,139,139,156,139,139,139,139,139,139,139,139,139,2446,2654,0,0,0,2654,2654,139,139,155,139,139,138,183,166,166,184,166,
166,166,166,151,201,156,139,141,139,139,154,139,139,139,139,139,139,139,141,139,139,1573,283,265,266,283,282,1546,139,139,139,139,139,139,139,139,139,170,139,139,139,139,2446,2446,2654,2654,0,0,2654,139,139,139,156,139,139,2147483833,182,166,166,166,
200,3221225640,3221225640,201,139,139,139,139,139,139,140,2147483803,139,139,139,139,139,139,139,139,139,139,1573,283,282,1546,2147485247,1573,139,139,167,168,169,139,154,139,139,139,139,140,139,139,2147483884,2446,219,219,2654,2654,2654,139,139,139,139,139,139,199,150,184,166,166,
139,139,139,139,155,139,139,139,139,139,171,172,139,139,139,139,139,139,139,139,140,139,139,139,139,2684358163,536874515,139,139,167,183,166,152,168,169,139,139,156,139,139,141,139,139,234,235,186,2446,2446,2446,139,139,139,139,154,139,139,199,3221225624,166,151,
2654,139,139,139,139,139,139,140,139,139,139,139,141,139,156,141,141,141,156,139,167,168,139,139,1573,1546,1546,267,249,167,153,184,166,182,185,139,139,139,139,139,139,139,139,139,156,234,235,235,186,2446,141,139,139,139,139,156,139,138,2684354711,166,
0,2654,139,139,139,156,139,139,139,139,139,139,139,139,141,1073742026,235,156,156,139,183,184,152,169,1573,267,249,283,265,183,166,166,166,166,2147483801,169,139,155,139,139,139,139,139,139,139,139,139,139,2147483884,236,139,139,247,248,248,249,139,139,139,2446,
0,0,2654,139,139,170,139,139,139,139,2147483802,139,139,156,139,155,141,141,141,167,153,166,166,185,139,283,265,266,1599,199,2147483799,166,166,184,166,2147483801,169,139,156,139,139,154,139,139,138,140,139,139,139,156,247,248,263,264,264,265,248,249,171,2446,
0,0,2654,139,139,139,139,156,139,139,139,139,139,139,139,139,139,139,139,2147483833,2147483830,166,184,2147483801,169,1546,283,282,267,249,183,166,2147483832,166,166,2147483830,152,168,169,139,139,139,139,139,139,2147483820,2147483819,247,248,248,263,264,282,1600,1573,283,264,265,139,2446,
0,0,2654,139,139,139,139,139,139,139,139,170,139,139,155,139,156,139,167,2147483800,2147483832,166,166,166,185,267,266,1600,283,265,199,150,166,166,166,166,2147483832,166,185,140,139,156,139,141,139,139,247,263,264,264,282,1546,1546,1546,1546,1546,1573,267,249,139,
2654,2654,2654,139,241,243,139,139,139,139,139,139,139,139,139,139,167,168,153,166,166,166,166,182,2147483831,283,265,249,1573,267,249,183,166,166,184,166,166,166,152,169,139,139,139,139,139,139,263,282,1073743423,2654,2654,2654,2654,2654,2654,1546,1546,283,265,170,
139,139,139,139,257,259,139,2654,2654,139,3758096659,1610612995,1610613011,139,139,167,2147483800,166,184,182,166,166,184,166,1610612887,169,283,265,249,283,265,199,150,182,166,166,166,166,184,1073741975,168,169,139,139,139,139,1546,1546,2654,0,0,0,0,0,2654,139,1546,1546,267,249,
242,243,241,242,258,259,139,2654,0,2654,3758096658,1610612994,1610613010,139,139,3221225623,166,2147483832,166,166,166,2147483832,166,166,166,185,139,139,2684358163,536874515,139,139,183,166,166,166,166,2147483832,166,166,166,1073741975,169,139,139,2654,2654,2654,0,0,0,0,0,0,2654,139,1546,1546,283,265,
274,275,273,274,274,275,139,2654,0,0,2654,536871171,536871187,2654,2654,166,166,166,166,166,166,166,166,166,2147483830,152,169,1546,267,266,1573,167,153,166,166,2147483832,151,1610612889,166,166,184,166,1610612936,139,2654,0,0,0,0,0,0,2654,2654,2654,2654,139,1546,1573,1600,283,
248,248,248,248,249,139,139,2654,2654,2654,2654,2654,2654,0,0,2654,166,151,200,150,166,182,166,184,166,166,185,1546,283,282,1546,183,166,166,166,2684354712,141,199,150,166,166,166,2654,2654,0,0,0,0,0,0,2654,139,139,139,139,247,266,1573,1546,1546,
264,264,264,264,265,249,139,139,139,139,139,2654,2654,0,0,0,2654,2654,139,199,2684354711,166,166,166,166,166,185,1546,1546,1573,1546,183,166,166,184,1610612887,169,139,199,2654,2654,2654,0,0,0,0,0,0,0,2654,139,139,247,248,248,263,282,277,1601,1573,
1573,1573,1573,1599,283,265,248,248,248,249,139,139,139,2654,0,0,0,0,2654,2654,183,166,166,2654,2654,2654,2654,203,203,203,203,2654,2654,2654,166,166,2654,2654,2654,0,0,0,2654,2654,2654,2654,2654,2654,2654,139,139,247,263,264,264,282,277,261,277,1546,
2654,2654,1546,1546,1573,283,264,264,264,265,248,249,139,139,2654,0,0,0,0,0,2654,2654,2654,0,0,0,0,2654,219,219,2654,0,0,0,2654,2654,0,0,0,0,0,2654,139,139,139,139,139,139,139,139,247,263,282,276,278,277,276,277,276,139
</data>
 </layer>
 <layer id="13" name="Back2" width="60" height="50">
  <data encoding="csv">
0,0,0,0,0,0,0,0,0,0,0,0,0,0,0,0,0,0,0,0,0,0,0,0,0,0,0,0,0,0,0,0,0,0,0,0,0,0,0,0,0,0,0,0,0,0,0,0,0,0,0,0,0,0,0,0,0,0,0,0,
0,0,0,0,0,0,0,0,0,0,0,0,0,0,0,0,0,0,0,0,0,0,0,0,0,0,0,0,0,0,0,0,0,0,0,0,0,0,0,0,0,0,0,0,0,0,0,0,0,0,0,0,0,0,0,0,0,0,0,0,
0,0,0,0,0,0,0,0,0,0,0,0,0,0,0,0,0,0,0,0,0,0,0,0,0,0,0,0,0,0,0,0,0,0,0,0,0,0,0,0,0,0,0,0,0,0,0,0,0,0,0,0,0,0,0,0,0,0,0,0,
0,0,0,0,0,0,0,2447,2147486038,0,0,0,0,536873304,0,0,0,0,0,0,0,0,0,0,0,0,0,0,0,0,0,0,0,0,0,0,0,0,0,0,0,0,0,0,0,0,0,0,2471,0,0,0,0,0,0,0,0,0,0,0,
0,0,0,1300,1301,0,2473,2474,2472,2147486121,2473,3221227891,2394,1610615127,0,0,0,0,0,0,0,0,0,0,0,0,0,0,0,0,0,0,0,0,0,0,0,0,0,0,0,0,0,0,0,2147486122,2147486041,2147486039,2147486120,1298,1299,1299,0,0,0,0,0,0,0,0,
0,0,0,2684358194,1610616341,1610616368,0,0,0,0,0,0,3221227892,1073744244,0,0,0,0,0,0,0,0,0,0,0,0,0,0,0,0,0,0,0,0,0,0,0,0,0,0,0,0,0,0,0,0,0,0,0,0,0,0,2418,2147486149,1073744216,0,0,0,0,0,
0,0,0,0,0,0,0,0,0,0,0,0,0,0,0,0,0,0,0,0,0,0,0,0,0,0,0,0,0,0,0,0,0,0,0,0,0,0,0,0,0,0,0,0,0,0,0,0,0,0,0,0,2147486122,2394,0,0,0,0,2390,2473,
0,0,0,0,0,0,0,0,0,0,0,0,0,0,0,0,0,0,0,0,0,0,2445,0,0,0,0,0,0,0,0,0,0,0,0,0,0,2447,0,0,0,0,0,0,0,0,0,0,0,0,0,0,0,3221227892,3221227891,3221227973,3221227972,3221227971,3221227890,0,
0,0,0,0,0,0,0,0,0,0,0,0,0,0,0,0,0,0,0,0,0,0,2147486122,2473,2394,0,0,0,0,2447,2394,2390,2473,2391,2392,2393,2473,2474,0,0,0,0,0,0,0,0,0,0,0,0,0,0,0,0,0,0,0,0,0,0,
0,0,0,0,0,0,0,0,0,0,0,0,0,0,0,0,0,0,0,0,0,0,0,0,2472,2391,2392,2147486040,2393,2474,2147486122,2147486120,0,0,0,0,0,0,0,0,0,0,0,0,0,0,0,0,4054,4055,4056,0,0,0,0,0,0,0,4137,0,
0,0,0,0,0,0,0,0,0,0,0,0,0,0,0,0,0,0,0,0,0,0,0,0,0,0,0,0,0,0,0,0,0,0,0,0,0,0,0,0,0,0,0,0,0,0,0,0,4079,4080,4081,0,0,0,0,0,0,0,0,0,
0,0,0,0,0,0,0,0,0,0,0,0,0,0,0,0,0,0,0,0,0,0,0,0,0,0,0,0,0,0,0,0,0,0,0,0,0,0,0,0,0,0,0,0,0,0,0,0,4104,4105,4106,0,0,0,0,0,0,0,0,0,
0,0,0,0,0,0,0,0,0,0,0,0,0,0,0,0,0,0,0,0,0,0,0,0,0,0,0,0,0,0,0,0,0,0,0,0,0,0,0,2654,0,0,0,0,0,0,0,0,0,0,0,0,0,0,0,0,0,0,0,0,
0,0,0,0,0,0,0,0,0,0,0,0,0,0,0,0,0,0,0,0,0,1073744271,0,0,0,0,0,0,0,0,0,0,0,0,0,0,0,0,0,0,0,2654,0,0,0,0,0,0,0,0,0,0,0,0,0,0,0,0,0,0,
0,0,0,0,0,0,0,0,0,0,0,0,0,0,0,0,0,0,0,2147486122,2147486121,2147486120,0,0,0,0,0,0,0,0,0,0,0,0,0,0,0,0,0,0,0,0,0,0,0,0,0,0,0,0,0,0,0,0,0,0,0,0,0,0,
0,0,0,0,0,0,0,0,0,0,0,0,0,0,0,0,0,0,0,0,0,0,0,0,0,0,0,0,0,0,0,0,0,0,0,0,0,0,0,0,0,0,0,0,0,0,0,0,0,0,0,0,0,0,0,0,0,0,0,0,
0,0,0,0,0,0,0,0,0,0,0,0,0,0,0,0,0,0,0,0,0,0,0,0,0,0,0,0,0,0,0,0,0,0,0,0,0,0,0,0,0,0,0,0,0,0,0,2445,0,0,0,0,0,0,0,0,0,0,0,0,
0,0,0,0,0,0,2390,2394,0,0,0,0,2471,0,0,0,0,0,0,0,0,0,0,0,0,0,0,0,0,0,0,0,0,0,0,0,0,0,0,0,0,0,0,0,0,0,0,2472,2473,2147486038,0,0,0,0,0,0,0,0,0,0,
0,0,0,0,0,2390,2147486120,2147486122,2391,2393,2473,2147486121,2474,0,0,0,0,0,0,0,0,0,0,0,0,0,0,0,0,0,0,0,0,0,0,0,0,0,0,0,0,0,0,0,0,0,0,0,0,2147486122,2473,0,0,0,0,0,0,0,0,0,
0,0,2391,2147486040,2393,2474,0,0,0,0,0,0,0,0,0,0,0,0,0,0,0,0,0,0,0,0,0,0,0,0,0,0,0,0,0,0,0,0,0,0,0,0,0,0,0,0,0,0,0,0,0,0,0,0,0,0,0,0,0,0,
0,0,3221227945,1073744297,1073744298,0,0,0,0,0,0,0,0,0,0,0,0,0,0,0,0,0,0,0,0,0,0,0,0,0,0,0,0,0,0,0,0,0,0,0,0,0,0,0,0,0,0,0,0,3758098858,2419,0,0,0,0,0,0,0,0,0,
0,0,2147486121,2394,2417,0,0,0,0,0,0,0,0,0,0,0,0,0,0,0,0,0,0,0,0,0,0,0,0,0,0,0,0,0,0,0,0,0,0,0,0,0,0,0,0,0,0,0,0,3758098857,0,0,0,0,0,0,0,0,0,0,
0,0,2447,2472,2474,0,0,0,0,0,0,0,0,0,0,0,0,0,0,0,0,0,0,0,0,0,0,0,0,0,2390,2391,2393,2394,0,0,0,0,0,0,0,0,0,0,0,0,0,0,2418,3758098774,2390,2448,0,0,0,0,0,0,0,0,
0,0,2447,0,0,0,0,0,0,0,0,0,0,2445,0,0,2447,0,0,2447,0,0,0,0,0,2473,2394,2390,2391,2393,2147486120,0,0,2147486122,2147486121,2394,2471,0,0,0,2445,2390,2394,0,2447,0,0,0,2147486122,2473,2147486120,2475,0,0,0,2447,0,2448,0,0,
1073744243,2147486121,2474,0,0,0,0,0,0,0,0,0,0,2147486122,2473,2147486121,2147486120,3221227892,3221227891,2474,0,0,0,0,0,0,2472,1073744244,0,0,0,0,0,0,0,3221227892,3221227890,0,0,0,2147486122,2147486120,2147486122,2473,1073744244,0,0,0,0,0,0,2472,2391,2392,2393,2474,0,2475,0,0,
2500,2501,2420,0,0,0,0,0,0,0,0,0,0,0,0,0,0,0,0,0,0,0,0,0,0,0,0,0,1518,1519,1519,1519,1519,1520,0,0,0,0,0,0,0,0,0,0,0,0,0,0,0,0,0,0,0,0,0,0,0,2147486122,2394,2392,
0,2390,2474,0,0,0,0,0,0,0,0,0,0,0,0,0,0,0,1518,1519,1519,1519,1519,1519,1519,1519,1519,1519,1572,0,1547,0,0,1574,1519,1519,1519,1519,1519,1519,1519,1520,0,0,0,0,0,0,0,0,0,0,0,0,0,0,0,0,2684357033,0,
0,2447,0,0,0,0,0,0,0,0,0,0,0,0,0,0,0,0,0,0,0,0,0,0,0,0,0,0,0,0,1518,1520,0,0,0,1547,1545,0,0,0,0,0,0,0,0,0,0,0,0,0,0,0,0,0,0,0,0,0,2147486122,2147486121,
0,2147486093,0,0,0,0,0,0,0,0,0,0,0,0,0,0,0,0,0,3969,1547,1545,0,0,4025,0,0,0,0,1518,1572,0,0,0,0,1518,1572,0,0,0,0,0,0,0,0,0,0,0,0,0,0,0,0,0,0,0,0,0,0,0,
2147486121,2147486120,0,0,0,0,0,0,0,0,0,0,0,0,0,0,0,0,0,0,1574,1572,0,4024,1547,0,0,0,1518,1520,0,0,1518,1519,1519,1572,4024,0,0,0,0,0,0,0,0,0,0,0,0,0,0,0,0,0,0,0,0,0,0,0,
0,0,0,0,0,0,0,0,0,0,0,0,0,0,0,0,0,0,0,0,0,0,0,0,1574,1520,0,0,0,1574,1520,1518,1572,0,0,0,0,0,0,0,0,0,0,0,0,0,0,0,0,0,0,0,0,0,0,0,0,0,0,0,
0,0,0,0,0,0,0,0,0,0,0,0,0,0,0,0,0,0,0,0,2147487616,1547,0,0,0,1574,1519,1520,1545,0,1574,1572,0,0,0,0,0,0,0,0,0,2418,2502,0,0,0,0,0,0,0,0,0,0,0,0,0,0,0,0,0,
0,0,0,0,0,0,0,0,0,0,0,0,0,0,0,0,0,0,0,0,0,1574,1520,1518,1520,0,0,1574,1572,0,0,0,0,0,0,0,0,0,0,0,0,2421,0,0,0,0,0,0,0,0,0,0,0,0,0,0,0,0,0,0,
0,0,0,0,0,0,0,0,0,0,0,0,0,0,0,0,0,0,0,0,0,0,1547,0,1574,1520,1545,0,0,0,0,0,0,0,0,0,0,0,0,0,0,2448,0,0,0,0,0,0,0,0,0,0,0,0,0,0,0,0,0,0,
0,0,0,0,0,0,0,0,0,0,0,0,0,0,0,0,0,0,0,0,0,0,1574,1520,1545,1574,1572,0,0,0,0,0,0,0,0,0,0,0,0,0,0,2475,0,0,0,0,0,0,0,0,0,0,0,0,0,0,0,0,0,0,
0,0,0,0,0,0,0,0,0,0,0,0,0,0,0,0,0,0,0,0,0,0,0,1574,1572,0,0,0,0,0,0,0,0,0,0,0,0,0,0,0,0,2472,2394,0,2471,0,0,0,0,0,0,0,0,0,0,0,0,0,0,0,
0,0,0,0,0,0,0,0,0,0,0,0,0,0,0,0,0,0,0,0,0,0,0,0,2684358190,0,0,2684358136,0,0,0,0,0,0,0,0,0,0,0,0,0,0,2147486122,2147486121,2147486120,2445,0,0,0,2419,2420,0,0,0,0,0,0,0,0,0,
0,0,0,0,0,0,0,0,0,0,0,0,0,0,0,0,0,0,0,0,0,0,0,0,0,0,0,1547,0,0,0,0,0,0,0,0,0,0,0,0,0,0,0,0,0,2147486122,2391,2393,2394,0,2447,0,0,0,0,0,0,0,2418,2419,
0,0,0,0,0,0,0,0,0,0,0,0,0,0,0,0,0,0,0,0,0,0,0,0,0,1547,0,1574,1520,0,0,0,0,0,0,0,0,0,0,0,0,0,0,0,0,0,0,0,2147486122,2473,2147486120,0,0,0,0,0,0,0,2421,0,
0,0,0,0,0,0,0,0,0,0,0,0,0,0,0,0,0,0,0,0,0,0,0,0,0,1574,1520,1545,0,0,0,0,0,0,0,0,0,0,0,0,0,0,0,0,0,0,0,0,0,0,0,0,1518,1519,1519,1520,0,0,2448,0,
0,0,0,0,0,0,0,0,0,0,0,0,0,0,0,0,0,0,0,0,0,0,0,0,0,0,1574,1572,1547,0,0,0,0,0,0,0,0,0,0,0,0,0,0,0,0,0,0,0,0,0,1518,1519,1572,0,0,1574,1519,1520,2475,0,
0,0,0,0,0,0,0,0,0,0,0,0,0,0,0,0,0,0,0,0,0,0,0,0,0,1547,1545,0,1574,1520,0,0,0,0,0,0,0,0,0,0,0,0,0,0,0,0,0,1518,1519,1519,1572,0,0,0,0,0,0,1547,0,2394,
0,0,0,0,0,0,0,0,0,0,0,0,0,0,0,0,0,0,0,0,0,0,0,0,0,1574,1520,0,0,1547,0,0,0,0,0,0,0,0,0,0,0,0,0,0,0,0,1518,1572,0,0,0,0,0,0,0,0,0,1574,1520,0,
0,0,0,0,0,0,0,0,0,0,4054,4055,4056,0,0,0,0,0,0,0,0,0,0,0,0,0,1574,1520,0,1574,1520,0,0,0,0,0,0,0,0,0,0,0,0,0,0,0,0,0,0,0,0,0,0,0,0,0,0,0,1547,0,
0,0,0,0,0,0,0,0,0,0,4079,4080,4081,0,0,0,0,0,0,0,0,0,0,0,0,0,0,2684358190,0,0,2684358136,0,0,0,0,0,0,0,0,0,0,0,0,0,0,0,0,0,0,0,0,0,0,0,0,0,0,0,1574,1520,
0,0,0,0,0,0,0,0,0,0,4104,4105,4106,0,0,0,0,0,0,0,0,0,0,0,0,0,0,0,1547,1545,0,0,0,0,0,0,0,0,0,0,0,0,0,0,0,0,0,0,0,0,0,0,0,0,0,0,0,0,0,1574,
0,0,0,0,0,0,0,0,0,0,0,0,0,0,0,0,0,0,0,0,0,0,0,0,0,0,0,0,1574,1572,0,0,0,0,0,0,0,0,0,0,0,0,0,0,0,0,0,0,0,0,0,0,0,0,0,0,1545,0,0,0,
1519,1519,1519,1519,1520,0,0,0,0,0,0,0,0,0,0,0,0,0,0,0,0,0,0,0,0,0,0,0,0,0,0,0,0,0,0,0,0,0,0,0,0,0,0,0,0,0,0,0,0,0,0,0,0,0,0,0,1073743342,1073743396,0,0,
0,0,0,0,1574,1520,0,0,0,0,0,0,0,0,0,0,0,0,0,0,0,0,0,0,0,0,0,0,0,0,0,0,0,0,0,0,0,0,0,0,0,0,0,0,0,0,0,0,0,0,0,0,0,0,0,0,0,1073743342,1073743343,0,
0,0,0,0,0,1574,1519,1519,1519,1520,0,0,0,0,0,0,0,0,0,0,0,0,0,0,0,0,0,0,0,0,0,0,0,0,0,0,0,0,0,0,0,0,0,0,0,0,0,0,0,0,0,0,0,0,0,0,0,0,0,0
</data>
 </layer>
 <layer id="2" name="Buildings" width="60" height="50">
  <data encoding="csv">
78,129,130,75,76,77,74,75,76,77,5,6,7,74,2147483719,95,2147483726,2147483726,2147483726,2147483726,197,1440,1441,2147485090,1443,2147485090,1442,1443,1444,1472,0,0,0,0,0,0,0,0,78,78,78,78,78,78,70,71,76,77,74,75,76,77,94,78,0,0,0,0,0,2147483862,
129,145,146,91,92,93,90,91,66,67,21,22,23,93,2147483735,2147483734,2147483719,95,2147483726,2147483726,78,1467,1468,2147485117,1470,2147485117,1469,1470,1471,1499,0,0,0,0,2147484594,2147484593,0,78,78,78,78,78,70,71,86,87,92,93,90,91,92,93,2147483794,2147483793,214,0,0,0,2147483862,45,
1610612830,161,162,107,108,109,106,107,82,83,37,38,39,109,2147483751,2147483750,2147483735,2147483734,2147483719,95,78,0,0,0,0,0,0,0,0,0,0,0,0,0,2147484619,2147484618,0,78,78,78,70,71,86,87,102,103,108,109,106,107,108,109,2147483810,2147483809,112,30,16,27,71,112,
133,177,178,123,124,125,122,123,124,125,53,54,55,125,2147483767,81,2147483751,2147483750,2147483735,2147483734,2147483719,95,42,43,78,0,0,0,945,946,48,2147483676,78,78,78,26,27,78,70,71,86,87,102,103,2147483697,119,124,125,122,123,124,125,2147483826,2147483825,73,2147483655,2147483653,75,87,128,
149,193,0,0,0,0,0,0,0,0,0,0,0,0,2147483783,2147483782,2147483767,49,2147483751,2147483750,2147483735,2147483734,76,77,2147483719,0,0,0,970,0,71,77,5,6,6,7,74,75,86,87,102,103,2147483729,119,134,135,0,0,0,0,196,225,2147483842,2147483841,106,2147483671,2147483669,114,103,144,
165,0,0,0,0,0,0,0,0,0,0,0,0,0,0,0,2147483783,2147483782,2147483767,49,2147483751,2147483750,92,93,2147483735,2147483734,76,74,75,86,87,93,21,2147483670,22,23,90,91,102,103,2147483697,119,134,135,0,0,0,0,0,0,0,0,974,975,105,2147483687,2147483685,108,119,160,
149,0,0,0,0,0,0,0,0,0,0,0,0,0,0,0,0,0,2147483783,2147483782,2147483767,2147483766,108,109,2147483751,2147483750,92,90,91,99,103,109,37,2147483686,51,39,106,107,118,119,134,135,0,0,0,0,0,0,0,0,0,0,0,0,121,2147483703,2147483701,124,135,176,
165,0,0,0,0,0,0,0,0,0,0,0,0,0,0,0,0,0,0,0,2147483783,2147483782,124,125,2147483767,2147483766,108,106,107,115,119,125,53,2147483702,54,55,122,123,134,135,0,0,0,0,0,0,0,0,0,0,0,0,0,0,0,0,0,0,0,192,
214,0,0,0,0,0,0,0,0,0,0,237,2147483726,2147483726,2147483726,214,0,0,0,0,0,0,0,0,2147483783,2147483782,124,122,123,134,135,0,0,0,0,0,0,0,0,0,0,0,0,0,222,78,233,0,0,0,0,0,0,0,0,0,0,0,0,222,
78,197,0,0,0,0,0,0,0,0,0,207,2147483726,2147483726,2147483726,2147483726,2147483726,214,0,0,0,0,0,0,0,0,0,0,0,0,0,0,0,0,0,0,0,0,0,0,0,0,222,78,78,78,214,0,0,0,0,0,237,78,78,1073742057,0,0,1073742061,78,
78,78,233,0,0,0,0,0,0,0,222,78,78,78,78,78,78,78,78,78,78,233,0,0,0,0,0,0,0,0,0,0,0,0,0,0,0,0,237,16,62,78,78,78,78,78,78,4212,0,0,0,2147487807,207,78,1073742021,4232,0,0,4162,3221225669,
78,78,197,0,0,0,0,0,0,222,78,78,78,78,78,78,70,71,74,75,2147483722,72,0,0,0,0,0,0,0,0,0,0,0,0,0,0,0,0,73,77,74,2147483724,2147483719,95,78,78,78,197,0,0,0,207,26,27,149,4257,0,0,1304,192,
78,78,78,233,0,0,222,48,78,78,78,78,78,78,70,71,86,87,102,103,2147483697,104,0,0,0,0,0,0,0,0,0,0,0,0,0,0,0,0,105,81,90,2147483750,2147483735,2147483734,2147483719,48,78,78,30,78,78,78,78,45,165,4161,0,0,1331,208,
78,78,78,197,0,207,30,78,78,78,78,78,70,71,86,87,102,103,2147483729,119,122,120,0,0,0,0,0,0,0,0,0,0,0,0,0,0,0,0,121,125,2147483767,49,2147483751,2147483750,2147483735,2147483734,77,2147483655,2147483654,2147483653,112,78,78,78,181,4262,0,0,4210,224,
78,78,78,78,70,71,5,6,7,2147483725,2147483724,2147483723,86,87,102,103,2147483697,119,134,135,0,0,0,0,0,0,0,0,0,0,0,0,0,0,0,0,0,0,0,0,2147483783,2147483782,2147483767,49,2147483751,2147483750,93,2147483671,2147483670,2147483669,93,64,78,12,197,0,0,0,0,207,
78,78,69,74,75,87,21,22,23,2147483741,2147483740,2147483739,102,103,118,119,134,135,0,0,0,0,0,0,0,0,0,0,0,0,0,71,76,2147483719,214,0,0,0,0,0,0,0,2147483783,2147483782,2147483767,2147483766,109,2147483687,2147483686,2147483685,109,78,78,28,29,214,0,0,222,78,
78,78,85,90,49,103,37,38,39,2147483757,2147483756,2147483755,118,119,134,135,0,0,0,0,0,0,0,0,0,2147483862,1610612848,5,7,2147483656,74,93,90,91,74,2147483719,214,0,0,0,0,0,0,0,2147483783,2147483782,125,2147483703,2147483702,2147483701,125,78,78,78,78,78,78,78,78,78,
78,78,101,106,97,119,53,54,55,2147483773,2147483772,2147483771,134,135,0,0,0,0,0,0,2147483862,70,71,74,75,76,92,21,23,2147483672,108,109,106,107,2147483755,93,76,77,2684354629,214,0,0,0,0,0,0,0,0,0,0,208,78,78,78,78,78,78,78,78,78,
78,78,117,122,0,135,0,0,0,0,0,0,0,0,0,0,0,0,2147483862,71,2147483722,536870997,87,90,91,72,108,37,39,2147483688,91,77,74,75,2147483739,109,2147483757,91,92,74,2147483719,214,0,0,0,0,0,0,0,0,224,78,78,78,78,78,78,78,78,78,
70,71,72,0,0,0,0,0,0,0,0,0,0,0,0,0,2147483862,71,86,103,108,2147483756,114,107,106,1073741912,1073741932,37,39,75,2147483741,93,90,91,2147483739,77,2147483739,107,108,114,2147483751,2147483724,3221225669,214,0,0,0,0,0,0,73,94,78,78,78,78,78,2147483710,78,78,
69,87,88,0,0,0,0,0,0,0,0,0,0,73,2147483723,75,76,103,102,87,2404,2405,1073741916,2406,2407,1073741928,92,37,39,106,2147483757,109,106,107,2147483755,93,2147483741,2404,2406,1073741917,3221225575,2147483766,2147483751,112,233,0,0,0,0,0,89,110,111,74,75,2147483725,2147483724,94,2147483718,2147483726,
85,103,104,0,0,0,0,0,0,0,0,0,0,89,98,91,131,0,1073741926,87,90,91,92,93,90,2147483756,108,37,39,107,124,125,122,123,2147483770,107,2147483755,91,92,93,2147483735,3221225574,3221225575,2147483747,72,0,0,0,0,0,105,126,127,90,91,2147483780,2147483779,110,2147483734,112,
101,119,120,0,0,0,0,0,0,0,0,0,0,105,106,107,147,148,118,103,106,107,108,109,106,2147483773,124,53,55,123,120,0,0,0,121,122,2147483770,107,108,109,2147483751,2147483750,2147483751,2147483763,88,0,0,0,0,0,121,142,143,98,107,2147483796,2147483795,126,2147483747,128,
117,135,0,0,0,0,0,0,0,0,0,0,0,121,122,2147483771,163,164,134,2147483770,122,123,124,125,122,120,0,0,0,0,0,0,0,0,0,0,121,123,124,125,122,2147483782,124,125,120,0,0,0,0,0,0,158,159,122,123,2147483812,2147483811,142,2147483763,144,
133,0,0,0,0,0,0,0,0,0,0,0,0,0,0,0,0,0,0,0,0,0,0,0,0,0,0,0,244,245,245,245,245,246,0,0,0,0,0,0,0,0,0,0,0,0,0,0,0,0,0,0,0,0,0,0,0,158,2147483782,160,
149,0,0,0,0,0,0,0,0,0,0,0,0,0,0,0,0,0,244,245,245,245,245,245,245,245,245,245,250,0,268,2147483928,252,251,245,245,245,245,245,245,245,246,0,0,0,0,0,0,0,0,0,0,0,0,0,0,0,0,0,192,
165,0,0,0,0,0,0,0,0,0,0,0,0,0,0,0,0,0,260,1710,1711,1712,2147485361,1713,1714,1715,0,0,268,280,252,246,279,252,0,268,1710,1711,1712,2147485359,2147485358,262,0,0,0,0,0,0,0,0,0,0,0,0,0,0,0,0,0,208,
181,0,0,0,0,0,0,0,0,0,0,0,0,0,0,0,0,0,260,1737,1738,1739,2147485388,1740,1741,1742,252,268,281,244,250,262,154,279,280,252,1737,1738,1739,2147485386,2147485385,281,0,0,0,0,0,0,0,0,0,0,0,0,0,0,0,0,0,224,
133,0,0,0,0,0,0,0,0,0,0,0,0,0,0,0,0,0,279,252,251,2147483900,252,0,268,281,3221225734,262,244,268,2147483928,281,244,245,245,250,0,268,280,281,0,0,0,0,0,0,0,0,0,0,0,0,0,0,0,0,0,0,0,192,
149,0,0,0,0,0,0,0,0,0,0,0,0,0,0,0,0,0,0,279,252,2147483908,260,268,252,246,279,281,2147483910,251,246,244,250,268,280,280,280,281,0,0,0,0,237,233,0,0,0,0,0,0,0,0,0,0,0,0,0,0,0,208,
165,0,0,0,0,0,0,0,0,0,0,0,0,0,0,0,0,0,0,0,2147483910,262,279,281,279,252,245,246,2147483910,0,251,250,268,281,0,0,0,0,0,0,0,0,176,197,0,0,0,0,0,0,0,0,0,0,0,0,0,0,0,224,
181,0,0,0,0,0,0,0,0,0,0,0,0,0,0,0,0,0,0,0,260,251,246,244,246,279,252,251,250,268,280,280,281,0,0,0,0,0,0,0,0,0,73,94,214,0,0,0,0,0,0,0,0,0,0,0,0,0,0,192,
133,0,0,0,0,0,0,0,0,0,0,0,0,0,0,0,0,0,0,0,279,252,262,279,252,246,2147483910,0,268,281,0,0,0,0,0,0,0,0,0,0,0,0,89,110,111,78,214,0,0,0,0,0,0,0,0,0,0,0,0,208,
149,0,0,0,0,0,0,0,0,2147484569,2147484568,2147484567,0,0,0,0,0,0,0,0,0,260,251,246,2147483910,251,250,268,281,0,0,0,0,0,0,0,0,0,0,0,0,0,105,126,127,2147483749,5,7,94,233,0,0,0,0,0,0,0,0,0,224,
165,0,0,0,0,0,0,0,0,0,0,968,969,0,0,0,0,0,0,0,0,279,252,251,250,0,0,262,0,0,0,0,0,0,0,0,0,0,0,0,0,0,121,142,143,126,21,23,110,72,0,0,0,0,0,0,0,0,0,176,
181,0,0,0,0,0,0,0,0,0,0,0,0,0,0,0,0,0,0,0,0,0,279,280,252,268,252,2147483908,0,0,0,0,0,0,0,0,0,0,0,0,0,0,0,158,159,142,37,39,126,88,0,0,0,0,0,0,0,0,0,192,
133,0,0,0,0,0,0,0,0,0,0,0,0,0,0,0,0,0,0,0,0,0,0,0,0,0,0,0,0,0,0,0,0,0,0,0,0,0,0,0,0,0,0,0,0,158,53,55,142,104,0,0,0,0,0,0,0,0,0,208,
214,0,0,0,0,0,0,0,0,0,0,0,0,0,0,925,926,927,0,0,0,0,0,0,260,262,279,251,246,0,0,0,0,0,0,0,0,0,0,0,0,0,0,0,0,0,0,0,121,120,0,0,0,0,0,0,0,0,0,224,
78,214,0,0,0,0,0,0,0,0,0,0,0,0,966,967,891,892,0,0,0,0,0,0,279,252,246,2147483910,2147483908,0,0,0,0,0,0,0,0,0,0,0,0,0,0,0,0,0,0,0,0,0,0,0,244,245,245,246,0,0,0,224,
78,78,214,0,0,0,0,0,0,0,0,0,0,0,0,0,916,917,918,0,0,0,0,0,0,2147483910,251,250,262,0,0,0,0,0,0,0,0,0,0,0,0,0,0,0,0,0,0,0,0,0,244,245,250,2147487153,2147487152,2147487151,245,246,0,73,
78,26,27,233,0,0,0,0,0,0,0,0,0,0,0,0,0,0,0,0,0,0,0,0,0,1073742084,0,0,251,246,0,0,0,0,0,0,0,0,0,0,0,0,0,0,0,0,0,244,245,245,250,0,0,2147487180,2147487179,2147487178,3814,262,0,89,
78,64,71,72,0,0,0,0,0,0,0,0,0,0,0,0,0,0,0,0,0,0,0,0,0,260,268,280,252,262,0,0,0,0,0,0,0,0,0,0,0,0,0,0,0,0,244,250,0,0,0,0,0,0,0,0,0,251,246,105,
2147483722,86,87,104,0,0,0,0,0,0,0,0,0,0,0,0,0,0,0,0,0,0,0,0,0,279,252,246,279,251,246,0,0,0,0,0,0,0,0,0,0,0,0,0,0,0,260,0,0,222,78,2147483663,2147483662,26,47,280,252,0,262,2445,
122,123,124,120,0,0,237,2147483695,2147483694,233,0,0,0,0,0,0,0,0,0,0,0,0,0,0,0,0,279,252,246,2147483910,262,0,0,0,0,0,0,0,0,0,0,0,0,0,0,0,260,0,222,78,78,2147483679,2147483678,28,63,165,260,0,251,246,
0,0,0,0,0,0,208,2147483711,48,214,0,0,0,0,0,0,0,0,0,0,0,0,0,0,0,0,0,0,0,0,0,0,0,0,0,0,0,0,0,0,0,0,0,0,237,2147483663,2147483662,78,78,78,78,2147483726,2147483726,64,71,72,260,0,0,251,
0,0,0,0,0,0,224,62,78,78,214,0,0,222,78,233,0,0,0,0,0,0,0,0,0,0,0,260,251,250,262,0,0,0,0,0,0,0,0,0,0,0,0,0,222,2147483679,78,78,78,78,70,71,75,86,87,104,260,0,0,0,
245,245,245,245,246,4124,105,111,77,74,2147483719,95,78,78,78,214,0,0,0,0,0,0,0,0,0,0,0,260,0,0,262,0,0,0,0,0,0,0,0,0,0,0,222,12,45,78,78,78,10,11,71,125,122,123,124,244,250,0,0,268,
0,0,0,0,251,246,121,122,125,122,125,2147483719,95,78,78,78,78,214,0,0,0,0,0,0,0,0,0,279,280,280,281,0,0,0,0,0,0,0,0,222,78,78,78,28,29,78,78,42,43,71,125,120,244,245,245,250,0,0,2833,262,
215,216,217,0,0,251,245,245,245,246,121,122,125,2147483719,95,78,78,78,78,214,0,0,0,222,78,78,78,3221225597,3221225596,3221225595,3221225594,12,30,214,0,0,222,78,78,78,78,70,71,76,77,74,75,76,86,125,120,244,250,0,0,0,0,0,268,281,
14,13,280,252,0,0,0,0,0,251,245,246,121,125,2147483719,78,78,78,78,78,78,78,78,78,78,78,78,214,3221225580,3221225579,222,28,29,78,78,78,78,78,78,78,70,71,125,124,125,122,123,124,125,120,244,250,0,0,0,2147486481,0,0,262,237
</data>
 </layer>
 <layer id="11" name="Buildings2" width="60" height="50">
  <data encoding="csv">
0,0,859,860,803,755,757,0,0,0,0,0,0,0,0,0,0,0,0,0,0,0,0,0,0,0,0,0,0,0,0,0,0,0,0,0,0,0,0,0,0,0,0,0,0,0,0,0,0,2147484506,2147484505,2147484504,0,0,0,0,0,0,0,0,
0,0,884,885,806,780,782,0,0,0,0,0,0,0,0,0,0,0,0,0,0,0,0,0,0,0,0,0,0,0,0,0,0,0,0,0,0,0,0,0,0,0,0,0,0,0,0,0,0,2147484531,2147484530,2147484529,0,0,0,0,0,0,0,0,
0,0,0,830,831,781,52,0,0,0,0,0,0,0,0,0,0,0,0,0,0,214,0,0,0,0,0,0,0,0,0,0,0,0,0,0,0,0,0,0,0,0,0,0,0,0,0,0,0,0,0,0,0,0,0,0,0,0,0,0,
0,0,0,0,2147484951,2147484950,0,0,0,0,0,0,0,0,0,0,0,0,0,0,0,0,0,0,0,0,0,0,0,0,0,0,0,0,0,0,0,0,0,0,0,0,0,0,0,0,0,0,0,0,0,0,0,0,0,0,0,0,0,0,
0,0,0,0,0,0,0,0,0,0,0,0,0,0,0,0,0,0,0,0,0,803,0,757,0,0,0,0,0,0,0,0,0,0,0,0,0,0,0,0,0,0,0,0,0,0,0,0,0,0,0,0,0,0,0,0,0,0,0,0,
0,0,0,0,0,0,0,0,0,0,0,0,0,0,0,0,0,0,0,0,0,828,829,782,0,0,0,0,0,0,0,0,0,0,0,0,0,0,0,0,0,0,0,0,0,0,0,0,0,0,0,0,0,0,0,0,0,4287,4136,0,
0,0,0,0,0,0,0,0,0,0,0,0,0,0,0,0,0,0,0,0,0,0,0,0,0,0,0,0,0,0,0,0,0,0,0,0,0,0,0,0,0,0,0,0,0,0,0,0,0,0,0,0,0,0,0,0,0,4312,4161,0,
0,0,0,0,0,0,0,0,0,0,0,0,0,0,0,0,0,0,0,0,0,0,0,0,0,0,0,0,0,0,0,0,0,0,0,0,0,0,0,0,0,0,0,0,0,0,0,0,0,0,0,0,0,0,0,0,0,0,0,0,
0,0,0,0,0,0,0,0,0,0,0,0,0,0,0,0,0,0,0,0,0,0,0,0,0,0,0,0,0,0,0,0,0,0,0,0,0,0,0,0,0,0,0,0,0,0,0,0,0,0,0,0,0,0,0,0,0,0,0,0,
0,0,0,0,0,0,0,0,0,0,0,0,0,0,0,0,0,0,0,0,0,0,0,0,0,0,0,0,0,0,0,0,0,0,0,0,0,0,0,0,0,0,0,0,0,0,0,0,0,0,0,0,0,0,0,0,0,0,0,0,
0,0,0,0,0,0,0,0,0,0,0,0,0,0,0,0,0,0,0,0,0,0,0,0,0,0,0,0,0,0,0,0,0,0,0,0,0,0,0,0,0,0,0,0,0,0,0,0,0,0,0,0,0,0,0,0,0,0,0,0,
0,0,0,0,0,0,0,0,0,0,0,0,0,0,0,0,0,0,0,0,0,0,0,0,0,0,0,0,0,0,0,0,0,0,0,0,0,0,0,0,0,0,0,0,0,0,0,0,0,0,0,0,0,0,0,0,0,0,0,0,
0,0,0,0,0,0,0,0,0,0,0,0,0,0,0,0,0,0,0,0,0,0,0,0,0,0,0,0,0,0,0,0,0,0,0,0,0,0,0,0,0,0,0,0,0,0,0,0,0,0,0,0,0,0,0,0,0,0,0,0,
0,0,0,0,0,0,0,0,0,0,0,0,0,0,0,0,0,0,0,0,0,0,0,0,0,0,0,0,0,0,0,0,0,0,0,0,0,0,0,0,0,0,0,0,0,0,0,0,0,0,0,0,0,0,0,0,0,0,0,0,
0,0,0,0,0,0,0,0,0,0,0,0,0,0,0,0,0,0,0,0,0,0,0,0,0,0,0,0,0,0,0,0,0,0,0,0,0,0,0,0,0,0,0,0,0,0,0,0,0,0,1073742048,0,0,0,0,0,0,0,0,0,
0,0,0,0,0,0,0,0,0,0,0,0,0,0,0,0,0,0,0,0,0,0,0,0,0,0,0,0,0,0,0,0,0,0,0,0,0,0,0,0,0,0,0,0,0,0,0,0,0,0,176,0,0,0,0,0,0,0,0,0,
0,0,0,729,0,0,0,0,0,0,0,0,0,0,0,0,0,0,0,0,0,0,0,0,0,0,0,0,0,0,0,859,861,731,0,0,0,0,0,0,0,0,0,0,0,0,0,0,0,0,192,0,0,0,0,0,0,0,0,0,
0,0,0,805,0,0,0,0,0,0,0,0,0,0,0,0,0,0,0,0,0,0,0,0,0,0,0,0,0,0,1073741944,884,886,782,73,0,0,2147484405,0,0,0,0,0,0,0,0,0,0,0,0,0,0,0,0,0,0,0,0,0,0,
0,0,0,0,0,0,0,0,0,0,0,0,0,0,0,0,0,0,0,0,859,2147484504,0,0,0,2147484451,0,0,0,0,104,125,122,123,1073741913,0,73,2147484430,0,0,0,0,0,0,0,0,0,0,0,0,0,0,0,0,0,0,0,0,0,0,
0,0,2147484454,0,0,0,0,0,0,0,0,0,0,0,0,0,0,0,0,2147484504,884,2147484529,0,2147484506,2147484505,2147484504,0,0,0,2147483704,72,0,0,0,1073741929,125,2147484506,2147484505,861,0,0,730,0,0,0,0,0,0,0,0,0,0,0,0,0,0,0,0,0,0,
0,2147484379,1073742627,0,0,0,0,0,0,0,0,0,0,0,0,731,3221225607,1073741959,0,119,2147484477,2147484478,2405,2147484531,2147484533,1073742680,52,0,0,52,88,0,0,0,89,0,2147484531,2147484530,886,2407,0,755,0,0,0,0,0,0,0,0,0,0,0,0,0,0,0,0,0,0,
0,781,0,0,0,0,0,0,0,0,0,0,0,0,0,756,0,132,118,135,2431,2432,2432,2433,2434,88,0,0,0,0,104,0,0,0,105,0,89,2431,2433,2434,0,780,0,0,0,0,0,0,0,0,0,0,0,0,0,0,0,0,0,0,
0,0,0,0,0,0,0,0,0,0,0,0,0,0,0,781,0,0,0,0,0,0,0,0,0,104,0,0,0,0,0,0,0,0,0,0,105,0,0,0,0,805,0,0,0,0,0,0,0,0,0,0,0,0,0,0,0,0,0,0,
0,0,0,0,0,0,0,0,0,0,0,0,0,0,0,0,0,0,0,0,0,0,0,0,0,0,0,0,0,0,0,0,0,0,0,0,0,0,0,0,0,0,0,0,0,0,0,0,0,0,0,0,0,0,0,0,0,0,0,0,
0,0,0,0,0,0,0,0,0,0,0,0,0,0,0,0,0,0,0,0,0,0,0,0,0,0,0,0,0,0,0,0,0,0,0,0,0,0,0,0,0,0,0,0,0,0,0,0,0,0,0,0,0,0,0,0,0,0,0,0,
0,0,0,0,0,0,0,0,0,0,0,0,0,0,0,0,0,0,0,0,0,0,0,0,0,0,0,0,0,0,0,0,0,0,0,0,0,0,0,0,0,0,0,0,0,0,0,0,0,0,0,0,0,0,0,0,0,0,0,0,
0,0,0,0,0,0,0,0,0,0,0,0,0,0,0,0,0,0,0,0,0,0,0,0,0,0,0,0,0,0,251,0,0,0,0,0,252,0,0,0,0,0,0,0,0,0,0,0,0,0,0,0,0,0,0,0,0,0,0,0,
0,0,0,0,0,0,0,0,0,0,0,0,0,0,0,0,0,0,0,0,268,252,0,0,0,268,0,0,0,0,0,0,0,0,0,251,250,0,0,268,280,0,0,0,0,0,0,0,0,0,0,0,0,0,0,0,0,0,0,0,
0,0,0,0,0,0,0,0,0,0,0,0,0,0,0,0,0,0,0,0,0,0,0,0,0,0,0,0,0,250,0,0,0,0,0,0,0,0,0,0,0,0,0,0,0,0,0,0,0,0,0,0,0,0,0,0,0,0,0,0,
0,0,0,0,0,0,0,0,0,0,0,0,0,0,0,0,0,0,0,0,0,0,0,0,251,0,0,0,0,0,0,0,0,0,0,0,0,0,0,0,0,0,0,0,0,0,0,0,0,0,0,0,0,0,0,0,0,0,0,0,
0,0,0,0,0,0,0,0,0,0,0,0,0,0,0,0,0,0,0,0,0,0,0,0,0,251,0,0,0,0,0,0,0,0,0,0,0,0,0,0,0,0,0,0,0,0,0,0,0,0,0,0,0,0,0,0,0,0,0,0,
0,0,0,0,0,0,0,0,0,0,0,0,0,0,0,0,0,0,0,0,0,0,0,0,0,0,0,0,0,0,0,0,0,0,0,0,0,0,0,0,0,0,0,0,0,0,0,0,0,0,0,0,0,0,0,0,0,0,0,0,
0,0,0,0,0,0,0,0,0,0,0,0,0,0,0,0,0,0,0,0,0,0,0,0,251,0,0,0,0,0,0,0,0,0,0,0,0,0,0,0,0,0,0,0,0,0,0,0,0,0,0,0,0,0,0,0,0,0,0,0,
0,0,0,0,0,0,0,0,0,0,0,0,0,0,0,0,0,0,0,0,0,0,0,0,0,0,0,0,0,0,0,0,0,0,0,0,0,0,0,0,0,0,0,0,2147484377,0,0,0,0,0,0,0,0,0,0,0,0,0,0,0,
0,0,0,0,0,0,0,0,0,0,0,0,0,0,0,0,0,0,0,0,0,0,0,0,0,0,0,0,0,0,0,0,0,0,0,0,0,0,0,0,0,0,0,0,2147484453,0,0,0,0,0,0,0,0,0,0,0,0,0,0,0,
0,0,0,0,0,0,0,0,0,0,0,0,0,0,0,0,0,0,0,0,0,0,0,0,0,0,0,0,0,0,0,0,0,0,0,0,0,0,0,0,0,0,0,0,0,0,0,0,0,0,0,0,0,0,0,0,0,0,0,0,
0,0,0,0,0,0,0,0,0,0,0,0,0,0,0,0,0,0,0,0,0,0,0,0,0,0,0,0,0,0,0,0,0,0,0,0,0,0,0,0,0,0,0,0,0,0,0,0,0,0,0,0,0,0,0,0,0,0,0,0,
0,0,0,0,0,0,0,0,0,0,0,0,0,0,0,0,0,0,0,0,0,0,0,0,0,0,0,252,0,0,0,0,0,0,0,0,0,0,0,0,0,0,0,0,0,0,0,0,0,0,0,0,0,0,0,0,0,0,0,0,
0,0,0,0,0,0,0,0,0,0,0,0,0,0,0,0,0,0,0,0,0,0,0,0,0,251,0,0,0,0,0,0,0,0,0,0,0,0,0,0,0,0,0,0,0,0,0,0,0,0,0,0,0,0,0,0,0,0,0,0,
0,0,0,0,0,0,0,0,0,0,0,0,0,0,0,0,0,0,0,0,0,0,0,0,0,0,0,0,0,0,0,0,0,0,0,0,0,0,0,0,0,0,0,0,0,0,0,0,0,0,0,0,0,0,0,251,0,0,0,0,
0,0,0,0,0,0,0,0,0,0,0,0,0,0,0,0,0,0,0,0,0,0,0,0,0,268,252,0,0,0,0,0,0,0,0,0,0,0,0,0,0,0,0,0,0,0,0,0,0,0,0,0,0,0,0,0,0,0,0,0,
0,0,0,0,0,0,0,0,0,0,0,0,0,0,0,0,0,0,0,0,0,0,0,0,0,251,250,0,0,0,0,0,0,0,0,0,0,0,0,0,0,0,0,0,0,0,0,0,0,0,0,0,0,0,0,0,0,0,2147486122,0,
0,0,0,0,0,0,0,0,0,0,0,0,0,0,0,0,0,0,0,0,0,0,0,0,0,0,251,0,0,252,0,0,0,0,0,0,0,0,0,0,0,0,0,0,0,0,0,0,0,0,0,0,0,0,0,0,0,0,0,121,
0,0,0,0,0,0,0,0,0,0,0,0,0,0,0,0,0,0,0,0,0,0,0,0,0,0,0,251,0,0,0,0,0,0,0,0,0,0,0,0,0,0,0,0,0,0,0,0,0,0,0,0,0,0,0,0,0,0,0,2147486122,
0,0,0,0,0,0,0,0,0,0,0,0,0,0,0,0,0,0,0,0,0,0,0,0,0,0,0,0,0,0,0,0,0,0,0,0,0,0,0,0,0,0,0,0,0,0,0,0,0,0,0,0,0,0,0,0,0,0,0,0,
0,0,0,0,0,0,0,0,0,0,0,0,0,0,0,0,0,0,0,0,0,0,0,0,0,0,0,0,0,0,0,0,0,0,0,0,0,0,0,0,0,0,0,0,0,0,0,0,0,0,0,0,0,0,0,0,0,0,0,0,
0,0,0,0,0,0,0,0,0,0,0,0,0,0,0,0,0,0,0,0,0,0,0,0,0,0,0,0,0,0,0,0,0,0,0,0,0,0,0,0,0,0,0,0,0,0,0,0,0,0,0,0,0,0,0,135,0,0,0,0,
0,0,0,0,0,0,0,0,0,0,105,0,0,0,0,0,0,0,0,0,0,0,0,0,0,0,0,1576,1577,1578,1579,0,0,0,0,0,0,0,0,0,0,0,0,0,0,0,0,0,0,0,0,0,0,0,0,0,0,0,0,0,
0,0,0,0,0,0,0,0,0,0,0,0,105,0,0,0,0,0,0,0,0,0,0,0,0,0,0,1603,1604,1605,1606,0,0,0,0,0,0,0,0,0,0,0,0,0,0,0,0,0,0,0,0,0,0,0,0,0,0,0,0,221,
0,0,0,0,0,0,0,0,0,0,0,0,0,105,0,0,0,0,0,0,0,0,0,0,0,0,0,0,1631,1632,0,0,0,0,0,0,0,0,0,0,0,0,0,0,0,0,0,0,0,0,0,0,0,0,0,0,0,0,0,0
</data>
 </layer>
 <layer id="3" name="Paths" width="60" height="50">
  <data encoding="csv">
0,0,0,0,0,0,0,0,0,0,0,0,0,0,0,0,0,0,0,0,0,0,0,0,0,0,0,0,0,0,0,0,0,0,0,0,0,0,0,0,0,0,0,0,0,0,0,0,0,0,0,0,0,0,0,0,0,0,0,0,
0,0,0,0,0,0,0,0,0,0,0,0,0,0,0,0,0,0,0,0,0,0,0,0,0,0,0,0,0,0,0,0,0,0,0,0,0,0,0,0,0,0,0,0,0,0,0,0,0,0,0,0,0,0,0,0,0,0,0,0,
0,0,0,0,0,0,0,0,297,0,0,0,0,0,0,0,0,0,0,0,0,0,0,0,0,0,0,0,0,0,0,0,0,0,0,0,0,0,0,0,0,0,0,0,0,0,0,0,0,0,0,0,0,0,0,0,0,0,0,0,
0,0,0,0,0,0,0,0,0,0,0,0,0,0,0,0,0,0,0,0,0,0,0,0,0,0,0,0,0,0,0,0,0,0,0,0,0,0,0,0,0,0,0,0,297,0,0,0,0,0,0,0,0,0,0,0,0,0,0,0,
0,0,0,0,0,0,0,0,0,0,0,0,0,0,0,0,0,297,0,0,0,0,0,0,0,0,0,0,0,0,0,0,0,0,0,0,0,0,0,0,0,0,0,0,0,0,0,0,0,0,0,0,0,0,0,0,0,297,0,0,
0,0,0,0,0,0,0,0,0,0,0,0,0,0,0,0,0,0,0,297,0,0,0,0,0,0,0,0,0,0,0,0,0,0,0,0,0,0,0,0,297,0,0,0,0,0,0,0,0,0,0,0,0,0,0,0,0,0,0,0,
0,0,0,0,0,0,0,0,0,0,0,0,0,0,0,0,0,0,0,0,0,0,0,0,0,0,0,0,0,0,0,0,0,0,0,0,0,0,0,0,0,0,0,0,0,0,0,0,0,0,0,0,0,0,0,0,0,0,0,0,
0,0,0,0,0,0,0,0,0,0,0,0,0,0,0,0,0,0,0,0,0,0,0,0,0,0,0,0,0,0,0,0,0,0,0,0,0,0,0,0,0,0,0,0,0,0,0,0,0,0,0,0,0,0,0,0,0,0,0,0,
0,0,0,0,0,0,0,0,0,0,0,0,0,0,0,0,0,0,0,0,0,0,0,0,0,0,0,0,0,0,0,0,0,0,0,0,0,0,0,0,0,0,0,0,0,0,0,0,0,0,0,0,0,0,0,0,0,0,0,0,
0,0,0,0,0,0,0,0,0,0,0,0,0,0,0,0,0,0,0,0,0,0,0,0,0,0,0,0,0,0,0,0,0,0,0,0,0,0,0,0,0,0,0,0,0,0,0,0,0,0,0,0,0,0,0,0,0,0,0,0,
0,0,0,0,0,0,0,0,0,0,0,0,0,0,0,0,0,0,0,0,0,0,0,0,0,0,0,0,0,0,0,0,0,0,0,0,0,0,0,0,0,0,0,0,0,0,0,0,0,297,0,0,0,0,0,0,0,0,0,0,
0,0,0,0,0,0,0,0,0,0,0,0,0,0,0,0,0,0,0,0,0,0,0,0,0,0,0,0,0,0,0,0,0,0,0,0,0,0,0,0,0,0,0,0,0,0,0,0,0,0,0,0,0,0,0,0,0,0,0,0,
0,0,0,0,0,0,0,0,0,0,0,0,0,0,0,0,0,0,0,0,297,0,0,0,0,0,0,0,0,0,0,0,0,0,0,0,0,0,0,0,0,0,0,0,0,0,0,0,0,0,0,0,0,0,0,0,0,0,0,0,
0,0,0,0,297,0,0,0,0,0,0,0,0,0,0,0,0,0,0,0,0,0,0,0,0,0,0,0,0,0,0,0,0,0,0,0,0,0,0,0,0,297,0,0,0,0,0,0,0,0,0,0,0,0,0,0,0,0,0,0,
0,0,0,0,0,0,0,0,0,0,0,0,0,0,0,0,297,0,0,0,0,0,0,0,0,0,0,0,0,0,0,0,0,0,0,0,0,0,0,0,0,0,0,297,0,0,0,0,0,0,0,0,0,0,0,0,0,0,0,0,
0,0,0,0,0,0,0,0,0,0,0,0,0,0,0,0,0,0,0,0,0,0,0,0,0,0,0,0,0,0,0,0,0,0,0,0,0,0,0,0,0,0,0,0,0,0,0,0,0,0,0,0,0,0,0,0,0,0,0,0,
0,0,0,0,297,0,0,0,0,0,0,0,0,0,0,0,0,0,0,0,0,0,0,0,0,0,0,0,0,0,0,0,0,0,0,0,0,0,0,0,0,0,0,0,0,0,0,0,0,0,0,0,0,0,0,0,0,0,0,0,
0,0,0,0,0,0,0,0,0,0,0,0,0,0,0,0,0,0,0,0,0,0,0,0,0,0,0,0,0,0,0,0,0,0,0,0,0,0,0,0,0,0,0,0,0,0,0,0,0,0,0,0,0,0,0,0,0,0,0,0,
0,0,0,0,0,0,0,0,0,0,0,0,0,0,0,0,0,0,0,0,0,0,0,0,0,0,0,0,0,0,0,0,0,0,0,0,0,0,0,0,0,0,0,0,0,0,0,0,0,0,0,0,0,0,0,0,0,0,0,0,
0,0,0,0,0,0,0,0,0,0,0,0,0,0,0,0,0,0,0,0,0,0,297,0,0,0,0,0,0,0,0,0,0,0,0,0,0,0,0,297,0,0,0,0,0,0,0,0,0,0,0,0,0,0,0,0,0,0,0,0,
0,0,0,0,0,0,0,0,0,0,0,0,0,0,0,0,0,0,0,0,0,0,0,0,0,0,0,0,0,0,0,0,0,0,0,0,0,0,0,0,0,0,0,0,0,0,0,0,0,0,0,0,0,0,0,0,0,0,0,0,
0,0,0,0,0,0,0,0,0,0,0,0,0,0,297,0,0,0,0,0,0,0,0,0,0,0,0,0,0,0,0,0,0,0,0,0,0,0,0,0,0,0,0,0,0,0,0,0,0,0,0,0,0,0,0,0,0,0,0,0,
0,0,0,0,0,0,0,0,0,0,0,0,0,0,0,0,0,0,0,0,0,0,0,0,0,0,0,0,0,0,0,0,0,0,0,0,0,0,0,0,0,0,0,0,0,0,0,0,0,0,0,0,0,297,0,0,0,0,0,0,
0,0,0,0,0,0,0,0,0,0,0,0,0,0,0,0,0,0,0,0,0,0,0,0,0,0,0,0,0,0,0,0,0,0,0,0,0,0,0,0,0,0,0,0,0,0,0,0,0,0,0,0,0,0,0,0,0,0,0,0,
0,0,0,0,0,0,0,0,0,0,0,0,0,0,0,0,0,0,0,0,0,0,0,0,0,0,0,0,0,0,0,0,0,0,0,0,0,0,0,0,0,0,0,0,0,0,0,0,0,0,0,0,0,0,0,0,0,0,0,0,
0,0,0,0,0,0,0,0,0,0,0,0,0,0,0,0,0,0,0,0,0,0,0,0,0,0,0,0,0,0,0,0,0,0,0,0,0,0,0,0,0,0,0,0,0,0,0,0,0,0,0,0,0,0,0,0,0,0,0,0,
0,0,0,0,0,0,0,0,0,0,0,0,0,0,0,0,0,0,0,0,0,0,0,0,0,0,0,0,0,0,0,0,0,0,0,0,0,0,0,0,0,0,0,0,0,0,0,0,0,0,0,0,0,0,0,0,0,0,0,0,
0,0,0,0,0,0,0,0,0,0,0,0,0,0,0,0,0,0,0,0,0,0,0,0,0,0,0,0,0,0,0,0,0,0,0,0,0,0,0,0,0,0,0,0,0,0,0,0,0,0,0,0,0,0,0,0,0,0,0,0,
0,0,0,0,0,0,0,0,0,0,0,0,0,0,0,0,0,0,0,0,0,0,0,0,0,0,0,0,0,0,0,0,0,0,0,0,0,0,0,0,0,0,0,0,0,0,0,0,0,0,0,0,0,0,0,0,0,0,0,0,
0,0,0,0,0,0,0,0,0,0,0,0,0,0,0,0,0,0,0,0,0,0,0,0,0,0,0,0,0,0,0,0,0,0,0,0,0,0,0,0,0,0,0,0,0,0,0,0,0,0,0,0,0,0,0,0,0,0,0,0,
0,0,0,0,0,0,0,0,0,0,0,0,0,0,0,0,0,0,0,0,0,0,0,0,0,0,0,0,0,0,0,0,0,0,0,0,0,0,0,0,0,0,0,0,0,0,0,0,0,0,0,0,0,0,0,0,0,0,0,0,
0,0,0,0,0,0,0,0,0,0,0,0,0,0,0,0,0,0,0,0,0,0,0,0,0,0,0,0,0,0,0,0,0,0,0,0,0,0,0,0,0,0,0,0,0,0,0,0,0,0,0,0,0,0,0,0,0,0,0,0,
0,0,0,0,0,0,0,0,0,0,0,0,0,0,0,0,0,0,0,0,0,0,0,0,0,0,0,0,0,0,0,0,0,0,0,0,0,0,0,0,0,0,0,0,0,0,0,0,0,0,0,0,0,0,0,0,0,0,0,0,
0,0,0,0,0,0,0,0,0,0,0,0,0,0,0,0,0,0,0,0,0,0,0,0,0,0,0,0,0,0,0,0,0,0,0,0,0,0,0,0,0,0,0,0,0,0,0,0,0,0,0,0,0,0,0,0,0,0,0,0,
0,0,0,0,0,0,0,0,0,0,0,0,0,0,0,0,0,0,0,0,0,0,0,0,0,0,0,0,0,0,0,0,0,0,0,0,0,0,0,0,0,0,0,0,0,0,0,0,0,0,0,0,0,0,0,0,0,0,0,0,
0,0,0,0,0,0,0,0,0,0,0,0,0,0,0,0,0,0,0,0,0,0,0,0,0,0,0,0,0,0,0,0,0,0,0,0,0,0,0,0,0,0,0,0,0,0,0,0,0,0,0,0,0,0,0,0,0,0,0,0,
0,0,0,0,0,0,0,0,0,0,0,0,0,0,0,0,0,0,0,0,0,0,0,0,0,0,0,0,0,0,0,0,0,0,0,0,0,0,0,0,0,0,0,0,0,0,0,0,0,0,0,0,0,0,0,0,0,0,0,0,
0,0,0,0,0,0,0,0,0,0,0,0,0,0,0,0,0,0,0,0,0,0,0,0,0,0,0,0,0,0,0,0,0,0,0,0,0,0,0,0,0,0,0,0,0,0,0,0,0,0,0,0,0,0,0,0,0,0,0,0,
0,0,0,0,0,0,0,0,0,0,0,0,0,0,0,0,0,0,0,0,0,0,0,0,0,0,0,0,0,0,0,0,0,0,0,0,0,0,0,0,0,0,0,0,0,0,0,0,0,0,0,0,0,0,0,0,0,0,0,0,
0,0,0,0,0,0,0,0,0,0,0,0,0,0,0,0,0,0,0,0,0,0,0,0,0,0,0,0,0,0,0,0,0,0,0,0,0,0,0,0,0,0,0,0,0,0,0,0,0,0,0,0,0,0,0,0,0,0,0,0,
0,0,0,0,0,0,0,0,0,0,0,0,0,0,0,0,0,0,0,0,0,0,0,0,0,0,0,0,0,0,0,0,0,0,0,0,0,0,0,0,0,0,0,0,0,0,0,0,0,0,0,0,0,0,0,0,0,0,0,0,
0,0,0,0,0,0,0,0,0,0,0,0,0,0,0,0,0,0,0,0,0,0,0,0,0,0,0,0,0,0,0,0,0,0,0,0,0,0,0,0,0,0,0,0,0,0,0,0,0,0,0,0,0,0,0,0,0,0,0,0,
0,0,0,0,0,0,0,0,0,0,0,0,0,0,0,0,0,0,0,0,0,0,0,0,0,0,0,0,0,0,0,0,0,0,0,0,0,0,0,0,0,0,0,0,0,0,0,0,0,0,0,0,0,0,0,0,0,0,0,0,
0,0,0,0,0,0,0,0,0,0,0,0,0,0,0,0,0,0,0,0,0,0,0,0,0,0,0,0,0,0,0,0,0,0,0,0,0,0,0,0,0,0,0,0,0,0,0,0,0,0,0,0,0,0,0,0,0,0,0,0,
0,0,0,0,0,0,0,0,0,0,0,297,0,0,0,0,0,0,0,0,0,0,0,0,0,0,0,0,0,0,0,0,0,0,0,0,0,0,0,0,0,0,0,0,0,0,0,0,0,0,0,0,0,0,0,0,0,0,0,0,
0,0,0,0,0,0,0,0,0,0,0,0,0,0,0,0,0,0,0,0,0,0,0,0,0,0,0,0,0,0,0,0,0,0,0,0,0,0,0,0,0,0,0,0,0,0,0,0,0,0,0,0,0,0,0,0,0,0,0,0,
0,0,0,0,0,297,0,0,0,0,0,0,0,0,0,0,0,0,0,0,0,0,0,0,0,0,0,0,0,0,0,0,0,0,0,0,0,0,0,0,0,0,0,0,0,0,0,0,0,0,0,0,0,0,0,0,0,0,0,0,
0,0,0,0,0,0,0,0,0,0,0,0,0,0,0,0,0,0,0,0,0,0,0,0,0,0,0,0,0,0,0,0,0,0,0,0,0,0,0,0,0,0,0,0,0,0,0,0,0,0,0,0,0,0,0,0,0,0,0,0,
0,0,0,0,0,0,0,0,0,0,0,0,0,0,0,0,0,0,0,0,0,0,0,0,0,0,0,0,0,0,0,0,0,0,0,0,0,0,0,0,0,0,0,0,0,0,0,0,0,0,0,0,0,0,0,0,0,0,0,0,
0,0,0,0,0,0,0,0,0,0,0,0,0,0,0,0,0,0,0,0,0,0,0,0,0,0,0,0,0,0,0,0,0,0,0,0,0,0,0,0,0,0,0,0,0,0,0,0,0,0,0,0,0,0,0,0,0,0,0,0
</data>
 </layer>
 <layer id="4" name="Front" width="60" height="50">
  <data encoding="csv">
0,0,0,0,0,0,0,0,0,0,0,0,0,0,0,0,0,0,0,0,0,705,705,705,705,705,705,705,705,705,705,705,705,705,705,705,705,0,0,0,0,0,0,0,0,0,0,0,0,0,0,0,0,0,705,705,705,705,705,0,
0,0,0,0,0,0,0,0,0,0,0,0,0,0,0,0,0,0,0,0,0,705,705,705,705,705,705,705,705,705,705,705,705,705,705,705,705,0,0,0,0,0,0,0,0,0,0,0,0,0,0,0,0,0,0,705,705,705,0,0,
0,0,0,0,0,0,0,0,0,0,0,0,0,0,0,0,0,0,0,0,0,0,705,705,705,705,705,705,705,705,705,705,705,705,705,705,0,0,0,0,0,0,0,0,0,0,0,0,0,0,0,0,0,0,0,0,0,0,0,0,
0,0,0,0,0,0,0,0,0,0,0,0,0,0,0,0,0,0,0,0,0,0,0,0,0,705,705,705,705,705,0,0,0,0,0,0,0,0,0,0,0,0,0,0,0,0,0,0,0,0,180,209,0,0,0,0,0,0,0,0,
0,0,0,0,0,0,0,0,0,0,0,0,0,0,0,0,0,0,0,0,0,0,0,0,0,0,705,705,705,0,0,0,0,0,0,0,0,0,0,0,0,0,0,0,0,0,0,0,0,0,0,0,949,950,89,0,0,0,0,0,
0,0,0,0,0,0,0,0,0,0,0,0,0,0,0,0,0,0,0,0,0,0,0,0,0,0,0,0,0,0,0,0,0,0,0,0,0,0,0,0,0,0,0,0,0,0,0,0,0,0,0,0,0,0,0,0,0,0,0,0,
0,0,0,0,0,0,0,0,0,0,0,0,0,0,0,0,0,0,0,0,0,0,0,0,0,0,0,0,0,0,0,0,0,0,0,0,0,0,0,0,0,0,0,0,0,0,0,0,0,0,0,0,0,0,0,0,0,0,0,0,
0,0,0,0,0,0,0,0,0,0,0,221,216,2147483864,2147483863,198,0,0,0,0,0,0,0,0,0,0,0,0,0,0,0,0,0,0,0,0,0,0,0,0,0,0,0,0,206,215,217,0,0,0,0,0,0,0,0,0,0,0,0,0,
0,198,0,0,0,0,0,0,0,0,0,0,0,0,0,0,2147483864,198,0,0,0,0,0,0,0,0,0,0,0,0,0,0,0,0,0,0,0,0,0,0,0,0,206,216,0,0,0,0,0,0,0,0,221,215,216,198,0,0,2147483846,0,
0,0,217,0,0,0,0,0,0,0,206,0,0,0,0,0,0,0,2147483863,216,2147483864,217,0,0,0,0,0,0,0,0,0,0,0,0,0,0,0,0,221,216,216,215,0,0,0,0,0,4187,0,0,0,2147487782,2147487781,0,0,0,0,0,0,0,
0,0,0,0,0,0,0,0,0,206,0,0,0,0,0,0,0,0,0,0,0,0,0,0,0,0,0,0,0,0,0,0,0,0,0,0,0,0,0,0,0,0,0,0,0,0,0,233,0,0,0,1610612934,0,0,0,0,0,0,0,0,
0,0,0,217,0,0,206,215,216,0,0,0,0,0,0,0,0,0,0,0,0,0,0,0,0,0,0,0,0,0,0,0,0,0,0,0,0,0,0,0,0,0,0,0,0,0,0,0,216,215,216,0,0,0,0,4136,0,0,0,0,
0,0,0,0,0,206,0,0,0,0,0,0,0,0,0,0,0,0,0,0,0,0,0,0,0,0,0,0,0,0,0,0,0,0,0,0,0,0,0,0,0,0,0,0,0,0,0,0,0,0,0,0,0,0,0,4237,0,0,4185,0,
0,0,0,0,215,0,0,0,0,0,0,0,0,0,0,0,0,0,0,0,0,0,0,0,0,0,0,0,0,0,0,0,0,0,0,0,0,0,0,0,0,0,0,0,0,0,0,0,0,0,0,0,0,0,0,0,0,0,0,0,
0,0,0,0,0,0,0,0,0,0,0,0,0,0,0,0,0,0,0,0,0,0,0,0,0,0,0,0,0,0,206,216,215,216,198,0,0,0,0,0,0,0,0,0,0,0,0,0,0,0,0,0,0,0,0,198,0,0,206,0,
0,0,0,0,0,0,0,0,0,0,0,0,0,0,0,0,0,0,0,0,0,0,0,0,0,206,215,216,215,216,2147483862,0,0,0,0,216,198,0,0,0,0,0,0,0,0,0,0,0,0,0,0,0,0,0,0,0,215,215,0,0,
0,0,0,0,0,0,0,0,0,0,0,0,0,0,0,0,0,0,0,0,206,215,215,216,215,0,0,0,0,0,0,0,0,0,0,0,0,216,215,198,0,0,0,0,0,0,0,0,0,0,0,0,0,0,0,0,0,0,0,0,
0,0,0,0,0,0,0,0,0,0,0,0,0,0,0,0,0,0,206,216,0,0,0,0,0,0,0,0,0,0,0,0,0,0,0,0,0,0,0,0,2147483863,198,0,0,0,0,0,0,0,0,0,0,0,0,0,0,0,0,0,0,
0,0,0,0,0,0,0,0,0,0,0,0,0,0,0,0,206,216,0,0,0,0,0,0,0,0,0,0,0,0,0,0,0,0,0,0,0,0,0,0,0,0,216,198,0,0,0,0,0,0,0,0,0,0,0,0,0,0,0,0,
0,0,0,0,0,0,0,0,0,0,0,0,0,221,215,216,0,0,0,0,0,0,0,0,0,0,0,0,0,0,0,0,0,0,0,0,0,0,0,0,0,0,0,0,217,0,0,0,0,0,0,0,0,0,0,0,0,0,0,0,
0,0,0,0,0,0,0,0,0,0,0,0,0,0,0,0,0,0,0,881,0,0,0,0,0,0,0,0,0,0,0,0,0,0,0,0,0,0,0,0,0,0,0,0,0,0,0,0,0,0,0,0,0,0,0,0,0,0,0,0,
0,0,0,0,0,0,0,0,0,0,0,0,0,0,0,0,0,0,0,1305,0,0,0,0,0,0,0,0,0,0,0,0,0,0,0,0,1305,0,0,0,0,0,0,0,0,0,0,0,0,0,0,0,0,0,0,0,0,0,0,0,
0,0,0,0,0,0,0,0,0,0,0,0,0,0,0,0,0,0,0,1332,0,0,0,0,0,0,0,0,0,0,0,0,0,0,0,0,1332,0,0,0,0,0,0,0,0,0,0,0,0,0,0,0,0,0,0,0,0,0,0,0,
0,0,0,0,0,0,0,0,0,0,0,0,0,0,0,0,0,0,0,1359,0,0,0,0,0,0,0,0,0,0,0,0,0,0,0,0,1359,0,0,0,0,0,0,0,0,0,0,0,0,0,0,0,0,0,0,0,0,0,0,0,
0,0,0,0,0,0,0,0,0,0,0,0,0,0,0,0,0,0,0,1386,0,0,0,0,0,0,0,0,0,0,0,0,0,0,0,0,1386,0,0,0,0,0,0,0,0,0,0,0,0,0,0,0,0,0,0,0,0,0,0,0,
0,0,0,0,0,0,0,0,0,0,0,0,0,0,0,0,0,0,0,1413,0,0,0,0,0,0,0,0,0,0,0,0,0,0,0,0,1413,0,0,0,0,0,0,0,0,0,0,0,0,0,0,0,0,0,0,0,0,0,0,0,
0,0,0,0,0,0,0,0,0,0,0,0,0,0,0,0,0,0,0,0,0,0,0,0,0,0,0,0,0,0,0,0,0,0,0,0,0,0,0,0,0,0,0,0,0,0,0,0,0,0,0,0,0,0,0,0,0,0,0,0,
0,0,0,0,0,0,0,0,0,0,0,0,0,0,0,0,0,0,0,0,0,0,0,0,0,0,0,0,0,0,0,0,0,0,0,0,0,0,0,0,0,0,0,0,0,0,0,0,0,0,0,0,0,0,0,0,0,0,0,0,
0,0,0,0,0,0,0,0,0,0,0,0,0,0,0,0,0,0,0,0,0,250,0,0,0,0,0,0,0,0,0,0,0,0,0,0,0,0,0,0,0,0,221,217,0,0,0,0,0,0,0,0,0,0,0,0,0,0,0,0,
0,0,0,0,0,0,0,0,0,0,0,0,0,0,0,0,0,0,0,0,0,0,0,0,0,0,0,0,0,0,0,0,0,0,0,0,0,0,0,0,0,0,0,0,0,0,0,0,0,0,0,0,0,0,0,0,0,0,0,0,
0,0,0,0,0,0,0,0,0,0,0,0,0,0,0,0,0,0,0,0,0,0,0,0,0,0,0,0,0,0,0,0,0,0,0,0,0,0,0,0,0,0,0,0,198,0,0,0,0,0,0,0,0,0,0,0,0,0,0,0,
0,0,0,0,0,0,0,0,0,869,870,871,0,0,0,0,0,0,0,0,0,0,0,0,0,0,0,0,0,0,0,0,0,0,0,0,0,0,0,0,0,0,0,0,0,215,198,0,0,0,0,0,0,0,0,0,0,0,0,0,
0,0,0,0,0,0,0,0,0,894,895,896,0,0,0,0,0,0,0,0,0,0,0,0,0,0,0,0,0,0,0,0,0,0,0,0,0,0,0,0,0,0,0,0,0,198,0,216,215,217,0,0,0,0,0,0,0,0,0,221,
0,0,0,0,0,0,0,0,0,0,0,943,944,0,0,0,0,0,0,0,0,0,0,0,0,0,0,0,0,0,0,0,0,0,0,0,0,0,0,0,0,0,0,0,0,0,0,0,0,0,0,0,0,0,0,0,0,0,0,0,
0,0,0,0,0,0,0,0,0,0,0,0,0,0,0,0,0,0,0,0,0,0,0,0,0,0,0,0,0,0,0,0,0,0,0,0,0,0,0,0,0,0,0,0,0,0,0,0,0,0,0,0,0,0,0,0,0,0,0,0,
0,0,0,0,0,0,0,0,0,0,0,0,0,0,0,875,876,877,0,0,0,0,0,0,0,0,0,0,0,0,0,0,0,0,0,0,0,0,0,0,0,0,0,0,0,0,0,0,0,0,0,0,0,0,0,0,0,0,0,0,
0,0,0,0,0,0,0,0,0,0,0,0,0,0,0,900,901,902,0,0,0,0,0,0,0,0,0,0,0,0,0,0,0,0,0,0,0,0,0,0,0,0,0,0,0,0,0,0,0,0,0,0,0,0,0,0,0,0,0,0,
0,198,0,0,0,0,0,0,0,0,0,0,0,0,941,942,866,867,868,0,0,0,0,0,0,0,0,0,0,0,0,0,0,0,0,0,0,0,0,0,0,0,0,0,0,0,0,0,0,0,0,0,0,0,0,0,0,0,0,0,
0,0,198,0,0,0,0,0,0,0,0,0,0,0,0,0,0,0,893,0,0,0,0,0,0,0,0,0,0,0,0,0,0,0,0,0,0,0,0,0,0,0,0,0,0,0,0,0,0,0,0,0,0,0,0,0,0,0,0,0,
0,0,0,217,0,0,0,0,0,0,0,0,0,0,0,0,0,0,0,0,0,0,0,0,0,0,0,0,0,0,0,0,0,0,0,0,0,0,0,0,0,0,0,0,0,0,0,0,0,0,0,0,0,0,0,0,0,0,0,0,
0,0,0,0,0,0,0,0,0,0,0,0,0,0,0,0,0,0,0,0,0,0,0,0,0,0,0,0,0,0,0,0,0,0,0,0,0,0,0,0,0,0,0,0,0,0,0,0,0,0,0,0,0,0,0,0,0,0,0,0,
0,0,0,0,0,0,0,0,0,0,0,0,0,0,0,0,0,0,0,0,0,0,0,0,0,0,0,0,0,0,0,0,0,0,0,0,0,0,0,0,0,0,0,0,0,0,0,0,0,206,215,216,215,216,215,217,0,0,0,0,
0,0,0,0,0,0,221,215,216,217,0,0,0,0,0,0,0,0,0,0,0,0,0,0,0,0,0,0,0,0,0,0,0,0,0,0,0,0,0,0,0,0,0,0,0,0,0,0,206,0,0,0,0,0,0,233,0,0,0,0,
0,0,0,0,0,0,0,0,0,0,0,0,0,0,0,0,0,0,0,0,0,0,0,0,0,0,0,0,0,0,0,0,0,0,0,0,0,0,0,0,0,0,0,0,221,215,216,215,0,0,0,0,0,0,0,0,0,0,0,0,
0,0,0,0,0,0,0,0,0,0,198,0,0,206,216,217,0,0,0,0,0,0,0,0,0,0,0,0,0,0,0,0,0,0,0,0,0,0,0,0,0,0,0,0,0,0,0,0,0,0,0,0,0,0,0,0,0,0,0,0,
0,0,0,0,0,0,0,0,0,0,0,216,215,0,0,0,0,0,0,0,0,0,0,0,0,0,0,0,0,0,0,0,0,0,0,0,0,0,0,0,0,0,206,216,0,0,0,0,0,0,0,0,0,0,0,0,0,0,0,0,
0,0,0,0,0,0,0,0,0,0,0,0,0,0,0,0,215,198,0,0,0,0,0,0,0,0,0,0,0,0,0,0,0,0,0,0,0,0,0,206,216,215,0,0,0,0,0,0,0,0,0,104,0,0,0,0,0,0,0,0,
0,0,0,0,0,0,0,0,0,0,0,0,0,0,0,0,0,0,216,198,0,0,0,206,215,215,216,217,0,0,221,215,216,198,0,0,206,215,216,0,0,0,0,0,0,0,0,0,0,0,104,0,0,0,0,0,0,0,0,0,
0,0,0,0,0,0,0,0,0,0,0,0,0,0,0,0,0,0,0,0,216,215,216,0,0,0,0,233,0,0,237,0,0,0,216,215,0,0,0,0,0,0,0,0,0,0,0,0,0,104,0,0,0,0,0,0,0,0,0,0,
0,0,233,0,0,0,0,0,0,0,0,0,0,0,0,0,0,0,0,0,0,0,0,0,0,0,0,0,215,216,0,0,0,0,0,0,0,0,0,0,0,0,104,0,0,0,0,0,0,0,0,0,0,0,0,0,0,0,0,0
</data>
 </layer>
 <layer id="12" name="Front2" width="60" height="50">
  <data encoding="csv">
0,0,0,0,0,0,0,0,0,0,0,0,0,0,0,0,0,0,0,0,0,217,0,0,0,0,0,0,0,0,0,0,0,0,0,0,221,207,0,0,0,0,0,0,0,0,0,0,0,0,0,0,0,0,233,0,0,0,206,0,
0,0,0,0,0,0,0,0,0,0,0,0,0,0,0,0,0,0,0,0,0,233,0,0,0,0,0,0,0,0,0,0,0,0,0,0,237,0,0,0,0,0,0,0,0,0,0,0,0,0,0,0,0,0,0,215,216,216,0,0,
0,0,0,0,0,0,0,0,0,0,0,0,0,0,0,0,0,0,0,0,0,0,216,215,216,217,0,0,0,221,216,215,216,215,216,215,222,0,0,0,0,0,0,0,0,0,0,0,0,0,0,0,0,0,0,0,0,0,0,0,
0,0,0,0,0,0,0,0,0,0,0,0,0,0,0,0,0,0,0,0,0,0,0,0,0,233,0,0,0,237,0,0,0,0,0,0,0,0,0,0,0,0,0,0,0,0,0,0,0,0,0,0,0,0,0,0,0,0,0,0,
0,0,0,0,0,0,0,0,0,0,0,0,0,0,0,0,0,0,0,0,0,0,0,0,0,214,215,216,215,222,0,0,0,0,0,0,0,0,0,0,0,0,0,0,0,0,0,0,0,0,0,0,0,0,0,0,0,0,0,0,
0,0,0,0,0,0,0,0,0,0,0,0,0,0,0,0,0,0,0,0,0,0,0,0,0,0,0,0,0,0,0,0,0,0,0,0,0,0,0,0,0,0,0,0,0,0,0,0,0,0,0,0,0,0,0,0,0,0,0,0,
0,0,0,0,0,0,0,0,0,0,0,0,0,0,0,0,0,0,0,0,0,0,0,0,0,0,0,0,0,0,0,0,0,0,0,0,0,0,0,0,0,0,0,0,0,0,0,0,0,0,0,0,0,0,0,0,0,0,0,0,
0,0,0,0,0,0,0,0,0,0,0,0,0,0,0,0,0,0,0,0,0,0,0,0,0,0,0,0,0,0,0,0,0,0,0,0,0,0,0,0,0,0,0,0,0,0,0,0,0,0,0,0,0,0,0,0,0,0,0,0,
0,0,0,0,0,0,0,0,0,0,0,0,0,0,0,0,0,0,0,0,0,0,0,0,0,0,0,0,0,0,0,0,0,0,0,0,0,0,0,0,0,0,0,0,0,0,0,0,0,0,0,0,0,0,0,0,0,0,0,0,
0,0,0,0,0,0,0,0,0,0,0,0,0,0,0,0,0,0,0,0,0,0,0,0,0,0,0,0,0,0,0,0,0,0,0,0,0,0,0,0,0,0,0,0,0,0,0,217,0,0,0,0,237,0,0,0,0,0,0,0,
0,0,0,0,0,0,0,0,0,0,0,0,0,0,0,0,0,0,0,0,0,0,0,0,0,0,0,0,0,0,0,0,0,0,0,0,0,0,0,0,0,0,0,0,0,0,0,0,0,0,0,0,0,0,0,1073742041,0,0,1073742045,0,
0,0,0,0,0,0,0,0,0,0,0,0,0,0,0,0,0,0,0,0,0,0,0,0,0,0,0,0,0,0,0,0,0,0,0,0,0,0,0,0,0,0,0,0,0,0,0,0,0,0,0,0,0,0,0,0,0,0,0,0,
0,0,0,0,0,0,0,0,0,0,0,0,0,0,0,0,0,0,0,0,0,0,0,0,0,0,0,0,0,0,0,0,0,0,0,0,0,0,0,0,0,0,0,0,0,0,0,0,0,0,0,0,0,0,0,0,0,0,0,0,
0,0,0,0,0,0,0,0,0,0,0,0,0,0,0,0,0,0,0,0,0,0,0,0,0,0,0,0,0,0,0,0,0,0,0,0,0,0,0,0,0,0,0,0,0,0,0,0,0,0,0,0,0,0,0,0,0,0,0,0,
0,0,0,0,0,0,0,0,0,0,0,0,0,0,0,0,0,0,0,0,0,0,0,0,0,0,0,0,0,0,0,0,0,0,0,0,0,0,0,0,0,0,0,0,0,0,0,0,0,0,0,0,0,0,0,0,0,0,0,0,
0,0,0,0,0,0,0,0,0,0,0,0,0,0,0,0,0,0,0,0,0,0,0,0,0,0,0,0,0,0,0,0,0,0,0,0,0,0,0,0,0,0,0,0,0,0,0,0,0,0,0,0,0,0,0,0,0,0,0,0,
0,0,0,0,0,0,0,0,0,0,0,0,0,0,0,0,0,0,0,0,0,0,0,0,0,0,0,0,0,0,0,0,0,0,0,0,0,0,0,0,0,0,0,0,0,0,0,0,0,0,0,0,0,0,0,0,0,0,0,0,
0,0,0,0,0,0,0,0,0,0,0,0,0,0,0,0,0,0,0,0,0,0,0,0,0,0,0,0,0,0,0,0,0,0,0,0,0,0,0,0,0,0,0,0,0,0,0,0,0,0,0,0,0,0,0,0,0,0,0,0,
0,0,0,0,0,0,0,0,0,0,0,0,0,0,0,0,0,0,0,0,0,0,0,0,0,0,0,0,0,0,0,0,0,0,0,0,0,0,0,0,0,0,0,0,0,0,0,0,0,0,0,0,0,0,0,0,0,0,0,0,
0,0,0,0,0,0,0,0,0,0,0,0,0,0,0,0,0,0,0,0,0,0,0,0,0,0,0,0,0,0,0,0,0,0,0,0,0,0,0,0,0,0,0,0,0,0,0,0,0,0,0,0,0,0,0,0,0,0,0,0,
0,0,0,0,0,0,0,0,0,0,0,0,0,0,0,0,0,0,0,0,0,0,0,0,0,0,0,0,0,0,0,0,0,0,0,0,0,0,0,0,0,0,0,0,0,0,0,0,0,0,0,0,0,0,0,0,0,0,0,0,
0,0,0,0,0,0,0,0,0,0,0,0,0,0,0,0,0,0,0,0,0,0,0,0,0,0,0,0,0,0,0,0,0,0,0,0,0,0,0,0,0,0,0,0,0,0,0,0,0,0,0,0,0,0,0,0,0,0,0,0,
0,0,0,0,0,0,0,0,0,0,0,0,0,0,0,0,0,0,0,0,0,0,0,0,0,0,0,0,0,0,0,0,0,0,0,0,0,0,0,0,0,0,0,0,0,0,0,0,0,0,0,0,0,0,0,0,0,0,0,0,
0,0,0,0,0,0,0,0,0,0,0,0,0,0,0,0,0,0,0,0,0,0,0,0,0,0,0,0,0,0,0,0,0,0,0,0,0,0,0,0,0,0,0,0,0,0,0,0,0,0,0,0,0,0,0,0,0,0,0,0,
0,0,0,0,0,0,0,0,0,0,0,0,0,0,0,0,0,0,0,0,0,0,0,0,0,0,0,0,0,0,0,0,0,0,0,0,0,0,0,0,0,0,0,0,0,0,0,0,0,0,0,0,0,0,0,0,0,0,0,0,
0,0,0,0,0,0,0,0,0,0,0,0,0,0,0,0,0,0,0,0,0,0,0,0,0,0,0,0,0,0,0,0,0,0,0,0,0,0,0,0,0,0,0,0,0,0,0,0,0,0,0,0,0,0,0,0,0,0,0,0,
0,0,0,0,0,0,0,0,0,0,0,0,0,0,0,0,0,0,0,0,0,0,0,0,0,0,0,0,0,0,0,0,0,0,0,0,0,0,0,0,0,0,0,0,0,0,0,0,0,0,0,0,0,0,0,0,0,0,0,0,
0,0,0,0,0,0,0,0,0,0,0,0,0,0,0,0,0,0,0,0,0,0,0,0,0,0,0,0,0,0,0,0,0,0,0,0,0,0,0,0,0,0,0,0,0,0,0,0,0,0,0,0,0,0,0,0,0,0,0,0,
0,0,0,0,0,0,0,0,0,0,0,0,0,0,0,0,0,0,0,0,0,0,0,0,0,0,0,0,0,0,0,0,0,0,0,0,0,0,0,0,0,0,0,0,0,0,0,0,0,0,0,0,0,0,0,0,0,0,0,0,
0,0,0,0,0,0,0,0,0,0,0,0,0,0,0,0,0,0,0,0,0,0,0,0,0,0,0,0,0,0,0,0,0,0,0,0,0,0,0,0,0,0,0,0,0,0,0,0,0,0,0,0,0,0,0,0,0,0,0,0,
0,0,0,0,0,0,0,0,0,0,0,0,0,0,0,0,0,0,0,0,0,0,0,0,0,0,0,0,0,0,0,0,0,0,0,0,0,0,0,0,0,0,0,0,0,0,0,0,0,0,0,0,0,0,0,0,0,0,0,0,
0,0,0,0,0,0,0,0,0,0,0,0,0,0,0,0,0,0,0,0,0,0,0,0,0,0,0,0,0,0,0,0,0,0,0,0,0,0,0,0,0,0,0,0,0,0,0,0,0,0,0,0,0,0,0,0,0,0,0,0,
0,0,0,0,0,0,0,0,0,0,0,0,0,0,0,0,0,0,0,0,0,0,0,0,0,0,0,0,0,0,0,0,0,0,0,0,0,0,0,0,0,0,0,0,0,0,0,0,0,0,0,0,0,0,0,0,0,0,0,0,
0,0,0,0,0,0,0,0,0,0,0,0,0,0,0,0,0,0,0,0,0,0,0,0,0,0,0,0,0,0,0,0,0,0,0,0,0,0,0,0,0,0,0,0,0,0,0,0,0,0,0,0,0,0,0,0,0,0,0,0,
0,0,0,0,0,0,0,0,0,0,0,0,0,0,0,0,0,0,0,0,0,0,0,0,0,0,0,0,0,0,0,0,0,0,0,0,0,0,0,0,0,0,0,0,0,0,0,0,0,0,0,0,0,0,0,0,0,0,0,0,
0,0,0,0,0,0,0,0,0,0,0,0,0,0,0,0,0,0,0,0,0,0,0,0,0,0,0,0,0,0,0,0,0,0,0,0,0,0,0,0,0,0,0,0,0,0,0,0,0,0,0,0,0,0,0,0,0,0,0,0,
0,0,0,0,0,0,0,0,0,0,0,0,0,0,0,0,0,0,0,0,0,0,0,0,0,0,0,0,0,0,0,0,0,0,0,0,0,0,0,0,0,0,0,0,0,0,0,0,0,0,0,0,0,0,0,0,0,0,0,0,
0,0,0,0,0,0,0,0,0,0,0,0,0,0,0,0,0,0,0,0,0,0,0,0,0,0,0,0,0,0,0,0,0,0,0,0,0,0,0,0,0,0,0,0,0,0,0,0,0,0,0,0,0,0,0,0,0,0,0,0,
0,0,0,0,0,0,0,0,0,0,0,0,0,0,0,0,0,0,0,0,0,0,0,0,0,0,0,0,0,0,0,0,0,0,0,0,0,0,0,0,0,0,0,0,0,0,0,0,0,0,0,0,0,0,0,0,0,0,0,0,
0,0,0,0,0,0,0,0,0,0,0,0,0,0,0,0,0,0,0,0,0,0,0,0,0,0,0,0,0,0,0,0,0,0,0,0,0,0,0,0,0,0,0,0,0,0,0,0,0,0,0,0,0,0,0,0,0,0,0,0,
0,0,0,0,0,0,0,0,0,0,0,0,0,0,0,0,0,0,0,0,0,0,0,0,0,0,0,0,0,0,0,0,0,0,0,0,0,0,0,0,0,0,0,0,0,0,0,0,0,0,0,0,0,0,0,0,0,0,0,0,
0,0,0,0,0,0,0,0,0,0,0,0,0,0,0,0,0,0,0,0,0,0,0,0,0,0,0,0,0,0,0,0,0,0,0,0,0,0,0,0,0,0,0,0,0,0,0,0,0,0,0,0,0,0,0,0,0,0,0,0,
0,0,0,0,0,0,0,0,0,0,0,0,0,0,0,0,0,0,0,0,0,0,0,0,0,0,0,0,0,0,0,0,0,0,0,0,0,0,0,0,0,0,0,0,0,0,0,0,0,0,0,0,0,0,0,0,0,0,0,0,
0,0,0,0,0,0,0,0,0,0,0,0,0,0,0,0,0,0,0,0,0,0,0,0,0,0,0,0,0,0,0,0,0,0,0,0,0,0,0,0,0,0,0,0,0,0,0,0,0,0,0,0,0,0,0,0,0,0,0,0,
0,0,0,0,0,0,0,0,0,0,0,0,0,0,0,0,0,0,0,0,0,0,0,0,0,0,0,0,0,0,0,0,0,0,0,0,0,0,0,0,0,0,0,0,0,0,0,0,0,0,0,0,0,0,0,0,0,0,0,0,
0,0,0,0,0,0,0,0,0,0,0,0,0,0,0,0,0,0,0,0,0,0,0,0,0,0,0,0,0,0,0,0,0,0,0,0,0,0,0,0,0,0,0,0,0,0,0,0,0,0,0,0,0,0,0,0,0,0,0,0,
0,0,0,0,0,0,0,0,0,0,0,0,0,0,0,0,0,0,0,0,0,0,0,0,0,0,0,0,0,0,0,0,0,0,0,0,0,0,0,0,0,0,0,0,0,0,0,0,0,0,0,0,0,0,0,0,0,0,0,0,
0,0,0,0,0,0,0,0,0,0,0,0,0,0,0,0,0,0,0,0,0,0,0,0,0,0,0,0,0,0,0,0,0,0,0,0,0,0,0,0,0,0,0,0,0,0,0,0,0,0,0,0,0,0,0,0,0,0,0,0,
0,0,0,0,0,0,0,0,0,0,0,0,0,0,0,0,0,0,0,0,0,0,0,0,0,0,0,0,0,0,0,0,0,0,0,0,0,0,0,0,0,0,0,0,0,0,0,0,0,0,0,0,0,0,0,0,0,0,0,0,
0,0,0,0,0,0,0,0,0,0,0,0,0,0,0,0,0,0,0,0,0,0,0,0,0,0,0,0,0,0,0,0,0,0,0,0,0,0,0,0,0,0,0,0,0,0,0,0,0,0,0,0,0,0,0,0,0,0,0,0
</data>
 </layer>
 <layer id="9" name="AlwaysFront" width="60" height="50">
  <data encoding="csv">
0,0,0,0,0,0,0,0,0,0,0,0,0,0,0,792,817,818,1073742666,843,1610613578,1610613530,3758097226,783,758,790,0,0,0,0,0,0,0,768,759,785,2684355300,2147484466,817,818,759,837,711,765,0,0,0,0,0,0,0,0,0,0,0,0,0,0,0,0,
0,0,0,0,0,0,0,0,0,0,0,0,0,0,0,767,743,835,834,783,2147484391,713,760,761,2147484490,815,817,791,0,0,0,0,0,767,742,809,738,711,2684355329,716,2684355402,835,837,836,0,0,0,0,0,0,0,0,0,0,0,0,0,0,0,0,
0,0,0,0,0,0,0,0,0,0,0,0,0,0,0,0,767,2147484389,2147484388,759,810,784,2147484389,2147484390,743,835,712,766,0,0,0,0,0,0,0,767,743,758,709,834,843,2147484391,742,766,0,0,0,0,0,0,0,0,0,0,0,0,0,0,0,0,
0,0,0,0,0,0,0,0,0,0,0,0,0,0,0,0,0,0,1073742617,536871628,758,765,0,0,767,741,766,0,0,0,0,0,0,0,0,0,1073742617,835,785,741,2147484390,766,0,0,0,0,0,0,0,0,0,0,0,0,0,0,0,0,0,0,
0,0,0,0,0,0,0,0,0,0,0,0,0,0,0,0,0,0,767,742,741,766,0,0,0,0,0,0,0,0,0,0,0,0,0,0,768,843,765,0,0,0,0,0,0,0,0,0,0,0,0,0,0,0,0,0,0,0,0,0,
0,0,0,0,0,0,0,0,0,0,0,0,0,0,0,0,0,0,0,0,0,0,0,0,0,0,0,0,0,0,0,0,0,0,0,0,767,741,766,0,0,0,0,0,0,0,0,0,0,0,0,0,0,0,0,0,0,0,0,0,
0,0,0,0,0,0,0,0,0,0,0,0,0,0,0,0,0,0,0,0,0,0,0,0,0,0,0,0,0,0,0,0,0,0,0,0,0,0,0,0,0,0,0,0,0,0,0,0,0,0,0,0,0,0,0,0,0,0,0,0,
0,0,0,0,0,0,0,0,0,0,0,792,816,791,0,0,0,0,0,0,0,0,0,0,0,0,0,0,0,0,0,0,0,0,0,0,0,0,0,0,0,0,0,0,0,0,0,0,0,0,0,0,0,0,0,0,0,0,0,0,
0,0,0,0,0,0,0,0,0,0,0,768,814,815,817,2147484464,791,0,0,0,0,0,0,0,0,0,0,0,0,0,0,0,0,0,0,0,0,0,0,0,0,0,0,792,816,733,2147484464,791,0,0,0,0,0,0,0,0,0,0,0,0,
816,791,0,0,0,0,0,0,0,0,0,767,713,711,843,716,815,817,816,791,0,0,0,0,0,0,0,0,0,0,0,0,0,0,0,0,0,0,0,0,0,0,0,768,835,735,834,1073742589,0,0,0,0,0,0,0,0,0,0,0,0,
2147484490,790,0,0,0,0,0,0,0,0,0,792,2147484463,758,740,741,742,743,708,765,0,0,0,0,0,0,0,0,0,0,0,0,0,0,0,0,0,0,0,0,0,0,792,784,1610613554,758,740,766,0,0,0,0,0,0,0,0,0,0,0,0,
3758097226,815,733,791,0,0,0,0,0,0,0,1073742592,740,743,1610613476,791,0,767,742,766,0,0,0,0,0,0,0,0,0,0,0,0,0,0,0,0,0,0,0,0,0,792,818,765,767,741,766,0,0,0,0,0,0,0,0,0,0,0,0,0,
743,709,761,1073742589,0,0,0,0,792,816,733,3221226212,2684355378,784,741,766,0,0,0,0,0,0,0,0,0,0,0,0,0,0,0,0,0,0,0,0,0,0,0,0,0,767,741,766,0,0,0,0,0,0,0,0,0,0,0,0,0,0,0,3221226238,
793,758,740,766,0,0,0,0,1073742592,835,536871730,783,3221226286,765,0,0,0,0,0,0,0,0,0,0,0,0,0,0,0,0,0,0,0,0,0,0,0,0,0,0,0,0,0,0,0,0,0,0,0,0,0,0,0,0,0,0,0,0,0,3221226263,
768,708,1073742614,0,0,0,0,0,767,2147484389,713,761,740,766,0,0,0,0,0,0,0,0,0,0,0,0,0,0,0,0,0,0,0,0,0,0,0,0,0,0,0,0,0,0,0,0,0,0,0,0,0,0,0,0,0,0,0,792,3221226214,3221226213,
833,834,2147484466,791,0,0,0,0,0,0,767,743,765,0,0,0,0,0,0,0,0,0,0,0,0,0,0,0,0,0,0,0,0,0,0,0,0,0,0,0,0,0,0,0,0,0,0,0,0,0,3758097150,3758097149,791,0,3221226238,3221226214,3221226239,767,3221226287,3221226188,
784,2147484390,741,766,0,0,0,0,0,0,0,767,766,0,0,0,0,0,0,0,0,0,0,0,0,0,0,0,0,0,0,0,0,0,0,0,0,0,0,0,0,0,0,0,0,0,0,0,0,0,3758097126,715,3758097200,792,818,3221226180,3221226215,1073742566,784,1073742640,
2147484466,816,791,0,0,0,0,0,0,0,0,0,0,0,0,0,0,0,0,0,0,0,0,0,0,0,0,0,0,0,0,0,0,0,0,0,0,0,0,0,0,0,0,0,0,0,0,0,0,0,3758097151,3758097127,3758097201,768,740,3221226288,3221226289,1610613554,765,0,
712,741,766,0,0,0,0,0,0,0,0,0,0,0,0,0,0,0,0,0,0,0,0,0,0,0,0,0,0,0,0,0,0,0,0,0,0,0,0,0,0,0,0,0,0,0,0,0,0,0,0,3758097126,765,793,1610613476,816,791,767,766,0,
766,0,0,0,0,0,0,0,0,0,0,0,0,0,0,0,0,0,0,0,0,0,0,0,0,0,0,0,0,0,0,0,0,0,0,0,0,0,0,0,0,0,0,0,0,0,0,0,0,0,0,767,809,818,843,835,836,0,0,0,
0,0,0,0,0,0,0,0,0,0,0,0,0,0,0,0,0,0,0,0,0,0,0,0,0,0,0,0,0,0,0,0,0,0,0,0,0,0,0,0,0,0,0,0,0,0,0,0,0,0,0,0,767,2147484390,741,2147484389,766,0,0,0,
0,0,0,0,0,0,0,0,0,0,0,0,0,0,0,0,0,0,0,0,1576,1577,2147485226,1578,1579,0,0,0,0,0,0,0,0,0,0,0,0,1576,1577,2147485224,0,0,0,0,0,0,0,0,0,0,0,0,0,0,0,0,0,0,0,0,
0,0,0,0,0,0,0,0,0,0,0,0,0,0,0,0,0,0,0,0,1603,1604,2147485253,1605,1606,0,0,0,0,0,0,0,0,0,0,0,0,1603,1604,2147485251,0,0,0,0,0,0,0,0,0,0,0,0,0,0,0,0,0,0,0,0,
0,0,0,0,0,0,0,0,0,0,0,0,0,0,0,0,0,0,0,0,1630,1631,2147485280,1632,1633,0,0,0,0,0,0,0,0,0,0,0,0,1630,1631,2147485278,0,0,0,0,0,0,0,0,0,0,0,0,0,0,0,0,0,0,0,0,
0,0,0,0,0,0,0,0,0,0,0,0,0,0,0,0,0,0,0,0,1657,1658,2147485307,1659,1660,0,0,0,0,0,0,0,0,0,0,0,0,1657,1658,2147485305,0,0,0,0,0,0,0,0,0,0,0,0,0,0,0,0,0,0,0,0,
0,0,0,0,0,0,0,0,0,0,0,0,0,0,0,0,0,0,0,0,1684,1685,2147485334,1686,1687,0,0,0,0,0,0,0,0,0,0,0,0,1684,1685,2147485332,0,0,0,0,0,0,0,0,0,0,0,0,0,0,0,0,0,0,0,0,
0,0,0,0,0,0,0,0,0,0,0,0,0,0,0,0,0,0,0,0,0,0,0,0,0,0,0,0,0,0,0,0,0,0,0,0,0,0,0,0,0,0,0,0,0,0,0,0,0,0,0,0,0,0,0,0,0,0,0,0,
0,0,0,0,0,0,0,0,0,0,0,0,0,0,0,0,0,0,0,0,0,0,0,0,0,0,0,0,0,0,0,0,0,0,0,0,0,0,0,0,0,0,0,0,0,0,0,0,0,0,0,0,0,0,0,0,0,0,0,0,
0,0,0,0,0,0,0,0,0,0,0,0,0,0,0,0,0,0,0,0,0,0,0,0,0,0,0,0,0,0,0,0,0,0,0,0,0,0,0,0,0,0,0,0,0,0,0,0,0,0,0,0,0,0,0,0,0,0,0,0,
0,0,0,0,0,0,0,0,0,0,0,0,0,0,0,0,0,0,0,0,0,0,0,0,0,0,0,0,0,0,0,0,0,0,0,0,0,0,0,0,0,0,0,0,0,0,0,0,0,0,0,0,0,0,0,0,0,0,0,0,
0,0,0,0,0,0,0,0,0,0,0,0,0,0,0,0,0,0,0,0,0,0,0,0,0,0,0,0,0,0,0,0,0,0,0,0,0,0,0,0,0,0,0,0,0,0,0,0,0,0,0,0,0,0,0,0,0,0,0,0,
0,0,0,0,0,0,0,0,0,0,0,0,0,0,0,0,0,0,0,0,0,0,0,0,0,0,0,0,0,0,0,0,0,0,0,0,0,0,0,0,0,0,0,0,0,0,0,0,0,0,0,0,0,0,0,0,0,0,0,0,
0,0,0,0,0,0,0,0,0,0,0,0,0,0,0,0,0,0,0,0,0,0,0,0,0,0,0,0,0,0,0,0,0,0,0,0,0,0,0,0,0,0,0,0,0,0,0,0,0,0,0,0,0,0,0,0,0,0,0,0,
0,0,0,0,0,0,0,0,0,0,0,0,0,0,0,0,0,0,0,0,0,0,0,0,0,0,0,0,0,0,0,0,0,0,0,0,0,0,0,0,0,0,0,0,0,0,0,0,0,0,0,0,0,0,0,0,0,0,0,0,
0,0,0,0,0,0,0,0,0,0,0,0,0,0,0,0,0,0,0,0,0,0,0,0,0,0,0,0,0,0,0,0,0,0,0,0,0,0,0,0,0,0,0,0,0,0,0,0,0,0,0,0,0,0,0,0,0,0,0,0,
0,0,0,0,0,0,0,0,0,0,0,0,0,0,0,0,0,0,0,0,0,0,0,0,0,0,0,0,0,0,0,0,0,0,0,0,0,0,0,0,0,0,0,0,0,0,0,0,0,0,0,0,0,0,0,0,0,0,0,0,
791,0,0,0,0,0,0,0,0,0,0,0,0,0,0,0,0,0,0,0,0,0,0,0,0,0,0,0,0,0,0,0,0,0,0,0,0,0,0,0,0,0,0,0,0,0,0,0,0,0,0,0,0,0,0,0,0,0,0,0,
1073742589,792,791,0,0,0,0,0,0,0,0,0,0,0,0,0,0,0,0,0,0,0,0,0,0,0,0,0,0,0,0,0,0,0,0,0,0,0,0,0,0,0,0,0,0,0,0,0,0,0,0,0,0,0,0,0,0,0,0,0,
2147484466,536871730,1073742589,0,0,0,0,0,0,0,0,0,0,0,0,0,0,0,0,0,0,0,0,0,0,0,0,0,0,0,0,0,0,0,0,0,0,0,0,0,0,0,0,0,0,0,0,0,0,0,0,0,0,0,0,0,0,0,0,0,
711,783,765,0,0,0,0,0,0,0,0,0,0,0,0,0,0,0,0,0,0,0,0,0,0,0,0,0,0,0,0,0,0,0,0,0,0,0,0,0,0,0,0,0,0,0,0,0,0,0,0,0,0,0,0,0,0,0,0,0,
759,785,766,0,0,0,0,0,0,0,0,0,0,0,0,0,0,0,0,0,0,0,0,0,0,0,0,0,0,0,0,0,0,0,0,0,0,0,0,0,0,0,0,0,0,0,0,0,0,0,0,0,0,0,0,0,0,0,0,0,
2147484389,766,0,0,0,0,0,0,0,0,0,0,0,0,0,0,0,0,0,0,0,0,0,0,0,0,0,0,0,0,0,0,0,0,0,0,0,0,0,0,0,0,0,0,0,0,0,0,792,816,791,0,0,0,0,0,0,0,0,0,
0,0,0,0,0,0,0,0,0,0,0,0,0,0,0,0,0,0,0,0,0,0,0,0,0,0,0,0,0,0,0,0,0,0,0,0,0,0,0,0,0,0,0,0,0,0,792,817,2147484463,2147484490,2147484466,791,0,0,0,0,0,0,0,0,
0,0,0,0,0,0,0,0,0,0,0,0,0,0,0,0,0,0,0,0,0,0,0,0,0,0,0,0,0,0,0,0,0,0,0,0,0,0,0,0,0,0,0,0,0,0,767,742,743,835,712,766,0,0,0,0,0,0,0,0,
0,0,0,0,0,0,0,0,0,0,0,0,0,0,0,0,0,0,0,0,0,0,0,0,0,0,0,0,0,0,0,0,0,0,0,0,0,0,0,0,0,0,0,0,0,0,0,0,767,741,766,0,0,0,0,0,0,0,0,0,
0,0,0,0,0,0,0,0,0,0,0,792,817,816,791,792,791,0,0,0,0,0,0,0,0,0,0,0,0,0,0,0,0,0,0,0,0,0,0,0,0,0,0,0,0,0,0,0,0,0,0,0,0,0,0,0,0,0,0,0,
0,0,0,0,0,0,0,0,0,0,792,811,834,709,737,2147484463,790,0,0,0,0,0,0,0,0,0,0,0,0,0,0,0,0,0,0,0,0,0,0,792,733,816,791,0,0,0,0,0,0,0,0,0,0,0,0,0,0,0,0,0,
0,0,0,0,0,0,0,0,0,0,1073742592,758,2147484391,763,709,834,2147484466,733,817,791,0,0,0,0,792,817,791,0,0,0,0,0,0,0,0,0,0,0,0,1073742592,758,716,1073742589,0,0,0,0,0,0,0,0,0,0,0,0,0,0,0,0,0,
0,0,0,0,0,0,0,0,0,0,767,741,766,767,808,741,713,761,2684355268,2684355377,0,0,0,792,811,834,815,817,791,0,0,0,0,0,792,816,791,792,791,793,783,835,836,0,0,0,0,0,0,0,0,0,0,0,0,0,0,0,0,0,
0,0,0,0,0,0,0,0,0,0,0,0,0,0,0,0,833,711,740,766,0,0,0,768,759,711,740,1610613554,765,0,0,0,0,0,768,708,2147484466,536871730,1073742589,768,762,742,766,0,0,0,0,0,0,0,0,0,0,0,0,0,0,0,0,0
</data>
 </layer>
 <objectgroup id="5" name="Back">
  <object id="26" name="TileData" x="896" y="240" width="32" height="16">
   <properties>
    <property name="NoFurniture" value="total"/>
    <property name="NoSpawn" value="All"/>
   </properties>
  </object>
  <object id="33" name="TileData" x="496" y="752" width="48" height="16">
   <properties>
    <property name="NoSpawn" value="All"/>
   </properties>
  </object>
  <object id="35" name="TileData" x="544" y="768" width="32" height="16">
   <properties>
    <property name="NoSpawn" value="All"/>
   </properties>
  </object>
  <object id="37" name="TileData" x="368" y="752" width="64" height="16">
   <properties>
    <property name="NoSpawn" value="All"/>
   </properties>
  </object>
  <object id="38" name="TileData" x="160" y="704" width="16" height="16">
   <properties>
    <property name="NoSpawn" value="All"/>
   </properties>
  </object>
  <object id="43" name="TileData" x="176" y="720" width="32" height="16">
   <properties>
    <property name="NoSpawn" value="All"/>
   </properties>
  </object>
  <object id="47" name="TileData" x="96" y="672" width="64" height="16">
   <properties>
    <property name="NoSpawn" value="All"/>
   </properties>
  </object>
  <object id="48" name="TileData" x="48" y="624" width="16" height="16">
   <properties>
    <property name="NoSpawn" value="All"/>
   </properties>
  </object>
  <object id="49" name="TileData" x="32" y="608" width="16" height="16">
   <properties>
    <property name="NoSpawn" value="All"/>
   </properties>
  </object>
  <object id="50" name="TileData" x="16" y="592" width="16" height="16">
   <properties>
    <property name="NoSpawn" value="All"/>
   </properties>
  </object>
  <object id="51" name="TileData" x="320" y="256" width="80" height="16">
   <properties>
    <property name="NoSpawn" value="All"/>
   </properties>
  </object>
  <object id="58" name="TileData" x="400" y="240" width="80" height="16">
   <properties>
    <property name="NoSpawn" value="All"/>
   </properties>
  </object>
  <object id="63" name="TileData" x="480" y="224" width="80" height="16">
   <properties>
    <property name="NoSpawn" value="All"/>
   </properties>
  </object>
  <object id="68" name="TileData" x="560" y="240" width="32" height="16">
   <properties>
    <property name="NoSpawn" value="All"/>
   </properties>
  </object>
  <object id="70" name="TileData" x="592" y="256" width="48" height="16">
   <properties>
    <property name="NoSpawn" value="All"/>
   </properties>
  </object>
  <object id="75" name="TileData" x="672" y="288" width="32" height="16">
   <properties>
    <property name="NoSpawn" value="All"/>
   </properties>
  </object>
  <object id="77" name="TileData" x="704" y="304" width="16" height="16">
   <properties>
    <property name="NoSpawn" value="All"/>
   </properties>
  </object>
  <object id="79" name="TileData" x="288" y="272" width="32" height="16">
   <properties>
    <property name="NoSpawn" value="All"/>
   </properties>
  </object>
  <object id="81" name="TileData" x="256" y="288" width="32" height="16">
   <properties>
    <property name="NoSpawn" value="All"/>
   </properties>
  </object>
  <object id="82" name="TileData" x="208" y="304" width="48" height="16">
   <properties>
    <property name="NoSpawn" value="All"/>
   </properties>
  </object>
  <object id="86" name="TileData" x="752.5" y="512.25" width="48" height="16">
   <properties>
    <property name="NoSpawn" value="All"/>
   </properties>
  </object>
  <object id="88" name="TileData" x="720" y="496" width="32" height="16">
   <properties>
    <property name="NoSpawn" value="All"/>
   </properties>
  </object>
  <object id="89" name="TileData" x="704" y="480" width="16" height="16">
   <properties>
    <property name="NoSpawn" value="All"/>
   </properties>
  </object>
  <object id="91" name="TileData" x="672" y="448" width="32" height="16">
   <properties>
    <property name="NoSpawn" value="All"/>
   </properties>
  </object>
  <object id="95" name="TileData" x="288" y="144" width="64" height="16">
   <properties>
    <property name="NoSpawn" value="All"/>
   </properties>
  </object>
  <object id="97" name="TileData" x="256" y="128" width="32" height="16">
   <properties>
    <property name="NoSpawn" value="All"/>
   </properties>
  </object>
  <object id="111" name="TileData" x="704" y="112" width="48" height="16">
   <properties>
    <property name="NoSpawn" value="All"/>
   </properties>
  </object>
  <object id="113" name="TileData" x="672" y="128" width="32" height="16">
   <properties>
    <property name="NoSpawn" value="All"/>
   </properties>
  </object>
  <object id="117" name="TileData" x="608" y="144" width="64" height="16">
   <properties>
    <property name="NoSpawn" value="All"/>
   </properties>
  </object>
  <object id="118" name="TileData" x="832" y="128" width="64" height="16">
   <properties>
    <property name="NoSpawn" value="All"/>
   </properties>
  </object>
  <object id="124" name="TileData" x="768" y="176" width="48" height="16">
   <properties>
    <property name="NoSpawn" value="All"/>
   </properties>
  </object>
  <object id="168" name="TileData" x="784" y="64" width="16" height="16">
   <properties>
    <property name="NoFurniture" value="total"/>
    <property name="NoSpawn" value="All"/>
   </properties>
  </object>
  <object id="173" name="TileData" x="160" y="144" width="16" height="16">
   <properties>
    <property name="NoSpawn" value="All"/>
   </properties>
  </object>
  <object id="174" name="TileData" x="48" y="176" width="16" height="16">
   <properties>
    <property name="NoSpawn" value="All"/>
   </properties>
  </object>
  <object id="175" name="TileData" x="16" y="128" width="16" height="16">
   <properties>
    <property name="NoSpawn" value="All"/>
   </properties>
  </object>
  <object id="176" name="TileData" x="32" y="144" width="16" height="16">
   <properties>
    <property name="NoSpawn" value="All"/>
   </properties>
  </object>
  <object id="180" name="TileData" x="784" y="144" width="16" height="32">
   <properties>
    <property name="NoSpawn" value="All"/>
   </properties>
  </object>
  <object id="181" name="TileData" x="176" y="688" width="16" height="32">
   <properties>
    <property name="NoSpawn" value="All"/>
   </properties>
  </object>
  <object id="182" name="TileData" x="208" y="704" width="48" height="16">
   <properties>
    <property name="NoSpawn" value="All"/>
   </properties>
  </object>
  <object id="184" name="TileData" x="256" y="736" width="32" height="16">
   <properties>
    <property name="NoSpawn" value="All"/>
   </properties>
  </object>
  <object id="185" name="TileData" x="288" y="752" width="32" height="16">
   <properties>
    <property name="NoSpawn" value="All"/>
   </properties>
  </object>
  <object id="186" name="TileData" x="320" y="768" width="48" height="16">
   <properties>
    <property name="NoSpawn" value="All"/>
   </properties>
  </object>
  <object id="187" name="TileData" x="672" y="720" width="32" height="16">
   <properties>
    <property name="NoSpawn" value="All"/>
   </properties>
  </object>
  <object id="188" name="TileData" x="576" y="752" width="48" height="16">
   <properties>
    <property name="NoSpawn" value="All"/>
   </properties>
  </object>
  <object id="189" name="TileData" x="624" y="736" width="48" height="16">
   <properties>
    <property name="NoSpawn" value="All"/>
   </properties>
  </object>
  <object id="190" name="TileData" x="704" y="688" width="32" height="16">
   <properties>
    <property name="NoSpawn" value="All"/>
   </properties>
  </object>
  <object id="191" name="TileData" x="640" y="272" width="32" height="16">
   <properties>
    <property name="NoSpawn" value="All"/>
   </properties>
  </object>
  <object id="198" name="TileData" x="176" y="112" width="80" height="16">
   <properties>
    <property name="NoSpawn" value="All"/>
   </properties>
  </object>
  <object id="199" name="TileData" x="64" y="192" width="32" height="16">
   <properties>
    <property name="NoSpawn" value="All"/>
   </properties>
  </object>
  <object id="200" name="TileData" x="144" y="160" width="16" height="16">
   <properties>
    <property name="NoSpawn" value="All"/>
   </properties>
  </object>
  <object id="201" name="TileData" x="96" y="176" width="48" height="16">
   <properties>
    <property name="NoSpawn" value="All"/>
   </properties>
  </object>
  <object id="202" name="TileData" x="64" y="208" width="16" height="16">
   <properties>
    <property name="NoSpawn" value="All"/>
   </properties>
  </object>
  <object id="203" name="TileData" x="64" y="288" width="16" height="32">
   <properties>
    <property name="NoSpawn" value="All"/>
   </properties>
  </object>
  <object id="205" name="TileData" x="880" y="224" width="16" height="16">
   <properties>
    <property name="NoSpawn" value="All"/>
   </properties>
  </object>
  <object id="206" name="TileData" x="928" y="224" width="16" height="16">
   <properties>
    <property name="NoSpawn" value="All"/>
   </properties>
  </object>
 </objectgroup>
 <objectgroup id="6" name="Buildings">
  <object id="12" name="TileData" x="880" y="624" width="16" height="16">
   <properties>
    <property name="Action" value="Warp 61 95 Farm"/>
   </properties>
  </object>
  <object id="14" name="TileData" x="896" y="624" width="16" height="16">
   <properties>
    <property name="Action" value="Warp 61 95 Farm"/>
   </properties>
  </object>
  <object id="15" name="TileData" x="880" y="608" width="16" height="16">
   <properties>
    <property name="Action" value="Warp 61 95 Farm"/>
   </properties>
  </object>
  <object id="16" name="TileData" x="864" y="608" width="16" height="16">
   <properties>
    <property name="Action" value="Warp 61 95 Farm"/>
   </properties>
  </object>
  <object id="169" name="TileData" x="800" y="64" width="16" height="16">
   <properties>
    <property name="Action" value="MinecartTransport Default WAFFLE_Cave_Minecart"/>
   </properties>
  </object>
  <object id="170" name="TileData" x="816" y="64" width="16" height="16">
   <properties>
    <property name="Action" value="MinecartTransport Default WAFFLE_Cave_Minecart"/>
   </properties>
  </object>
 </objectgroup>
 <objectgroup id="7" name="Paths"/>
 <objectgroup id="8" name="Front"/>
 <objectgroup id="10" name="AlwaysFront"/>
</map>
