<?xml version="1.0" encoding="UTF-8"?>
<map version="1.5" tiledversion="1.7.2" orientation="orthogonal" renderorder="right-down" compressionlevel="0" width="80" height="45" tilewidth="16" tileheight="16" infinite="0" nextlayerid="21" nextobjectid="763">
 <tileset firstgid="1" name="Paths" tilewidth="16" tileheight="16" tilecount="64" columns="4">
  <image source="paths" width="64" height="256"/>
  <tile id="0">
   <properties>
    <property name="PathType" value="NE"/>
   </properties>
  </tile>
  <tile id="1">
   <properties>
    <property name="PathType" value="SE"/>
   </properties>
  </tile>
  <tile id="2">
   <properties>
    <property name="PathType" value="WS"/>
   </properties>
  </tile>
  <tile id="3">
   <properties>
    <property name="PathType" value="WN"/>
   </properties>
  </tile>
  <tile id="4">
   <properties>
    <property name="PathType" value="Crossroad"/>
   </properties>
  </tile>
  <tile id="7">
   <properties>
    <property name="PathType" value="End"/>
   </properties>
  </tile>
 </tileset>
 <tileset firstgid="65" name="x01 - spring_outdoorsTileSheet" tilewidth="16" tileheight="16" tilecount="1975" columns="25">
  <image source="spring_outdoorsTileSheet" width="400" height="1264"/>
  <tile id="120">
   <properties>
    <property name="NPCBarrier" type="bool" value="true"/>
    <property name="NoFurniture" value="total"/>
    <property name="NoSpawn" value="All"/>
   </properties>
  </tile>
  <tile id="121">
   <properties>
    <property name="NPCBarrier" type="bool" value="true"/>
    <property name="NoFurniture" value="total"/>
    <property name="NoSpawn" value="All"/>
   </properties>
  </tile>
  <tile id="145">
   <properties>
    <property name="NPCBarrier" type="bool" value="true"/>
    <property name="NoFurniture" value="total"/>
    <property name="NoSpawn" value="All"/>
   </properties>
  </tile>
  <tile id="146">
   <properties>
    <property name="NPCBarrier" type="bool" value="true"/>
    <property name="NoFurniture" value="total"/>
    <property name="NoSpawn" value="All"/>
   </properties>
  </tile>
  <tile id="150">
   <properties>
    <property name="Buildable" type="bool" value="true"/>
    <property name="Diggable" type="bool" value="true"/>
    <property name="Type" value="Grass"/>
   </properties>
  </tile>
  <tile id="151">
   <properties>
    <property name="Buildable" type="bool" value="true"/>
    <property name="Diggable" type="bool" value="true"/>
    <property name="Type" value="Grass"/>
   </properties>
   <animation>
    <frame tileid="151" duration="950"/>
    <frame tileid="152" duration="950"/>
   </animation>
  </tile>
  <tile id="152">
   <properties>
    <property name="Buildable" type="bool" value="true"/>
    <property name="Diggable" type="bool" value="true"/>
    <property name="Type" value="Grass"/>
   </properties>
  </tile>
  <tile id="153">
   <properties>
    <property name="Buildable" type="bool" value="true"/>
    <property name="Diggable" type="bool" value="true"/>
    <property name="Type" value="Dirt"/>
   </properties>
  </tile>
  <tile id="156">
   <properties>
    <property name="Buildable" type="bool" value="true"/>
    <property name="Diggable" type="bool" value="true"/>
    <property name="Type" value="Grass"/>
   </properties>
  </tile>
  <tile id="170">
   <properties>
    <property name="NPCBarrier" type="bool" value="true"/>
    <property name="NoFurniture" value="total"/>
    <property name="NoSpawn" value="All"/>
   </properties>
  </tile>
  <tile id="171">
   <properties>
    <property name="NPCBarrier" type="bool" value="true"/>
    <property name="NoFurniture" value="total"/>
    <property name="NoSpawn" value="All"/>
   </properties>
  </tile>
  <tile id="175">
   <properties>
    <property name="Buildable" type="bool" value="true"/>
    <property name="Diggable" type="bool" value="true"/>
    <property name="Type" value="Grass"/>
   </properties>
  </tile>
  <tile id="176">
   <properties>
    <property name="Buildable" type="bool" value="true"/>
    <property name="Diggable" type="bool" value="true"/>
    <property name="Type" value="Dirt"/>
   </properties>
  </tile>
  <tile id="177">
   <properties>
    <property name="Buildable" type="bool" value="true"/>
    <property name="Diggable" type="bool" value="true"/>
    <property name="Type" value="Grass"/>
   </properties>
  </tile>
  <tile id="178">
   <properties>
    <property name="Buildable" type="bool" value="true"/>
    <property name="Diggable" type="bool" value="true"/>
    <property name="Type" value="Grass"/>
   </properties>
  </tile>
  <tile id="179">
   <properties>
    <property name="Buildable" type="bool" value="true"/>
    <property name="Diggable" type="bool" value="true"/>
    <property name="Type" value="Grass"/>
   </properties>
  </tile>
  <tile id="180">
   <properties>
    <property name="Buildable" type="bool" value="true"/>
    <property name="Diggable" type="bool" value="true"/>
    <property name="Type" value="Grass"/>
   </properties>
  </tile>
  <tile id="181">
   <properties>
    <property name="Buildable" type="bool" value="true"/>
    <property name="Diggable" type="bool" value="true"/>
    <property name="Type" value="Dirt"/>
   </properties>
  </tile>
  <tile id="182">
   <properties>
    <property name="Buildable" type="bool" value="true"/>
    <property name="Diggable" type="bool" value="true"/>
    <property name="Type" value="Dirt"/>
   </properties>
  </tile>
  <tile id="183">
   <properties>
    <property name="NoSpawn" value="All"/>
    <property name="Type" value="Dirt"/>
   </properties>
   <animation>
    <frame tileid="183" duration="1000"/>
    <frame tileid="1182" duration="1000"/>
   </animation>
  </tile>
  <tile id="184">
   <properties>
    <property name="NoSpawn" value="All"/>
    <property name="Type" value="Dirt"/>
   </properties>
   <animation>
    <frame tileid="184" duration="1000"/>
    <frame tileid="1183" duration="1000"/>
   </animation>
  </tile>
  <tile id="185">
   <properties>
    <property name="NoSpawn" value="All"/>
    <property name="Type" value="Dirt"/>
   </properties>
   <animation>
    <frame tileid="185" duration="1000"/>
    <frame tileid="1184" duration="1000"/>
   </animation>
  </tile>
  <tile id="200">
   <properties>
    <property name="Buildable" type="bool" value="true"/>
    <property name="Diggable" type="bool" value="true"/>
    <property name="Type" value="Grass"/>
   </properties>
  </tile>
  <tile id="201">
   <properties>
    <property name="Buildable" type="bool" value="true"/>
    <property name="Diggable" type="bool" value="true"/>
    <property name="Type" value="Grass"/>
   </properties>
  </tile>
  <tile id="202">
   <properties>
    <property name="Buildable" type="bool" value="true"/>
    <property name="Diggable" type="bool" value="true"/>
    <property name="Type" value="Grass"/>
   </properties>
  </tile>
  <tile id="203">
   <properties>
    <property name="Buildable" type="bool" value="true"/>
    <property name="Diggable" type="bool" value="true"/>
    <property name="Type" value="Grass"/>
   </properties>
  </tile>
  <tile id="204">
   <properties>
    <property name="Buildable" type="bool" value="true"/>
    <property name="Diggable" type="bool" value="true"/>
    <property name="Type" value="Grass"/>
   </properties>
  </tile>
  <tile id="205">
   <properties>
    <property name="Buildable" type="bool" value="true"/>
    <property name="Diggable" type="bool" value="true"/>
    <property name="Type" value="Grass"/>
   </properties>
  </tile>
  <tile id="206">
   <properties>
    <property name="Buildable" type="bool" value="true"/>
    <property name="Diggable" type="bool" value="true"/>
    <property name="Type" value="Dirt"/>
   </properties>
  </tile>
  <tile id="207">
   <properties>
    <property name="Buildable" type="bool" value="true"/>
    <property name="Diggable" type="bool" value="true"/>
    <property name="Type" value="Dirt"/>
   </properties>
  </tile>
  <tile id="208">
   <properties>
    <property name="NoSpawn" value="All"/>
    <property name="Type" value="Dirt"/>
   </properties>
   <animation>
    <frame tileid="208" duration="1000"/>
    <frame tileid="1207" duration="1000"/>
   </animation>
  </tile>
  <tile id="209">
   <properties>
    <property name="Water" value="T"/>
   </properties>
   <animation>
    <frame tileid="209" duration="1000"/>
    <frame tileid="1208" duration="1000"/>
   </animation>
  </tile>
  <tile id="210">
   <properties>
    <property name="NoSpawn" value="All"/>
    <property name="Type" value="Dirt"/>
   </properties>
   <animation>
    <frame tileid="210" duration="1000"/>
    <frame tileid="1209" duration="1000"/>
   </animation>
  </tile>
  <tile id="211">
   <properties>
    <property name="NoSpawn" value="All"/>
    <property name="Type" value="Dirt"/>
   </properties>
   <animation>
    <frame tileid="211" duration="1000"/>
    <frame tileid="1210" duration="1000"/>
   </animation>
  </tile>
  <tile id="212">
   <properties>
    <property name="NoSpawn" value="All"/>
    <property name="Type" value="Dirt"/>
   </properties>
  </tile>
  <tile id="213">
   <properties>
    <property name="NoSpawn" value="All"/>
    <property name="Type" value="Dirt"/>
   </properties>
  </tile>
  <tile id="217">
   <properties>
    <property name="NoFurniture" value="total"/>
    <property name="NoSpawn" value="All"/>
   </properties>
  </tile>
  <tile id="225">
   <properties>
    <property name="Buildable" type="bool" value="true"/>
    <property name="Diggable" type="bool" value="true"/>
    <property name="Type" value="Grass"/>
   </properties>
  </tile>
  <tile id="226">
   <properties>
    <property name="Buildable" type="bool" value="true"/>
    <property name="Diggable" type="bool" value="true"/>
    <property name="Type" value="Dirt"/>
   </properties>
  </tile>
  <tile id="227">
   <properties>
    <property name="Buildable" type="bool" value="true"/>
    <property name="Diggable" type="bool" value="true"/>
    <property name="Type" value="Dirt"/>
   </properties>
  </tile>
  <tile id="228">
   <properties>
    <property name="Buildable" type="bool" value="true"/>
    <property name="Diggable" type="bool" value="true"/>
    <property name="Type" value="Grass"/>
   </properties>
  </tile>
  <tile id="229">
   <properties>
    <property name="Buildable" type="bool" value="true"/>
    <property name="Diggable" type="bool" value="true"/>
    <property name="Type" value="Grass"/>
   </properties>
  </tile>
  <tile id="230">
   <properties>
    <property name="Buildable" type="bool" value="true"/>
    <property name="Diggable" type="bool" value="true"/>
    <property name="Type" value="Grass"/>
   </properties>
  </tile>
  <tile id="231">
   <properties>
    <property name="Buildable" type="bool" value="true"/>
    <property name="Diggable" type="bool" value="true"/>
    <property name="Type" value="Dirt"/>
   </properties>
  </tile>
  <tile id="233">
   <properties>
    <property name="NoSpawn" value="All"/>
    <property name="Type" value="Dirt"/>
   </properties>
   <animation>
    <frame tileid="233" duration="1000"/>
    <frame tileid="1232" duration="1000"/>
   </animation>
  </tile>
  <tile id="234">
   <properties>
    <property name="Water" value="T"/>
   </properties>
  </tile>
  <tile id="235">
   <properties>
    <property name="NoSpawn" value="All"/>
    <property name="Type" value="Dirt"/>
   </properties>
   <animation>
    <frame tileid="235" duration="1000"/>
    <frame tileid="1290" duration="1000"/>
   </animation>
  </tile>
  <tile id="237">
   <properties>
    <property name="NoSpawn" value="All"/>
    <property name="Type" value="Dirt"/>
   </properties>
   <animation>
    <frame tileid="237" duration="1000"/>
    <frame tileid="1291" duration="1000"/>
   </animation>
  </tile>
  <tile id="238">
   <properties>
    <property name="NoSpawn" value="All"/>
    <property name="Type" value="Dirt"/>
   </properties>
   <animation>
    <frame tileid="238" duration="1000"/>
    <frame tileid="1292" duration="1000"/>
   </animation>
  </tile>
  <tile id="250">
   <properties>
    <property name="Buildable" type="bool" value="true"/>
    <property name="Diggable" type="bool" value="true"/>
    <property name="Type" value="Grass"/>
   </properties>
  </tile>
  <tile id="251">
   <properties>
    <property name="Buildable" type="bool" value="true"/>
    <property name="Diggable" type="bool" value="true"/>
    <property name="Type" value="Grass"/>
   </properties>
  </tile>
  <tile id="252">
   <properties>
    <property name="Buildable" type="bool" value="true"/>
    <property name="Diggable" type="bool" value="true"/>
    <property name="Type" value="Grass"/>
   </properties>
  </tile>
  <tile id="253">
   <properties>
    <property name="Buildable" type="bool" value="true"/>
    <property name="Diggable" type="bool" value="true"/>
    <property name="Type" value="Grass"/>
   </properties>
  </tile>
  <tile id="254">
   <properties>
    <property name="Buildable" type="bool" value="true"/>
    <property name="Diggable" type="bool" value="true"/>
    <property name="Type" value="Grass"/>
   </properties>
  </tile>
  <tile id="255">
   <properties>
    <property name="Buildable" type="bool" value="true"/>
    <property name="Diggable" type="bool" value="true"/>
    <property name="Type" value="Grass"/>
   </properties>
  </tile>
  <tile id="256">
   <properties>
    <property name="Buildable" type="bool" value="true"/>
    <property name="Diggable" type="bool" value="true"/>
    <property name="Type" value="Grass"/>
   </properties>
  </tile>
  <tile id="258">
   <properties>
    <property name="NoSpawn" value="All"/>
    <property name="Type" value="Dirt"/>
   </properties>
   <animation>
    <frame tileid="258" duration="1000"/>
    <frame tileid="1257" duration="1000"/>
   </animation>
  </tile>
  <tile id="259">
   <properties>
    <property name="NoSpawn" value="All"/>
    <property name="Type" value="Dirt"/>
   </properties>
  </tile>
  <tile id="260">
   <properties>
    <property name="NoSpawn" value="All"/>
    <property name="Type" value="Dirt"/>
   </properties>
   <animation>
    <frame tileid="260" duration="1000"/>
    <frame tileid="1315" duration="1000"/>
   </animation>
  </tile>
  <tile id="261">
   <properties>
    <property name="Buildable" type="bool" value="true"/>
    <property name="Diggable" type="bool" value="true"/>
    <property name="Type" value="Grass"/>
   </properties>
  </tile>
  <tile id="275">
   <properties>
    <property name="Buildable" type="bool" value="true"/>
    <property name="Diggable" type="bool" value="true"/>
    <property name="Type" value="Grass"/>
   </properties>
  </tile>
  <tile id="276">
   <properties>
    <property name="Buildable" type="bool" value="true"/>
    <property name="Diggable" type="bool" value="true"/>
    <property name="Type" value="Grass"/>
   </properties>
  </tile>
  <tile id="277">
   <properties>
    <property name="Buildable" type="bool" value="true"/>
    <property name="Diggable" type="bool" value="true"/>
    <property name="Type" value="Grass"/>
   </properties>
  </tile>
  <tile id="278">
   <properties>
    <property name="Buildable" type="bool" value="true"/>
    <property name="Diggable" type="bool" value="true"/>
    <property name="Type" value="Grass"/>
   </properties>
  </tile>
  <tile id="279">
   <properties>
    <property name="Buildable" type="bool" value="true"/>
    <property name="Diggable" type="bool" value="true"/>
    <property name="Type" value="Grass"/>
   </properties>
  </tile>
  <tile id="281">
   <properties>
    <property name="Buildable" type="bool" value="true"/>
    <property name="Diggable" type="bool" value="true"/>
    <property name="Type" value="Grass"/>
   </properties>
  </tile>
  <tile id="283">
   <properties>
    <property name="NoSpawn" value="All"/>
    <property name="Type" value="Dirt"/>
   </properties>
   <animation>
    <frame tileid="283" duration="1000"/>
    <frame tileid="1312" duration="1000"/>
   </animation>
  </tile>
  <tile id="284">
   <properties>
    <property name="NoSpawn" value="All"/>
    <property name="Type" value="Dirt"/>
   </properties>
   <animation>
    <frame tileid="284" duration="1000"/>
    <frame tileid="1313" duration="1000"/>
   </animation>
  </tile>
  <tile id="286">
   <properties>
    <property name="Buildable" type="bool" value="true"/>
    <property name="Diggable" type="bool" value="true"/>
    <property name="Type" value="Grass"/>
   </properties>
  </tile>
  <tile id="288">
   <properties>
    <property name="NoSpawn" value="All"/>
    <property name="Type" value="Wood"/>
   </properties>
  </tile>
  <tile id="289">
   <properties>
    <property name="NoSpawn" value="All"/>
    <property name="Type" value="Wood"/>
   </properties>
  </tile>
  <tile id="290">
   <properties>
    <property name="NoSpawn" value="All"/>
    <property name="Type" value="Stone"/>
   </properties>
  </tile>
  <tile id="291">
   <properties>
    <property name="Diggable" type="bool" value="true"/>
    <property name="Type" value="Grass"/>
   </properties>
  </tile>
  <tile id="294">
   <properties>
    <property name="Diggable" type="bool" value="true"/>
    <property name="Type" value="Grass"/>
   </properties>
  </tile>
  <tile id="295">
   <properties>
    <property name="NoSpawn" value="All"/>
    <property name="Type" value="Stone"/>
   </properties>
  </tile>
  <tile id="296">
   <properties>
    <property name="NoSpawn" value="All"/>
    <property name="Type" value="Grass"/>
   </properties>
  </tile>
  <tile id="297">
   <properties>
    <property name="NoSpawn" value="All"/>
    <property name="Type" value="Grass"/>
   </properties>
  </tile>
  <tile id="300">
   <properties>
    <property name="Buildable" type="bool" value="true"/>
    <property name="Diggable" type="bool" value="true"/>
    <property name="Type" value="Grass"/>
   </properties>
  </tile>
  <tile id="301">
   <properties>
    <property name="Buildable" type="bool" value="true"/>
    <property name="Diggable" type="bool" value="true"/>
    <property name="Type" value="Grass"/>
   </properties>
  </tile>
  <tile id="302">
   <properties>
    <property name="Buildable" type="bool" value="true"/>
    <property name="Diggable" type="bool" value="true"/>
    <property name="Type" value="Grass"/>
   </properties>
  </tile>
  <tile id="303">
   <properties>
    <property name="Buildable" type="bool" value="true"/>
    <property name="Diggable" type="bool" value="true"/>
    <property name="Type" value="Grass"/>
   </properties>
  </tile>
  <tile id="304">
   <properties>
    <property name="Buildable" type="bool" value="true"/>
    <property name="Diggable" type="bool" value="true"/>
    <property name="Type" value="Grass"/>
   </properties>
  </tile>
  <tile id="305">
   <properties>
    <property name="Buildable" type="bool" value="true"/>
    <property name="Diggable" type="bool" value="true"/>
    <property name="Type" value="Grass"/>
   </properties>
  </tile>
  <tile id="306">
   <properties>
    <property name="Buildable" type="bool" value="true"/>
    <property name="Diggable" type="bool" value="true"/>
    <property name="Type" value="Grass"/>
   </properties>
  </tile>
  <tile id="308">
   <properties>
    <property name="NoSpawn" value="All"/>
    <property name="Type" value="Dirt"/>
   </properties>
   <animation>
    <frame tileid="308" duration="1000"/>
    <frame tileid="1316" duration="1000"/>
   </animation>
  </tile>
  <tile id="309">
   <properties>
    <property name="NoSpawn" value="All"/>
    <property name="Type" value="Dirt"/>
   </properties>
   <animation>
    <frame tileid="309" duration="1000"/>
    <frame tileid="1317" duration="1000"/>
   </animation>
  </tile>
  <tile id="311">
   <properties>
    <property name="Buildable" type="bool" value="true"/>
    <property name="Diggable" type="bool" value="true"/>
    <property name="Type" value="Grass"/>
   </properties>
  </tile>
  <tile id="312">
   <properties>
    <property name="NoSpawn" value="All"/>
    <property name="Type" value="Wood"/>
   </properties>
  </tile>
  <tile id="313">
   <properties>
    <property name="NoSpawn" value="All"/>
    <property name="Type" value="Wood"/>
   </properties>
  </tile>
  <tile id="314">
   <properties>
    <property name="NoSpawn" value="All"/>
    <property name="Type" value="Wood"/>
   </properties>
  </tile>
  <tile id="315">
   <properties>
    <property name="NoSpawn" value="All"/>
    <property name="Type" value="Stone"/>
   </properties>
  </tile>
  <tile id="316">
   <properties>
    <property name="NoSpawn" value="All"/>
    <property name="Type" value="Grass"/>
   </properties>
  </tile>
  <tile id="319">
   <properties>
    <property name="NoSpawn" value="All"/>
    <property name="Type" value="Grass"/>
   </properties>
  </tile>
  <tile id="320">
   <properties>
    <property name="NoSpawn" value="All"/>
    <property name="Type" value="Stone"/>
   </properties>
  </tile>
  <tile id="321">
   <properties>
    <property name="NoSpawn" value="All"/>
    <property name="Type" value="Stone"/>
   </properties>
  </tile>
  <tile id="322">
   <properties>
    <property name="NoSpawn" value="All"/>
    <property name="Type" value="Wood"/>
   </properties>
  </tile>
  <tile id="324">
   <properties>
    <property name="NoSpawn" value="All"/>
    <property name="Type" value="Stone"/>
   </properties>
  </tile>
  <tile id="325">
   <properties>
    <property name="Buildable" type="bool" value="true"/>
    <property name="Diggable" type="bool" value="true"/>
    <property name="Type" value="Grass"/>
   </properties>
  </tile>
  <tile id="326">
   <properties>
    <property name="Buildable" type="bool" value="true"/>
    <property name="Diggable" type="bool" value="true"/>
    <property name="Type" value="Grass"/>
   </properties>
  </tile>
  <tile id="327">
   <properties>
    <property name="Buildable" type="bool" value="true"/>
    <property name="Diggable" type="bool" value="true"/>
    <property name="Type" value="Grass"/>
   </properties>
  </tile>
  <tile id="328">
   <properties>
    <property name="Buildable" type="bool" value="true"/>
    <property name="Diggable" type="bool" value="true"/>
    <property name="Type" value="Grass"/>
   </properties>
  </tile>
  <tile id="329">
   <properties>
    <property name="Buildable" type="bool" value="true"/>
    <property name="Diggable" type="bool" value="true"/>
    <property name="Type" value="Grass"/>
   </properties>
  </tile>
  <tile id="331">
   <properties>
    <property name="Buildable" type="bool" value="true"/>
    <property name="Diggable" type="bool" value="true"/>
    <property name="Type" value="Grass"/>
   </properties>
  </tile>
  <tile id="332">
   <properties>
    <property name="Buildable" type="bool" value="true"/>
    <property name="Diggable" type="bool" value="true"/>
    <property name="Type" value="Grass"/>
   </properties>
  </tile>
  <tile id="337">
   <properties>
    <property name="NoSpawn" value="All"/>
    <property name="Type" value="Wood"/>
   </properties>
  </tile>
  <tile id="338">
   <properties>
    <property name="NoSpawn" value="All"/>
    <property name="Type" value="Wood"/>
   </properties>
  </tile>
  <tile id="339">
   <properties>
    <property name="NoSpawn" value="All"/>
    <property name="Type" value="Wood"/>
   </properties>
  </tile>
  <tile id="340">
   <properties>
    <property name="NoSpawn" value="All"/>
    <property name="Type" value="Stone"/>
   </properties>
  </tile>
  <tile id="341">
   <properties>
    <property name="NoSpawn" value="All"/>
    <property name="Type" value="Grass"/>
   </properties>
  </tile>
  <tile id="342">
   <properties>
    <property name="NoSpawn" value="All"/>
    <property name="Type" value="Grass"/>
   </properties>
  </tile>
  <tile id="344">
   <properties>
    <property name="NoSpawn" value="All"/>
    <property name="Type" value="Grass"/>
   </properties>
  </tile>
  <tile id="345">
   <properties>
    <property name="NoSpawn" value="All"/>
    <property name="Type" value="Stone"/>
   </properties>
  </tile>
  <tile id="346">
   <properties>
    <property name="NoSpawn" value="All"/>
    <property name="Type" value="Stone"/>
   </properties>
  </tile>
  <tile id="347">
   <properties>
    <property name="NoSpawn" value="All"/>
    <property name="Type" value="Wood"/>
   </properties>
  </tile>
  <tile id="349">
   <properties>
    <property name="NoSpawn" value="All"/>
    <property name="Type" value="Stone"/>
   </properties>
  </tile>
  <tile id="350">
   <properties>
    <property name="Buildable" type="bool" value="true"/>
    <property name="Diggable" type="bool" value="true"/>
    <property name="Type" value="Grass"/>
   </properties>
  </tile>
  <tile id="351">
   <properties>
    <property name="Buildable" type="bool" value="true"/>
    <property name="Diggable" type="bool" value="true"/>
    <property name="Type" value="Grass"/>
   </properties>
  </tile>
  <tile id="352">
   <properties>
    <property name="Buildable" type="bool" value="true"/>
    <property name="Diggable" type="bool" value="true"/>
    <property name="Type" value="Grass"/>
   </properties>
  </tile>
  <tile id="353">
   <properties>
    <property name="Buildable" type="bool" value="true"/>
    <property name="Diggable" type="bool" value="true"/>
    <property name="Type" value="Grass"/>
   </properties>
  </tile>
  <tile id="354">
   <properties>
    <property name="Buildable" type="bool" value="true"/>
    <property name="Diggable" type="bool" value="true"/>
    <property name="Type" value="Grass"/>
   </properties>
  </tile>
  <tile id="355">
   <properties>
    <property name="Buildable" type="bool" value="true"/>
    <property name="Diggable" type="bool" value="true"/>
    <property name="Type" value="Grass"/>
   </properties>
  </tile>
  <tile id="356">
   <properties>
    <property name="Buildable" type="bool" value="true"/>
    <property name="Diggable" type="bool" value="true"/>
    <property name="Type" value="Grass"/>
   </properties>
  </tile>
  <tile id="357">
   <properties>
    <property name="Buildable" type="bool" value="true"/>
    <property name="Diggable" type="bool" value="true"/>
    <property name="Type" value="Grass"/>
   </properties>
  </tile>
  <tile id="364">
   <properties>
    <property name="NoSpawn" value="All"/>
    <property name="Type" value="Grass"/>
   </properties>
  </tile>
  <tile id="365">
   <properties>
    <property name="NoSpawn" value="All"/>
    <property name="Type" value="Stone"/>
   </properties>
  </tile>
  <tile id="366">
   <properties>
    <property name="NoSpawn" value="All"/>
    <property name="Type" value="Grass"/>
   </properties>
  </tile>
  <tile id="368">
   <properties>
    <property name="NoSpawn" value="All"/>
    <property name="Type" value="Grass"/>
   </properties>
  </tile>
  <tile id="369">
   <properties>
    <property name="NoSpawn" value="All"/>
    <property name="Type" value="Grass"/>
   </properties>
  </tile>
  <tile id="370">
   <properties>
    <property name="NoSpawn" value="All"/>
    <property name="Type" value="Stone"/>
   </properties>
  </tile>
  <tile id="371">
   <properties>
    <property name="NoSpawn" value="All"/>
    <property name="Type" value="Stone"/>
   </properties>
  </tile>
  <tile id="372">
   <properties>
    <property name="NoSpawn" value="All"/>
    <property name="Type" value="Stone"/>
   </properties>
  </tile>
  <tile id="373">
   <properties>
    <property name="NoSpawn" value="All"/>
    <property name="Type" value="Stone"/>
   </properties>
  </tile>
  <tile id="374">
   <properties>
    <property name="NoSpawn" value="All"/>
    <property name="Type" value="Stone"/>
   </properties>
  </tile>
  <tile id="375">
   <properties>
    <property name="Buildable" type="bool" value="true"/>
    <property name="Diggable" type="bool" value="true"/>
    <property name="Type" value="Grass"/>
   </properties>
  </tile>
  <tile id="376">
   <properties>
    <property name="Buildable" type="bool" value="true"/>
    <property name="Diggable" type="bool" value="true"/>
    <property name="Type" value="Grass"/>
   </properties>
  </tile>
  <tile id="377">
   <properties>
    <property name="Buildable" type="bool" value="true"/>
    <property name="Diggable" type="bool" value="true"/>
    <property name="Type" value="Grass"/>
   </properties>
  </tile>
  <tile id="378">
   <properties>
    <property name="Buildable" type="bool" value="true"/>
    <property name="Diggable" type="bool" value="true"/>
    <property name="Type" value="Grass"/>
   </properties>
  </tile>
  <tile id="379">
   <properties>
    <property name="Buildable" type="bool" value="true"/>
    <property name="Diggable" type="bool" value="true"/>
    <property name="Type" value="Grass"/>
   </properties>
  </tile>
  <tile id="380">
   <properties>
    <property name="Buildable" type="bool" value="true"/>
    <property name="Diggable" type="bool" value="true"/>
    <property name="Type" value="Grass"/>
   </properties>
  </tile>
  <tile id="381">
   <properties>
    <property name="Buildable" type="bool" value="true"/>
    <property name="Diggable" type="bool" value="true"/>
    <property name="Type" value="Grass"/>
   </properties>
  </tile>
  <tile id="382">
   <properties>
    <property name="Buildable" type="bool" value="true"/>
    <property name="Diggable" type="bool" value="true"/>
    <property name="Type" value="Grass"/>
   </properties>
  </tile>
  <tile id="389">
   <properties>
    <property name="NoSpawn" value="All"/>
    <property name="Type" value="Grass"/>
   </properties>
  </tile>
  <tile id="390">
   <properties>
    <property name="NoSpawn" value="All"/>
    <property name="Type" value="Grass"/>
   </properties>
  </tile>
  <tile id="391">
   <properties>
    <property name="NoSpawn" value="All"/>
    <property name="Type" value="Grass"/>
   </properties>
  </tile>
  <tile id="394">
   <properties>
    <property name="NoSpawn" value="All"/>
    <property name="Type" value="Grass"/>
   </properties>
  </tile>
  <tile id="396">
   <properties>
    <property name="NoSpawn" value="All"/>
    <property name="Type" value="Stone"/>
   </properties>
  </tile>
  <tile id="397">
   <properties>
    <property name="NoSpawn" value="All"/>
    <property name="Type" value="Wood"/>
   </properties>
  </tile>
  <tile id="398">
   <properties>
    <property name="NoSpawn" value="All"/>
    <property name="Type" value="Stone"/>
   </properties>
  </tile>
  <tile id="399">
   <properties>
    <property name="NoSpawn" value="All"/>
    <property name="Type" value="Stone"/>
   </properties>
  </tile>
  <tile id="400">
   <properties>
    <property name="Buildable" type="bool" value="true"/>
    <property name="Diggable" type="bool" value="true"/>
    <property name="Type" value="Grass"/>
   </properties>
  </tile>
  <tile id="401">
   <properties>
    <property name="Buildable" type="bool" value="true"/>
    <property name="Diggable" type="bool" value="true"/>
    <property name="Type" value="Grass"/>
   </properties>
  </tile>
  <tile id="402">
   <properties>
    <property name="Buildable" type="bool" value="true"/>
    <property name="Diggable" type="bool" value="true"/>
    <property name="Type" value="Grass"/>
   </properties>
  </tile>
  <tile id="403">
   <properties>
    <property name="Buildable" type="bool" value="true"/>
    <property name="Diggable" type="bool" value="true"/>
    <property name="Type" value="Grass"/>
   </properties>
  </tile>
  <tile id="404">
   <properties>
    <property name="Buildable" type="bool" value="true"/>
    <property name="Diggable" type="bool" value="true"/>
    <property name="Type" value="Grass"/>
   </properties>
  </tile>
  <tile id="405">
   <properties>
    <property name="Buildable" type="bool" value="true"/>
    <property name="Diggable" type="bool" value="true"/>
    <property name="Type" value="Grass"/>
   </properties>
  </tile>
  <tile id="406">
   <properties>
    <property name="Buildable" type="bool" value="true"/>
    <property name="Diggable" type="bool" value="true"/>
    <property name="Type" value="Grass"/>
   </properties>
  </tile>
  <tile id="407">
   <properties>
    <property name="Buildable" type="bool" value="true"/>
    <property name="Diggable" type="bool" value="true"/>
    <property name="Type" value="Grass"/>
   </properties>
  </tile>
  <tile id="412">
   <properties>
    <property name="Diggable" type="bool" value="true"/>
    <property name="Type" value="Grass"/>
   </properties>
  </tile>
  <tile id="413">
   <properties>
    <property name="NoSpawn" value="All"/>
    <property name="Type" value="Grass"/>
   </properties>
  </tile>
  <tile id="414">
   <properties>
    <property name="NoSpawn" value="All"/>
    <property name="Type" value="Grass"/>
   </properties>
  </tile>
  <tile id="415">
   <properties>
    <property name="Diggable" type="bool" value="true"/>
    <property name="Type" value="Grass"/>
   </properties>
  </tile>
  <tile id="416">
   <properties>
    <property name="NoSpawn" value="All"/>
    <property name="Type" value="Grass"/>
   </properties>
  </tile>
  <tile id="419">
   <properties>
    <property name="NoSpawn" value="All"/>
    <property name="Type" value="Grass"/>
   </properties>
  </tile>
  <tile id="420">
   <properties>
    <property name="Buildable" type="bool" value="true"/>
    <property name="Diggable" type="bool" value="true"/>
    <property name="Type" value="Grass"/>
   </properties>
  </tile>
  <tile id="421">
   <properties>
    <property name="Buildable" type="bool" value="true"/>
    <property name="Diggable" type="bool" value="true"/>
    <property name="Type" value="Grass"/>
   </properties>
  </tile>
  <tile id="422">
   <properties>
    <property name="Buildable" type="bool" value="true"/>
    <property name="Diggable" type="bool" value="true"/>
    <property name="Type" value="Grass"/>
   </properties>
  </tile>
  <tile id="423">
   <properties>
    <property name="Buildable" type="bool" value="true"/>
    <property name="Diggable" type="bool" value="true"/>
    <property name="Type" value="Grass"/>
   </properties>
  </tile>
  <tile id="433">
   <properties>
    <property name="Buildable" type="bool" value="true"/>
    <property name="Diggable" value="T"/>
    <property name="Type" value="Dirt"/>
   </properties>
  </tile>
  <tile id="436">
   <properties>
    <property name="Type" value="Wood"/>
   </properties>
  </tile>
  <tile id="437">
   <properties>
    <property name="NoSpawn" value="All"/>
    <property name="Type" value="Grass"/>
   </properties>
  </tile>
  <tile id="438">
   <properties>
    <property name="NoSpawn" value="All"/>
    <property name="Type" value="Grass"/>
   </properties>
  </tile>
  <tile id="439">
   <properties>
    <property name="NoSpawn" value="All"/>
    <property name="Type" value="Grass"/>
   </properties>
  </tile>
  <tile id="441">
   <properties>
    <property name="NoSpawn" value="All"/>
    <property name="Type" value="Grass"/>
   </properties>
  </tile>
  <tile id="444">
   <properties>
    <property name="NoSpawn" value="All"/>
    <property name="Type" value="Grass"/>
   </properties>
  </tile>
  <tile id="445">
   <properties>
    <property name="NoSpawn" value="All"/>
    <property name="Type" value="Stone"/>
   </properties>
  </tile>
  <tile id="446">
   <properties>
    <property name="NoSpawn" value="All"/>
    <property name="Type" value="Stone"/>
   </properties>
  </tile>
  <tile id="447">
   <properties>
    <property name="NoSpawn" value="All"/>
    <property name="Type" value="Stone"/>
   </properties>
  </tile>
  <tile id="448">
   <properties>
    <property name="NoSpawn" value="All"/>
    <property name="Type" value="Stone"/>
   </properties>
  </tile>
  <tile id="449">
   <properties>
    <property name="Buildable" type="bool" value="true"/>
    <property name="Diggable" type="bool" value="true"/>
    <property name="Type" value="Grass"/>
   </properties>
  </tile>
  <tile id="456">
   <properties>
    <property name="Buildable" type="bool" value="true"/>
    <property name="Type" value="Dirt"/>
   </properties>
  </tile>
  <tile id="458">
   <properties>
    <property name="NoSpawn" value="All"/>
    <property name="Type" value="Wood"/>
   </properties>
  </tile>
  <tile id="459">
   <properties>
    <property name="NoSpawn" value="All"/>
    <property name="Type" value="Wood"/>
   </properties>
  </tile>
  <tile id="460">
   <properties>
    <property name="NoSpawn" type="bool" value="true"/>
   </properties>
  </tile>
  <tile id="463">
   <properties>
    <property name="Buildable" type="bool" value="true"/>
    <property name="Diggable" type="bool" value="true"/>
    <property name="Type" value="Dirt"/>
   </properties>
  </tile>
  <tile id="466">
   <properties>
    <property name="NoSpawn" value="All"/>
    <property name="Type" value="Stone"/>
   </properties>
  </tile>
  <tile id="467">
   <properties>
    <property name="NoSpawn" value="All"/>
    <property name="Type" value="Stone"/>
   </properties>
  </tile>
  <tile id="468">
   <properties>
    <property name="NoSpawn" value="All"/>
    <property name="Type" value="Stone"/>
   </properties>
  </tile>
  <tile id="469">
   <properties>
    <property name="NoSpawn" value="All"/>
    <property name="Type" value="Stone"/>
   </properties>
  </tile>
  <tile id="470">
   <properties>
    <property name="NoSpawn" value="All"/>
    <property name="Type" value="Grass"/>
   </properties>
  </tile>
  <tile id="471">
   <properties>
    <property name="Buildable" type="bool" value="true"/>
    <property name="Diggable" type="bool" value="true"/>
    <property name="Type" value="Dirt"/>
   </properties>
  </tile>
  <tile id="472">
   <properties>
    <property name="Buildable" type="bool" value="true"/>
    <property name="Diggable" type="bool" value="true"/>
    <property name="Type" value="Dirt"/>
   </properties>
  </tile>
  <tile id="473">
   <properties>
    <property name="Buildable" type="bool" value="true"/>
    <property name="Diggable" type="bool" value="true"/>
    <property name="Type" value="Dirt"/>
   </properties>
  </tile>
  <tile id="474">
   <properties>
    <property name="Buildable" type="bool" value="true"/>
    <property name="Type" value="Grass"/>
   </properties>
  </tile>
  <tile id="480">
   <properties>
    <property name="Buildable" type="bool" value="true"/>
    <property name="Type" value="Dirt"/>
   </properties>
  </tile>
  <tile id="481">
   <properties>
    <property name="Buildable" type="bool" value="true"/>
    <property name="Diggable" type="bool" value="true"/>
    <property name="Type" value="Dirt"/>
   </properties>
  </tile>
  <tile id="482">
   <properties>
    <property name="Buildable" type="bool" value="true"/>
    <property name="Type" value="Dirt"/>
   </properties>
  </tile>
  <tile id="488">
   <properties>
    <property name="Buildable" type="bool" value="true"/>
    <property name="Diggable" type="bool" value="true"/>
    <property name="Type" value="Dirt"/>
   </properties>
  </tile>
  <tile id="489">
   <properties>
    <property name="NoSpawn" value="All"/>
    <property name="Type" value="Stone"/>
   </properties>
  </tile>
  <tile id="490">
   <properties>
    <property name="NoSpawn" value="All"/>
    <property name="Type" value="Stone"/>
   </properties>
  </tile>
  <tile id="491">
   <properties>
    <property name="NoSpawn" value="All"/>
    <property name="Type" value="Stone"/>
   </properties>
  </tile>
  <tile id="492">
   <properties>
    <property name="NoSpawn" value="All"/>
    <property name="Type" value="Stone"/>
   </properties>
  </tile>
  <tile id="493">
   <properties>
    <property name="NoSpawn" value="All"/>
    <property name="Type" value="Stone"/>
   </properties>
  </tile>
  <tile id="494">
   <properties>
    <property name="NoSpawn" value="All"/>
    <property name="Type" value="Stone"/>
   </properties>
  </tile>
  <tile id="495">
   <properties>
    <property name="NoSpawn" value="All"/>
    <property name="Type" value="Stone"/>
   </properties>
  </tile>
  <tile id="496">
   <properties>
    <property name="NoSpawn" value="All"/>
    <property name="Type" value="Grass"/>
   </properties>
  </tile>
  <tile id="497">
   <properties>
    <property name="NoSpawn" value="All"/>
    <property name="Type" value="Stone"/>
   </properties>
  </tile>
  <tile id="498">
   <properties>
    <property name="NoSpawn" value="All"/>
    <property name="Type" value="Stone"/>
   </properties>
  </tile>
  <tile id="499">
   <properties>
    <property name="Buildable" type="bool" value="true"/>
    <property name="Type" value="Grass"/>
   </properties>
  </tile>
  <tile id="505">
   <properties>
    <property name="Buildable" type="bool" value="true"/>
    <property name="Type" value="Dirt"/>
   </properties>
  </tile>
  <tile id="506">
   <properties>
    <property name="Buildable" type="bool" value="true"/>
    <property name="Type" value="Dirt"/>
   </properties>
  </tile>
  <tile id="509">
   <properties>
    <property name="NoFurniture" value="total"/>
    <property name="NoSpawn" value="All"/>
   </properties>
  </tile>
  <tile id="512">
   <properties>
    <property name="Buildable" type="bool" value="true"/>
    <property name="Diggable" type="bool" value="true"/>
    <property name="Type" value="Dirt"/>
   </properties>
  </tile>
  <tile id="513">
   <properties>
    <property name="Buildable" type="bool" value="true"/>
    <property name="Diggable" type="bool" value="true"/>
    <property name="Type" value="Dirt"/>
   </properties>
  </tile>
  <tile id="514">
   <properties>
    <property name="NoSpawn" value="All"/>
    <property name="Type" value="Stone"/>
   </properties>
  </tile>
  <tile id="515">
   <properties>
    <property name="NoSpawn" value="All"/>
    <property name="Type" value="Stone"/>
   </properties>
  </tile>
  <tile id="516">
   <properties>
    <property name="NoSpawn" value="All"/>
    <property name="Type" value="Stone"/>
   </properties>
  </tile>
  <tile id="517">
   <properties>
    <property name="NoSpawn" value="All"/>
    <property name="Type" value="Stone"/>
   </properties>
  </tile>
  <tile id="518">
   <properties>
    <property name="NoSpawn" value="All"/>
    <property name="Type" value="Stone"/>
   </properties>
  </tile>
  <tile id="519">
   <properties>
    <property name="NoSpawn" value="All"/>
    <property name="Type" value="Stone"/>
   </properties>
  </tile>
  <tile id="520">
   <properties>
    <property name="NoSpawn" value="All"/>
    <property name="Type" value="Stone"/>
   </properties>
  </tile>
  <tile id="521">
   <properties>
    <property name="NoSpawn" value="All"/>
    <property name="Type" value="Stone"/>
   </properties>
  </tile>
  <tile id="522">
   <properties>
    <property name="NoSpawn" value="All"/>
    <property name="Type" value="Grass"/>
   </properties>
  </tile>
  <tile id="523">
   <properties>
    <property name="NoSpawn" value="All"/>
    <property name="Type" value="Stone"/>
   </properties>
  </tile>
  <tile id="524">
   <properties>
    <property name="Buildable" type="bool" value="true"/>
    <property name="Type" value="Dirt"/>
   </properties>
  </tile>
  <tile id="530">
   <properties>
    <property name="Buildable" type="bool" value="true"/>
    <property name="Type" value="Dirt"/>
   </properties>
  </tile>
  <tile id="531">
   <properties>
    <property name="Buildable" type="bool" value="true"/>
    <property name="Type" value="Dirt"/>
   </properties>
  </tile>
  <tile id="532">
   <properties>
    <property name="Buildable" type="bool" value="true"/>
    <property name="Type" value="Dirt"/>
   </properties>
  </tile>
  <tile id="534">
   <properties>
    <property name="NoFurniture" value="total"/>
    <property name="NoSpawn" value="All"/>
   </properties>
  </tile>
  <tile id="536">
   <properties>
    <property name="Buildable" type="bool" value="true"/>
    <property name="Diggable" type="bool" value="true"/>
    <property name="Type" value="Dirt"/>
   </properties>
  </tile>
  <tile id="537">
   <properties>
    <property name="Buildable" type="bool" value="true"/>
    <property name="Type" value="Dirt"/>
   </properties>
  </tile>
  <tile id="538">
   <properties>
    <property name="Buildable" type="bool" value="true"/>
    <property name="Diggable" type="bool" value="true"/>
    <property name="Type" value="Dirt"/>
   </properties>
  </tile>
  <tile id="539">
   <properties>
    <property name="NoSpawn" value="All"/>
    <property name="Type" value="Stone"/>
   </properties>
  </tile>
  <tile id="540">
   <properties>
    <property name="NoSpawn" value="All"/>
    <property name="Type" value="Stone"/>
   </properties>
  </tile>
  <tile id="541">
   <properties>
    <property name="NoSpawn" value="All"/>
    <property name="Type" value="Stone"/>
   </properties>
  </tile>
  <tile id="542">
   <properties>
    <property name="NoSpawn" value="All"/>
    <property name="Type" value="Stone"/>
   </properties>
  </tile>
  <tile id="543">
   <properties>
    <property name="NoSpawn" value="All"/>
    <property name="Type" value="Stone"/>
   </properties>
  </tile>
  <tile id="544">
   <properties>
    <property name="NoSpawn" value="All"/>
    <property name="Type" value="Stone"/>
   </properties>
  </tile>
  <tile id="545">
   <properties>
    <property name="NoSpawn" value="All"/>
    <property name="Type" value="Stone"/>
   </properties>
  </tile>
  <tile id="546">
   <properties>
    <property name="NoSpawn" value="All"/>
    <property name="Type" value="Stone"/>
   </properties>
  </tile>
  <tile id="547">
   <properties>
    <property name="NoSpawn" value="All"/>
    <property name="Type" value="Stone"/>
   </properties>
  </tile>
  <tile id="548">
   <properties>
    <property name="NoSpawn" value="All"/>
    <property name="Type" value="Grass"/>
   </properties>
  </tile>
  <tile id="549">
   <properties>
    <property name="Buildable" type="bool" value="true"/>
    <property name="Type" value="Dirt"/>
   </properties>
  </tile>
  <tile id="555">
   <properties>
    <property name="Buildable" type="bool" value="true"/>
    <property name="Type" value="Dirt"/>
   </properties>
  </tile>
  <tile id="556">
   <properties>
    <property name="Buildable" type="bool" value="true"/>
    <property name="Diggable" type="bool" value="true"/>
    <property name="Type" value="Dirt"/>
   </properties>
  </tile>
  <tile id="557">
   <properties>
    <property name="Buildable" type="bool" value="true"/>
    <property name="Type" value="Dirt"/>
   </properties>
  </tile>
  <tile id="558">
   <properties>
    <property name="Buildable" type="bool" value="true"/>
    <property name="Diggable" type="bool" value="true"/>
    <property name="Type" value="Dirt"/>
   </properties>
  </tile>
  <tile id="559">
   <animation>
    <frame tileid="559" duration="1000"/>
    <frame tileid="1289" duration="1000"/>
   </animation>
  </tile>
  <tile id="560">
   <properties>
    <property name="Buildable" type="bool" value="true"/>
    <property name="Diggable" type="bool" value="true"/>
    <property name="Type" value="Dirt"/>
   </properties>
  </tile>
  <tile id="561">
   <properties>
    <property name="Buildable" type="bool" value="true"/>
    <property name="Diggable" type="bool" value="true"/>
    <property name="Type" value="Dirt"/>
   </properties>
  </tile>
  <tile id="562">
   <properties>
    <property name="Buildable" type="bool" value="true"/>
    <property name="Diggable" type="bool" value="true"/>
    <property name="Type" value="Dirt"/>
   </properties>
  </tile>
  <tile id="563">
   <properties>
    <property name="Buildable" type="bool" value="true"/>
    <property name="Diggable" type="bool" value="true"/>
    <property name="Type" value="Dirt"/>
   </properties>
  </tile>
  <tile id="564">
   <properties>
    <property name="Buildable" type="bool" value="true"/>
    <property name="Diggable" type="bool" value="true"/>
    <property name="Type" value="Dirt"/>
   </properties>
  </tile>
  <tile id="565">
   <properties>
    <property name="Buildable" type="bool" value="true"/>
    <property name="Diggable" type="bool" value="true"/>
    <property name="Type" value="Dirt"/>
   </properties>
  </tile>
  <tile id="566">
   <properties>
    <property name="Buildable" type="bool" value="true"/>
    <property name="Diggable" type="bool" value="true"/>
    <property name="Type" value="Dirt"/>
   </properties>
  </tile>
  <tile id="567">
   <properties>
    <property name="Buildable" type="bool" value="true"/>
    <property name="Diggable" type="bool" value="true"/>
    <property name="Type" value="Grass"/>
   </properties>
  </tile>
  <tile id="568">
   <properties>
    <property name="Buildable" type="bool" value="true"/>
    <property name="Diggable" type="bool" value="true"/>
    <property name="Type" value="Grass"/>
   </properties>
  </tile>
  <tile id="569">
   <properties>
    <property name="Buildable" type="bool" value="true"/>
    <property name="Diggable" type="bool" value="true"/>
    <property name="Type" value="Grass"/>
   </properties>
  </tile>
  <tile id="570">
   <properties>
    <property name="Buildable" type="bool" value="true"/>
    <property name="Diggable" type="bool" value="true"/>
    <property name="Type" value="Grass"/>
   </properties>
  </tile>
  <tile id="571">
   <properties>
    <property name="Buildable" type="bool" value="true"/>
    <property name="Type" value="Dirt"/>
   </properties>
  </tile>
  <tile id="572">
   <properties>
    <property name="Buildable" type="bool" value="true"/>
    <property name="Type" value="Dirt"/>
   </properties>
  </tile>
  <tile id="573">
   <properties>
    <property name="Buildable" type="bool" value="true"/>
    <property name="Type" value="Dirt"/>
   </properties>
  </tile>
  <tile id="574">
   <properties>
    <property name="Buildable" type="bool" value="true"/>
    <property name="Type" value="Dirt"/>
   </properties>
  </tile>
  <tile id="580">
   <properties>
    <property name="Buildable" type="bool" value="true"/>
    <property name="Type" value="Dirt"/>
   </properties>
  </tile>
  <tile id="581">
   <properties>
    <property name="Buildable" type="bool" value="true"/>
    <property name="Type" value="Dirt"/>
   </properties>
  </tile>
  <tile id="582">
   <properties>
    <property name="Buildable" type="bool" value="true"/>
    <property name="Type" value="Dirt"/>
   </properties>
  </tile>
  <tile id="583">
   <properties>
    <property name="Buildable" type="bool" value="true"/>
    <property name="Diggable" type="bool" value="true"/>
    <property name="Type" value="Dirt"/>
   </properties>
  </tile>
  <tile id="584">
   <animation>
    <frame tileid="584" duration="1000"/>
    <frame tileid="1314" duration="1000"/>
   </animation>
  </tile>
  <tile id="585">
   <properties>
    <property name="Buildable" type="bool" value="true"/>
    <property name="Diggable" type="bool" value="true"/>
    <property name="Type" value="Dirt"/>
   </properties>
  </tile>
  <tile id="586">
   <properties>
    <property name="Buildable" type="bool" value="true"/>
    <property name="Diggable" type="bool" value="true"/>
    <property name="Type" value="Dirt"/>
   </properties>
  </tile>
  <tile id="587">
   <properties>
    <property name="Buildable" type="bool" value="true"/>
    <property name="Diggable" type="bool" value="true"/>
    <property name="Type" value="Dirt"/>
   </properties>
  </tile>
  <tile id="588">
   <properties>
    <property name="Buildable" type="bool" value="true"/>
    <property name="Diggable" type="bool" value="true"/>
    <property name="Type" value="Dirt"/>
   </properties>
  </tile>
  <tile id="589">
   <properties>
    <property name="Buildable" type="bool" value="true"/>
    <property name="Diggable" type="bool" value="true"/>
    <property name="Type" value="Dirt"/>
   </properties>
  </tile>
  <tile id="590">
   <properties>
    <property name="Buildable" type="bool" value="true"/>
    <property name="Diggable" type="bool" value="true"/>
    <property name="Type" value="Dirt"/>
   </properties>
  </tile>
  <tile id="591">
   <properties>
    <property name="Buildable" type="bool" value="true"/>
    <property name="Diggable" type="bool" value="true"/>
    <property name="Type" value="Dirt"/>
   </properties>
  </tile>
  <tile id="592">
   <properties>
    <property name="Buildable" type="bool" value="true"/>
    <property name="Type" value="Grass"/>
   </properties>
  </tile>
  <tile id="593">
   <properties>
    <property name="Buildable" type="bool" value="true"/>
    <property name="Type" value="Grass"/>
   </properties>
  </tile>
  <tile id="594">
   <properties>
    <property name="Buildable" type="bool" value="true"/>
    <property name="Diggable" type="bool" value="true"/>
    <property name="Type" value="Grass"/>
   </properties>
  </tile>
  <tile id="595">
   <properties>
    <property name="Buildable" type="bool" value="true"/>
    <property name="Diggable" type="bool" value="true"/>
    <property name="Type" value="Grass"/>
   </properties>
  </tile>
  <tile id="596">
   <properties>
    <property name="Buildable" type="bool" value="true"/>
    <property name="Type" value="Dirt"/>
   </properties>
  </tile>
  <tile id="597">
   <properties>
    <property name="Buildable" type="bool" value="true"/>
    <property name="Type" value="Dirt"/>
   </properties>
  </tile>
  <tile id="598">
   <properties>
    <property name="Buildable" type="bool" value="true"/>
    <property name="Type" value="Stone"/>
   </properties>
  </tile>
  <tile id="599">
   <properties>
    <property name="Buildable" type="bool" value="true"/>
    <property name="Type" value="Stone"/>
   </properties>
  </tile>
  <tile id="603">
   <animation>
    <frame tileid="603" duration="1000"/>
    <frame tileid="1287" duration="1000"/>
   </animation>
  </tile>
  <tile id="604">
   <animation>
    <frame tileid="604" duration="1000"/>
    <frame tileid="1288" duration="1000"/>
   </animation>
  </tile>
  <tile id="606">
   <properties>
    <property name="Buildable" type="bool" value="true"/>
    <property name="Diggable" type="bool" value="true"/>
    <property name="Type" value="Dirt"/>
   </properties>
  </tile>
  <tile id="607">
   <properties>
    <property name="Buildable" type="bool" value="true"/>
    <property name="Diggable" type="bool" value="true"/>
    <property name="Type" value="Dirt"/>
   </properties>
  </tile>
  <tile id="608">
   <properties>
    <property name="Buildable" type="bool" value="true"/>
    <property name="Diggable" type="bool" value="true"/>
    <property name="Type" value="Dirt"/>
   </properties>
  </tile>
  <tile id="609">
   <animation>
    <frame tileid="609" duration="1000"/>
    <frame tileid="1285" duration="1000"/>
   </animation>
  </tile>
  <tile id="610">
   <properties>
    <property name="Buildable" type="bool" value="true"/>
    <property name="Diggable" type="bool" value="true"/>
    <property name="Type" value="Dirt"/>
   </properties>
  </tile>
  <tile id="611">
   <properties>
    <property name="Buildable" type="bool" value="true"/>
    <property name="Diggable" type="bool" value="true"/>
    <property name="Type" value="Dirt"/>
   </properties>
  </tile>
  <tile id="612">
   <properties>
    <property name="Buildable" type="bool" value="true"/>
    <property name="Diggable" type="bool" value="true"/>
    <property name="Type" value="Dirt"/>
   </properties>
  </tile>
  <tile id="613">
   <properties>
    <property name="Buildable" type="bool" value="true"/>
    <property name="Diggable" type="bool" value="true"/>
    <property name="Type" value="Dirt"/>
   </properties>
  </tile>
  <tile id="614">
   <properties>
    <property name="Buildable" type="bool" value="true"/>
    <property name="Diggable" type="bool" value="true"/>
    <property name="Type" value="Dirt"/>
   </properties>
  </tile>
  <tile id="615">
   <properties>
    <property name="Buildable" type="bool" value="true"/>
    <property name="Diggable" type="bool" value="true"/>
    <property name="Type" value="Dirt"/>
   </properties>
  </tile>
  <tile id="616">
   <properties>
    <property name="Buildable" type="bool" value="true"/>
    <property name="Diggable" type="bool" value="true"/>
    <property name="Type" value="Dirt"/>
   </properties>
  </tile>
  <tile id="617">
   <properties>
    <property name="Buildable" type="bool" value="true"/>
    <property name="Diggable" type="bool" value="true"/>
    <property name="Type" value="Dirt"/>
   </properties>
  </tile>
  <tile id="618">
   <properties>
    <property name="Buildable" type="bool" value="true"/>
    <property name="Diggable" type="bool" value="true"/>
    <property name="Type" value="Dirt"/>
   </properties>
  </tile>
  <tile id="619">
   <properties>
    <property name="Buildable" type="bool" value="true"/>
    <property name="Diggable" type="bool" value="true"/>
    <property name="Type" value="Grass"/>
   </properties>
  </tile>
  <tile id="620">
   <properties>
    <property name="Buildable" type="bool" value="true"/>
    <property name="Type" value="Dirt"/>
   </properties>
  </tile>
  <tile id="621">
   <properties>
    <property name="Buildable" type="bool" value="true"/>
    <property name="Type" value="Dirt"/>
   </properties>
  </tile>
  <tile id="622">
   <properties>
    <property name="Buildable" type="bool" value="true"/>
    <property name="Type" value="Dirt"/>
   </properties>
  </tile>
  <tile id="623">
   <properties>
    <property name="Buildable" type="bool" value="true"/>
    <property name="Type" value="Stone"/>
   </properties>
  </tile>
  <tile id="624">
   <properties>
    <property name="Buildable" type="bool" value="true"/>
    <property name="Type" value="Dirt"/>
   </properties>
  </tile>
  <tile id="630">
   <properties>
    <property name="Diggable" type="bool" value="true"/>
    <property name="Type" value="Dirt"/>
   </properties>
  </tile>
  <tile id="631">
   <properties>
    <property name="Buildable" type="bool" value="true"/>
    <property name="Diggable" type="bool" value="true"/>
    <property name="Type" value="Grass"/>
   </properties>
  </tile>
  <tile id="632">
   <properties>
    <property name="Buildable" type="bool" value="true"/>
    <property name="Diggable" type="bool" value="true"/>
    <property name="Type" value="Grass"/>
   </properties>
  </tile>
  <tile id="633">
   <properties>
    <property name="Buildable" type="bool" value="true"/>
    <property name="Diggable" type="bool" value="true"/>
    <property name="Type" value="Grass"/>
   </properties>
  </tile>
  <tile id="634">
   <properties>
    <property name="Buildable" type="bool" value="true"/>
    <property name="Diggable" type="bool" value="true"/>
    <property name="Type" value="Grass"/>
   </properties>
  </tile>
  <tile id="635">
   <properties>
    <property name="Buildable" type="bool" value="true"/>
    <property name="Diggable" type="bool" value="true"/>
    <property name="Type" value="Dirt"/>
   </properties>
  </tile>
  <tile id="636">
   <properties>
    <property name="Buildable" type="bool" value="true"/>
    <property name="Diggable" type="bool" value="true"/>
    <property name="Type" value="Dirt"/>
   </properties>
  </tile>
  <tile id="645">
   <properties>
    <property name="Buildable" type="bool" value="true"/>
    <property name="Diggable" type="bool" value="true"/>
    <property name="Type" value="Dirt"/>
   </properties>
  </tile>
  <tile id="646">
   <properties>
    <property name="NoSpawn" value="All"/>
    <property name="Type" value="Stone"/>
   </properties>
  </tile>
  <tile id="647">
   <properties>
    <property name="NoSpawn" value="All"/>
    <property name="Type" value="Stone"/>
   </properties>
  </tile>
  <tile id="648">
   <properties>
    <property name="NoSpawn" value="All"/>
    <property name="Type" value="Stone"/>
   </properties>
  </tile>
  <tile id="649">
   <properties>
    <property name="NoSpawn" value="All"/>
    <property name="Type" value="Stone"/>
   </properties>
  </tile>
  <tile id="654">
   <properties>
    <property name="Buildable" type="bool" value="true"/>
    <property name="Diggable" type="bool" value="true"/>
    <property name="Type" value="Grass"/>
   </properties>
  </tile>
  <tile id="655">
   <properties>
    <property name="Buildable" type="bool" value="true"/>
    <property name="Diggable" type="bool" value="true"/>
    <property name="Type" value="Grass"/>
   </properties>
  </tile>
  <tile id="656">
   <properties>
    <property name="Buildable" type="bool" value="true"/>
    <property name="Diggable" type="bool" value="true"/>
    <property name="Type" value="Grass"/>
   </properties>
  </tile>
  <tile id="657">
   <properties>
    <property name="Buildable" type="bool" value="true"/>
    <property name="Diggable" type="bool" value="true"/>
    <property name="Type" value="Grass"/>
   </properties>
  </tile>
  <tile id="658">
   <properties>
    <property name="Buildable" type="bool" value="true"/>
    <property name="Diggable" type="bool" value="true"/>
    <property name="Type" value="Grass"/>
   </properties>
  </tile>
  <tile id="659">
   <properties>
    <property name="Buildable" type="bool" value="true"/>
    <property name="Diggable" type="bool" value="true"/>
    <property name="Type" value="Grass"/>
   </properties>
  </tile>
  <tile id="670">
   <properties>
    <property name="Buildable" type="bool" value="true"/>
    <property name="Diggable" type="bool" value="true"/>
    <property name="Type" value="Dirt"/>
   </properties>
  </tile>
  <tile id="671">
   <properties>
    <property name="NoSpawn" value="All"/>
    <property name="Type" value="Stone"/>
   </properties>
  </tile>
  <tile id="672">
   <properties>
    <property name="NoSpawn" value="All"/>
    <property name="Type" value="Stone"/>
   </properties>
  </tile>
  <tile id="673">
   <properties>
    <property name="NoSpawn" value="All"/>
    <property name="Type" value="Stone"/>
   </properties>
  </tile>
  <tile id="674">
   <properties>
    <property name="NoSpawn" value="All"/>
    <property name="Type" value="Stone"/>
   </properties>
  </tile>
  <tile id="679">
   <properties>
    <property name="Buildable" type="bool" value="true"/>
    <property name="Diggable" type="bool" value="true"/>
    <property name="Type" value="Grass"/>
   </properties>
  </tile>
  <tile id="680">
   <properties>
    <property name="Buildable" type="bool" value="true"/>
    <property name="Diggable" type="bool" value="true"/>
    <property name="Type" value="Dirt"/>
   </properties>
  </tile>
  <tile id="681">
   <properties>
    <property name="Buildable" type="bool" value="true"/>
    <property name="Diggable" type="bool" value="true"/>
    <property name="Type" value="Dirt"/>
   </properties>
  </tile>
  <tile id="682">
   <properties>
    <property name="Buildable" type="bool" value="true"/>
    <property name="Diggable" type="bool" value="true"/>
    <property name="Type" value="Grass"/>
   </properties>
  </tile>
  <tile id="683">
   <properties>
    <property name="Buildable" type="bool" value="true"/>
    <property name="Diggable" type="bool" value="true"/>
    <property name="Type" value="Grass"/>
   </properties>
  </tile>
  <tile id="684">
   <properties>
    <property name="Buildable" type="bool" value="true"/>
    <property name="Diggable" type="bool" value="true"/>
    <property name="Type" value="Grass"/>
   </properties>
  </tile>
  <tile id="685">
   <properties>
    <property name="Buildable" type="bool" value="true"/>
    <property name="Diggable" type="bool" value="true"/>
    <property name="Type" value="Dirt"/>
   </properties>
  </tile>
  <tile id="696">
   <properties>
    <property name="NoSpawn" value="All"/>
    <property name="Type" value="Stone"/>
   </properties>
  </tile>
  <tile id="697">
   <properties>
    <property name="NoSpawn" value="All"/>
    <property name="Type" value="Stone"/>
   </properties>
  </tile>
  <tile id="698">
   <properties>
    <property name="NoSpawn" value="All"/>
    <property name="Type" value="Stone"/>
   </properties>
  </tile>
  <tile id="699">
   <properties>
    <property name="NoSpawn" value="All"/>
    <property name="Type" value="Stone"/>
   </properties>
  </tile>
  <tile id="704">
   <properties>
    <property name="Buildable" type="bool" value="true"/>
    <property name="Diggable" type="bool" value="true"/>
    <property name="Type" value="Grass"/>
   </properties>
  </tile>
  <tile id="705">
   <properties>
    <property name="Buildable" type="bool" value="true"/>
    <property name="Diggable" type="bool" value="true"/>
    <property name="Type" value="Grass"/>
   </properties>
  </tile>
  <tile id="706">
   <properties>
    <property name="Buildable" type="bool" value="true"/>
    <property name="Diggable" type="bool" value="true"/>
    <property name="Type" value="Grass"/>
   </properties>
  </tile>
  <tile id="707">
   <properties>
    <property name="Buildable" type="bool" value="true"/>
    <property name="Diggable" type="bool" value="true"/>
    <property name="Type" value="Grass"/>
   </properties>
  </tile>
  <tile id="708">
   <properties>
    <property name="NoSpawn" value="All"/>
    <property name="Type" value="Dirt"/>
   </properties>
   <animation>
    <frame tileid="708" duration="1000"/>
    <frame tileid="1234" duration="1000"/>
   </animation>
  </tile>
  <tile id="709">
   <properties>
    <property name="NoSpawn" value="All"/>
    <property name="Type" value="Dirt"/>
   </properties>
   <animation>
    <frame tileid="709" duration="1000"/>
    <frame tileid="1235" duration="1000"/>
   </animation>
  </tile>
  <tile id="710">
   <properties>
    <property name="NoSpawn" value="All"/>
    <property name="Type" value="Dirt"/>
   </properties>
   <animation>
    <frame tileid="710" duration="1000"/>
    <frame tileid="1236" duration="1000"/>
   </animation>
  </tile>
  <tile id="720">
   <properties>
    <property name="Buildable" type="bool" value="true"/>
    <property name="Diggable" type="bool" value="true"/>
    <property name="Type" value="Dirt"/>
   </properties>
  </tile>
  <tile id="721">
   <properties>
    <property name="NoSpawn" value="All"/>
    <property name="Type" value="Stone"/>
   </properties>
  </tile>
  <tile id="722">
   <properties>
    <property name="NoSpawn" value="All"/>
    <property name="Type" value="Stone"/>
   </properties>
  </tile>
  <tile id="723">
   <properties>
    <property name="NoSpawn" value="All"/>
    <property name="Type" value="Stone"/>
   </properties>
  </tile>
  <tile id="724">
   <properties>
    <property name="NoSpawn" value="All"/>
    <property name="Type" value="Stone"/>
   </properties>
  </tile>
  <tile id="731">
   <properties>
    <property name="NoSpawn" value="All"/>
    <property name="Type" value="Dirt"/>
   </properties>
  </tile>
  <tile id="732">
   <properties>
    <property name="NoSpawn" value="All"/>
    <property name="Type" value="Dirt"/>
   </properties>
  </tile>
  <tile id="733">
   <properties>
    <property name="NoSpawn" value="All"/>
    <property name="Type" value="Dirt"/>
   </properties>
   <animation>
    <frame tileid="733" duration="1000"/>
    <frame tileid="1259" duration="1000"/>
   </animation>
  </tile>
  <tile id="734">
   <animation>
    <frame tileid="734" duration="1000"/>
    <frame tileid="1260" duration="1000"/>
   </animation>
  </tile>
  <tile id="735">
   <properties>
    <property name="NoSpawn" value="All"/>
    <property name="Type" value="Dirt"/>
   </properties>
   <animation>
    <frame tileid="735" duration="1000"/>
    <frame tileid="1261" duration="1000"/>
   </animation>
  </tile>
  <tile id="745">
   <properties>
    <property name="Buildable" type="bool" value="true"/>
    <property name="Diggable" type="bool" value="true"/>
    <property name="Type" value="Dirt"/>
   </properties>
  </tile>
  <tile id="748">
   <properties>
    <property name="NoSpawn" value="All"/>
    <property name="Type" value="Stone"/>
   </properties>
  </tile>
  <tile id="749">
   <properties>
    <property name="NoSpawn" value="All"/>
    <property name="Type" value="Stone"/>
   </properties>
  </tile>
  <tile id="756">
   <properties>
    <property name="NoSpawn" value="All"/>
    <property name="Type" value="Dirt"/>
   </properties>
   <animation>
    <frame tileid="756" duration="1000"/>
    <frame tileid="1282" duration="1000"/>
   </animation>
  </tile>
  <tile id="757">
   <properties>
    <property name="NoSpawn" value="All"/>
    <property name="Type" value="Dirt"/>
   </properties>
   <animation>
    <frame tileid="757" duration="1000"/>
    <frame tileid="1283" duration="1000"/>
   </animation>
  </tile>
  <tile id="758">
   <properties>
    <property name="NoSpawn" value="All"/>
    <property name="Type" value="Dirt"/>
   </properties>
   <animation>
    <frame tileid="758" duration="1000"/>
    <frame tileid="1284" duration="1000"/>
   </animation>
  </tile>
  <tile id="760">
   <properties>
    <property name="NoSpawn" value="All"/>
    <property name="Type" value="Dirt"/>
   </properties>
   <animation>
    <frame tileid="760" duration="1000"/>
    <frame tileid="1286" duration="1000"/>
   </animation>
  </tile>
  <tile id="772">
   <properties>
    <property name="NoSpawn" value="All"/>
    <property name="Type" value="Stone"/>
   </properties>
  </tile>
  <tile id="773">
   <properties>
    <property name="NoSpawn" value="All"/>
    <property name="Type" value="Stone"/>
   </properties>
  </tile>
  <tile id="774">
   <properties>
    <property name="NoSpawn" value="All"/>
    <property name="Type" value="Stone"/>
   </properties>
  </tile>
  <tile id="779">
   <properties>
    <property name="NoSpawn" value="All"/>
    <property name="Passable" type="bool" value="true"/>
    <property name="Type" value="Wood"/>
   </properties>
  </tile>
  <tile id="780">
   <properties>
    <property name="NoSpawn" value="All"/>
    <property name="Passable" type="bool" value="true"/>
    <property name="Type" value="Wood"/>
   </properties>
  </tile>
  <tile id="781">
   <properties>
    <property name="NoSpawn" value="All"/>
    <property name="Passable" type="bool" value="true"/>
    <property name="Type" value="Wood"/>
   </properties>
  </tile>
  <tile id="782">
   <properties>
    <property name="NoSpawn" value="All"/>
    <property name="Passable" type="bool" value="true"/>
    <property name="Type" value="Wood"/>
   </properties>
  </tile>
  <tile id="783">
   <properties>
    <property name="NoSpawn" value="All"/>
    <property name="Type" value="Dirt"/>
   </properties>
   <animation>
    <frame tileid="783" duration="1000"/>
    <frame tileid="1309" duration="1000"/>
   </animation>
  </tile>
  <tile id="784">
   <properties>
    <property name="NoSpawn" value="All"/>
    <property name="Type" value="Dirt"/>
   </properties>
  </tile>
  <tile id="785">
   <properties>
    <property name="NoSpawn" value="All"/>
    <property name="Type" value="Dirt"/>
   </properties>
   <animation>
    <frame tileid="785" duration="1000"/>
    <frame tileid="1311" duration="1000"/>
   </animation>
  </tile>
  <tile id="797">
   <properties>
    <property name="NoSpawn" value="All"/>
    <property name="Type" value="Stone"/>
   </properties>
  </tile>
  <tile id="798">
   <properties>
    <property name="NoSpawn" value="All"/>
    <property name="Type" value="Stone"/>
   </properties>
  </tile>
  <tile id="799">
   <properties>
    <property name="NoSpawn" value="All"/>
    <property name="Type" value="Stone"/>
   </properties>
  </tile>
  <tile id="809">
   <properties>
    <property name="NoSpawn" value="All"/>
    <property name="Passable" type="bool" value="true"/>
    <property name="Type" value="Wood"/>
   </properties>
  </tile>
  <tile id="812">
   <properties>
    <property name="NoSpawn" value="All"/>
    <property name="Type" value="Stone"/>
   </properties>
  </tile>
  <tile id="813">
   <properties>
    <property name="Buildable" type="bool" value="true"/>
    <property name="Type" value="Stone"/>
   </properties>
  </tile>
  <tile id="822">
   <properties>
    <property name="NoSpawn" value="All"/>
    <property name="Type" value="Stone"/>
   </properties>
  </tile>
  <tile id="834">
   <properties>
    <property name="NoSpawn" value="All"/>
    <property name="Passable" type="bool" value="true"/>
    <property name="Type" value="Wood"/>
   </properties>
  </tile>
  <tile id="838">
   <properties>
    <property name="NoSpawn" value="All"/>
    <property name="Type" value="Stone"/>
   </properties>
  </tile>
  <tile id="847">
   <properties>
    <property name="NoSpawn" value="All"/>
    <property name="Type" value="Stone"/>
   </properties>
  </tile>
  <tile id="859">
   <properties>
    <property name="NoSpawn" value="All"/>
    <property name="Passable" type="bool" value="true"/>
    <property name="Type" value="Wood"/>
   </properties>
  </tile>
  <tile id="860">
   <properties>
    <property name="NoSpawn" value="All"/>
    <property name="Passable" type="bool" value="true"/>
    <property name="Type" value="Wood"/>
   </properties>
  </tile>
  <tile id="872">
   <properties>
    <property name="NoSpawn" value="All"/>
    <property name="Type" value="Stone"/>
   </properties>
  </tile>
  <tile id="884">
   <properties>
    <property name="NoSpawn" value="All"/>
    <property name="Passable" type="bool" value="true"/>
    <property name="Type" value="Wood"/>
   </properties>
  </tile>
  <tile id="885">
   <properties>
    <property name="NoSpawn" value="All"/>
    <property name="Passable" type="bool" value="true"/>
    <property name="Type" value="Wood"/>
   </properties>
  </tile>
  <tile id="897">
   <properties>
    <property name="NoSpawn" value="All"/>
    <property name="Type" value="Stone"/>
   </properties>
  </tile>
  <tile id="910">
   <properties>
    <property name="NoSpawn" value="All"/>
    <property name="Passable" type="bool" value="true"/>
    <property name="Type" value="Wood"/>
   </properties>
  </tile>
  <tile id="922">
   <properties>
    <property name="NoSpawn" value="All"/>
    <property name="Type" value="Stone"/>
   </properties>
  </tile>
  <tile id="947">
   <properties>
    <property name="Type" value="Stone"/>
   </properties>
  </tile>
  <tile id="948">
   <properties>
    <property name="Type" value="Stone"/>
   </properties>
  </tile>
  <tile id="949">
   <properties>
    <property name="Type" value="Stone"/>
   </properties>
  </tile>
  <tile id="972">
   <properties>
    <property name="Type" value="Stone"/>
   </properties>
  </tile>
  <tile id="973">
   <properties>
    <property name="Type" value="Stone"/>
   </properties>
  </tile>
  <tile id="974">
   <properties>
    <property name="Type" value="Stone"/>
   </properties>
  </tile>
  <tile id="998">
   <properties>
    <property name="Type" value="Stone"/>
   </properties>
  </tile>
  <tile id="999">
   <properties>
    <property name="Type" value="Stone"/>
   </properties>
  </tile>
  <tile id="1092">
   <properties>
    <property name="Buildable" type="bool" value="true"/>
    <property name="Type" value="Grass"/>
   </properties>
  </tile>
  <tile id="1093">
   <properties>
    <property name="Buildable" type="bool" value="true"/>
    <property name="Type" value="Grass"/>
   </properties>
  </tile>
  <tile id="1094">
   <properties>
    <property name="Buildable" type="bool" value="true"/>
    <property name="Type" value="Grass"/>
   </properties>
  </tile>
  <tile id="1095">
   <properties>
    <property name="Buildable" type="bool" value="true"/>
    <property name="Type" value="Grass"/>
   </properties>
  </tile>
  <tile id="1096">
   <properties>
    <property name="Buildable" type="bool" value="true"/>
    <property name="Type" value="Grass"/>
   </properties>
  </tile>
  <tile id="1119">
   <properties>
    <property name="Buildable" type="bool" value="true"/>
    <property name="Type" value="Grass"/>
   </properties>
  </tile>
  <tile id="1120">
   <properties>
    <property name="Buildable" type="bool" value="true"/>
    <property name="Type" value="Grass"/>
   </properties>
  </tile>
  <tile id="1121">
   <properties>
    <property name="Buildable" type="bool" value="true"/>
    <property name="Type" value="Grass"/>
   </properties>
  </tile>
  <tile id="1182">
   <properties>
    <property name="NoSpawn" value="All"/>
    <property name="Type" value="Dirt"/>
   </properties>
  </tile>
  <tile id="1183">
   <properties>
    <property name="NoSpawn" value="All"/>
    <property name="Type" value="Dirt"/>
   </properties>
  </tile>
  <tile id="1184">
   <properties>
    <property name="NoSpawn" value="All"/>
    <property name="Type" value="Dirt"/>
   </properties>
  </tile>
  <tile id="1185">
   <properties>
    <property name="NoSpawn" value="All"/>
    <property name="Type" value="Dirt"/>
   </properties>
  </tile>
  <tile id="1186">
   <properties>
    <property name="Passable" type="bool" value="false"/>
    <property name="Water" type="bool" value="true"/>
   </properties>
  </tile>
  <tile id="1187">
   <properties>
    <property name="Passable" type="bool" value="false"/>
    <property name="Water" type="bool" value="true"/>
   </properties>
  </tile>
  <tile id="1188">
   <properties>
    <property name="Passable" type="bool" value="false"/>
    <property name="Water" type="bool" value="true"/>
   </properties>
  </tile>
  <tile id="1207">
   <properties>
    <property name="NoSpawn" value="All"/>
    <property name="Type" value="Dirt"/>
   </properties>
  </tile>
  <tile id="1209">
   <properties>
    <property name="NoSpawn" value="All"/>
    <property name="Type" value="Dirt"/>
   </properties>
  </tile>
  <tile id="1210">
   <properties>
    <property name="NoSpawn" value="All"/>
    <property name="Type" value="Dirt"/>
   </properties>
  </tile>
  <tile id="1211">
   <properties>
    <property name="Passable" type="bool" value="false"/>
    <property name="Water" type="bool" value="true"/>
   </properties>
  </tile>
  <tile id="1212">
   <properties>
    <property name="Passable" type="bool" value="false"/>
    <property name="Water" type="bool" value="true"/>
   </properties>
  </tile>
  <tile id="1213">
   <properties>
    <property name="Passable" type="bool" value="false"/>
    <property name="Water" type="bool" value="true"/>
   </properties>
  </tile>
  <tile id="1227">
   <properties>
    <property name="Passable" value="F"/>
    <property name="Water" value="T"/>
   </properties>
  </tile>
  <tile id="1228">
   <properties>
    <property name="Passable" value="F"/>
    <property name="Water" value="T"/>
   </properties>
  </tile>
  <tile id="1229">
   <properties>
    <property name="Passable" value="F"/>
    <property name="Water" value="T"/>
   </properties>
  </tile>
  <tile id="1230">
   <properties>
    <property name="Passable" value="F"/>
    <property name="Water" value="T"/>
   </properties>
  </tile>
  <tile id="1231">
   <properties>
    <property name="Passable" value="F"/>
    <property name="Water" value="T"/>
   </properties>
  </tile>
  <tile id="1232">
   <properties>
    <property name="NoSpawn" value="All"/>
    <property name="Type" value="Dirt"/>
   </properties>
  </tile>
  <tile id="1234">
   <properties>
    <property name="NoSpawn" value="All"/>
    <property name="Type" value="Dirt"/>
   </properties>
  </tile>
  <tile id="1235">
   <properties>
    <property name="NoSpawn" value="All"/>
    <property name="Type" value="Dirt"/>
   </properties>
  </tile>
  <tile id="1236">
   <properties>
    <property name="NoSpawn" value="All"/>
    <property name="Type" value="Dirt"/>
   </properties>
  </tile>
  <tile id="1237">
   <properties>
    <property name="Passable" type="bool" value="false"/>
    <property name="Water" type="bool" value="true"/>
   </properties>
  </tile>
  <tile id="1238">
   <properties>
    <property name="Passable" type="bool" value="false"/>
    <property name="Water" type="bool" value="true"/>
   </properties>
  </tile>
  <tile id="1239">
   <properties>
    <property name="Passable" type="bool" value="false"/>
    <property name="Water" type="bool" value="true"/>
   </properties>
  </tile>
  <tile id="1240">
   <properties>
    <property name="Passable" type="bool" value="false"/>
    <property name="Water" type="bool" value="true"/>
   </properties>
  </tile>
  <tile id="1241">
   <properties>
    <property name="Passable" type="bool" value="false"/>
    <property name="Water" type="bool" value="true"/>
   </properties>
  </tile>
  <tile id="1242">
   <properties>
    <property name="Passable" type="bool" value="false"/>
    <property name="Water" type="bool" value="true"/>
   </properties>
  </tile>
  <tile id="1243">
   <properties>
    <property name="Water" type="bool" value="true"/>
   </properties>
  </tile>
  <tile id="1244">
   <properties>
    <property name="Water" type="bool" value="true"/>
   </properties>
  </tile>
  <tile id="1245">
   <properties>
    <property name="Water" type="bool" value="true"/>
   </properties>
  </tile>
  <tile id="1246">
   <properties>
    <property name="Passable" type="bool" value="false"/>
    <property name="Water" type="bool" value="true"/>
   </properties>
  </tile>
  <tile id="1247">
   <properties>
    <property name="Passable" type="bool" value="false"/>
    <property name="Water" type="bool" value="true"/>
   </properties>
  </tile>
  <tile id="1248">
   <properties>
    <property name="Passable" type="bool" value="false"/>
    <property name="Water" type="bool" value="true"/>
   </properties>
  </tile>
  <tile id="1249">
   <properties>
    <property name="Passable" type="bool" value="false"/>
    <property name="Water" type="bool" value="true"/>
   </properties>
  </tile>
  <tile id="1252">
   <properties>
    <property name="Passable" value="F"/>
    <property name="Water" value="T"/>
   </properties>
  </tile>
  <tile id="1253">
   <properties>
    <property name="Passable" value="F"/>
    <property name="Water" value="T"/>
   </properties>
  </tile>
  <tile id="1254">
   <properties>
    <property name="Passable" value="F"/>
    <property name="Water" value="T"/>
   </properties>
  </tile>
  <tile id="1255">
   <properties>
    <property name="Passable" value="F"/>
    <property name="Water" value="T"/>
   </properties>
  </tile>
  <tile id="1256">
   <properties>
    <property name="Passable" value="F"/>
    <property name="Water" value="T"/>
   </properties>
  </tile>
  <tile id="1257">
   <properties>
    <property name="NoSpawn" value="All"/>
    <property name="Type" value="Dirt"/>
   </properties>
  </tile>
  <tile id="1258">
   <properties>
    <property name="NoSpawn" value="All"/>
    <property name="Type" value="Dirt"/>
   </properties>
  </tile>
  <tile id="1259">
   <properties>
    <property name="NoSpawn" value="All"/>
    <property name="Type" value="Dirt"/>
   </properties>
  </tile>
  <tile id="1261">
   <properties>
    <property name="NoSpawn" value="All"/>
    <property name="Type" value="Dirt"/>
   </properties>
  </tile>
  <tile id="1263">
   <properties>
    <property name="Passable" type="bool" value="false"/>
    <property name="Water" type="bool" value="true"/>
   </properties>
  </tile>
  <tile id="1264">
   <properties>
    <property name="Passable" type="bool" value="false"/>
    <property name="Water" type="bool" value="true"/>
   </properties>
  </tile>
  <tile id="1265">
   <properties>
    <property name="Passable" type="bool" value="false"/>
    <property name="Water" type="bool" value="true"/>
   </properties>
  </tile>
  <tile id="1266">
   <properties>
    <property name="Passable" type="bool" value="false"/>
    <property name="Water" type="bool" value="true"/>
   </properties>
  </tile>
  <tile id="1267">
   <properties>
    <property name="Passable" type="bool" value="false"/>
    <property name="Water" type="bool" value="true"/>
   </properties>
  </tile>
  <tile id="1268">
   <properties>
    <property name="Passable" type="bool" value="false"/>
    <property name="Water" type="bool" value="true"/>
   </properties>
  </tile>
  <tile id="1269">
   <properties>
    <property name="Water" type="bool" value="true"/>
   </properties>
  </tile>
  <tile id="1270">
   <properties>
    <property name="Passable" type="bool" value="false"/>
    <property name="Water" type="bool" value="true"/>
   </properties>
  </tile>
  <tile id="1271">
   <properties>
    <property name="Passable" type="bool" value="false"/>
    <property name="Water" type="bool" value="true"/>
   </properties>
  </tile>
  <tile id="1272">
   <properties>
    <property name="Passable" type="bool" value="false"/>
    <property name="Water" type="bool" value="true"/>
   </properties>
  </tile>
  <tile id="1273">
   <properties>
    <property name="Passable" type="bool" value="false"/>
    <property name="Water" type="bool" value="true"/>
   </properties>
  </tile>
  <tile id="1274">
   <properties>
    <property name="Water" type="bool" value="true"/>
   </properties>
  </tile>
  <tile id="1277">
   <properties>
    <property name="Passable" value="F"/>
    <property name="Water" value="T"/>
   </properties>
  </tile>
  <tile id="1278">
   <properties>
    <property name="Passable" value="F"/>
    <property name="Water" value="T"/>
   </properties>
  </tile>
  <tile id="1279">
   <properties>
    <property name="Passable" value="F"/>
    <property name="Water" value="T"/>
   </properties>
  </tile>
  <tile id="1280">
   <properties>
    <property name="Passable" value="F"/>
    <property name="Water" value="T"/>
   </properties>
  </tile>
  <tile id="1281">
   <properties>
    <property name="Passable" value="F"/>
    <property name="Water" value="T"/>
   </properties>
  </tile>
  <tile id="1282">
   <properties>
    <property name="NoSpawn" value="All"/>
    <property name="Type" value="Dirt"/>
   </properties>
  </tile>
  <tile id="1283">
   <properties>
    <property name="NoSpawn" value="All"/>
    <property name="Type" value="Dirt"/>
   </properties>
  </tile>
  <tile id="1284">
   <properties>
    <property name="NoSpawn" value="All"/>
    <property name="Type" value="Dirt"/>
   </properties>
  </tile>
  <tile id="1285">
   <properties>
    <property name="NoSpawn" value="All"/>
    <property name="Type" value="Dirt"/>
   </properties>
  </tile>
  <tile id="1286">
   <properties>
    <property name="NoSpawn" value="All"/>
    <property name="Type" value="Dirt"/>
   </properties>
  </tile>
  <tile id="1287">
   <properties>
    <property name="NoSpawn" value="All"/>
    <property name="Type" value="Dirt"/>
   </properties>
  </tile>
  <tile id="1288">
   <properties>
    <property name="NoSpawn" value="All"/>
    <property name="Type" value="Dirt"/>
   </properties>
  </tile>
  <tile id="1289">
   <properties>
    <property name="NoSpawn" value="All"/>
    <property name="Type" value="Dirt"/>
   </properties>
  </tile>
  <tile id="1290">
   <properties>
    <property name="NoSpawn" value="All"/>
    <property name="Type" value="Dirt"/>
   </properties>
  </tile>
  <tile id="1291">
   <properties>
    <property name="NoSpawn" value="All"/>
    <property name="Type" value="Dirt"/>
   </properties>
  </tile>
  <tile id="1292">
   <properties>
    <property name="NoSpawn" value="All"/>
    <property name="Type" value="Dirt"/>
   </properties>
  </tile>
  <tile id="1293">
   <animation>
    <frame tileid="1293" duration="500"/>
    <frame tileid="1294" duration="500"/>
    <frame tileid="1295" duration="500"/>
    <frame tileid="1296" duration="500"/>
   </animation>
  </tile>
  <tile id="1297">
   <properties>
    <property name="Passable" type="bool" value="false"/>
    <property name="Water" type="bool" value="true"/>
   </properties>
  </tile>
  <tile id="1298">
   <properties>
    <property name="Passable" type="bool" value="false"/>
    <property name="Water" type="bool" value="true"/>
   </properties>
  </tile>
  <tile id="1299">
   <properties>
    <property name="Passable" type="bool" value="false"/>
    <property name="Water" type="bool" value="true"/>
   </properties>
  </tile>
  <tile id="1302">
   <properties>
    <property name="Passable" value="F"/>
    <property name="Water" value="T"/>
   </properties>
  </tile>
  <tile id="1303">
   <properties>
    <property name="Passable" value="F"/>
    <property name="Water" value="T"/>
   </properties>
  </tile>
  <tile id="1304">
   <properties>
    <property name="Passable" value="F"/>
    <property name="Water" value="T"/>
   </properties>
  </tile>
  <tile id="1305">
   <properties>
    <property name="Passable" value="F"/>
    <property name="Water" value="T"/>
   </properties>
  </tile>
  <tile id="1306">
   <properties>
    <property name="Passable" value="F"/>
    <property name="Water" value="T"/>
   </properties>
  </tile>
  <tile id="1309">
   <properties>
    <property name="NoSpawn" value="All"/>
    <property name="Type" value="Dirt"/>
   </properties>
  </tile>
  <tile id="1310">
   <properties>
    <property name="NoSpawn" value="All"/>
    <property name="Type" value="Dirt"/>
   </properties>
  </tile>
  <tile id="1311">
   <properties>
    <property name="NoSpawn" value="All"/>
    <property name="Type" value="Dirt"/>
   </properties>
  </tile>
  <tile id="1312">
   <properties>
    <property name="NoSpawn" value="All"/>
    <property name="Type" value="Dirt"/>
   </properties>
  </tile>
  <tile id="1313">
   <properties>
    <property name="NoSpawn" value="All"/>
    <property name="Type" value="Dirt"/>
   </properties>
  </tile>
  <tile id="1314">
   <properties>
    <property name="NoSpawn" value="All"/>
    <property name="Type" value="Dirt"/>
   </properties>
  </tile>
  <tile id="1315">
   <properties>
    <property name="NoSpawn" value="All"/>
    <property name="Type" value="Dirt"/>
   </properties>
  </tile>
  <tile id="1316">
   <properties>
    <property name="NoSpawn" value="All"/>
    <property name="Type" value="Dirt"/>
   </properties>
  </tile>
  <tile id="1317">
   <properties>
    <property name="NoSpawn" value="All"/>
    <property name="Type" value="Dirt"/>
   </properties>
  </tile>
  <tile id="1318">
   <animation>
    <frame tileid="1318" duration="500"/>
    <frame tileid="1319" duration="500"/>
    <frame tileid="1320" duration="500"/>
    <frame tileid="1321" duration="500"/>
   </animation>
  </tile>
  <tile id="1322">
   <properties>
    <property name="Passable" type="bool" value="false"/>
    <property name="Water" type="bool" value="true"/>
   </properties>
  </tile>
  <tile id="1323">
   <properties>
    <property name="Passable" type="bool" value="false"/>
    <property name="Water" type="bool" value="true"/>
   </properties>
  </tile>
  <tile id="1324">
   <properties>
    <property name="Passable" type="bool" value="false"/>
    <property name="Water" type="bool" value="true"/>
   </properties>
  </tile>
  <tile id="1633">
   <properties>
    <property name="NoSpawn" value="All"/>
    <property name="Type" value="Stone"/>
   </properties>
  </tile>
  <tile id="1634">
   <properties>
    <property name="NoSpawn" value="All"/>
    <property name="Type" value="Stone"/>
   </properties>
  </tile>
  <tile id="1635">
   <properties>
    <property name="NoSpawn" value="All"/>
    <property name="Type" value="Stone"/>
   </properties>
  </tile>
  <tile id="1637">
   <properties>
    <property name="NoSpawn" value="All"/>
    <property name="Type" value="Wood"/>
   </properties>
  </tile>
  <tile id="1638">
   <properties>
    <property name="NoSpawn" value="All"/>
    <property name="Type" value="Wood"/>
   </properties>
  </tile>
  <tile id="1639">
   <properties>
    <property name="NoSpawn" value="All"/>
    <property name="Type" value="Wood"/>
   </properties>
  </tile>
  <tile id="1658">
   <properties>
    <property name="NoSpawn" value="All"/>
    <property name="Type" value="Stone"/>
   </properties>
  </tile>
  <tile id="1660">
   <properties>
    <property name="NoSpawn" value="All"/>
    <property name="Type" value="Stone"/>
   </properties>
  </tile>
  <tile id="1662">
   <properties>
    <property name="NoSpawn" value="All"/>
    <property name="Type" value="Wood"/>
   </properties>
  </tile>
  <tile id="1663">
   <properties>
    <property name="NoSpawn" value="All"/>
    <property name="Type" value="Wood"/>
   </properties>
  </tile>
  <tile id="1664">
   <properties>
    <property name="NoSpawn" value="All"/>
    <property name="Type" value="Wood"/>
   </properties>
  </tile>
  <tile id="1683">
   <properties>
    <property name="NoSpawn" value="All"/>
    <property name="Type" value="Stone"/>
   </properties>
  </tile>
  <tile id="1685">
   <properties>
    <property name="NoSpawn" value="All"/>
    <property name="Type" value="Stone"/>
   </properties>
  </tile>
  <tile id="1687">
   <properties>
    <property name="NoSpawn" value="All"/>
    <property name="Type" value="Wood"/>
   </properties>
  </tile>
  <tile id="1688">
   <properties>
    <property name="NoSpawn" value="All"/>
    <property name="Type" value="Wood"/>
   </properties>
  </tile>
  <tile id="1689">
   <properties>
    <property name="NoSpawn" value="All"/>
    <property name="Type" value="Wood"/>
   </properties>
  </tile>
  <tile id="1708">
   <properties>
    <property name="NoSpawn" value="All"/>
    <property name="Type" value="Stone"/>
   </properties>
  </tile>
  <tile id="1710">
   <properties>
    <property name="NoSpawn" value="All"/>
    <property name="Type" value="Stone"/>
   </properties>
  </tile>
  <tile id="1718">
   <properties>
    <property name="Passable" value="F"/>
    <property name="Water" value="T"/>
   </properties>
  </tile>
  <tile id="1720">
   <animation>
    <frame tileid="1720" duration="1000"/>
    <frame tileid="1719" duration="1000"/>
   </animation>
  </tile>
  <tile id="1742">
   <properties>
    <property name="NoSpawn" value="All"/>
    <property name="Type" value="Stone"/>
   </properties>
  </tile>
  <tile id="1743">
   <properties>
    <property name="NoSpawn" value="All"/>
    <property name="Type" value="Stone"/>
   </properties>
  </tile>
  <tile id="1744">
   <properties>
    <property name="NoSpawn" value="All"/>
    <property name="Type" value="Stone"/>
   </properties>
  </tile>
  <tile id="1745">
   <properties>
    <property name="NoSpawn" value="All"/>
    <property name="Type" value="Stone"/>
   </properties>
  </tile>
  <tile id="1767">
   <properties>
    <property name="NoSpawn" value="All"/>
    <property name="Type" value="Stone"/>
   </properties>
  </tile>
  <tile id="1770">
   <properties>
    <property name="NoSpawn" value="All"/>
    <property name="Type" value="Stone"/>
   </properties>
  </tile>
  <tile id="1775">
   <properties>
    <property name="NoSpawn" value="All"/>
    <property name="Type" value="Wood"/>
   </properties>
  </tile>
  <tile id="1776">
   <properties>
    <property name="NoSpawn" value="All"/>
    <property name="Type" value="Wood"/>
   </properties>
  </tile>
  <tile id="1777">
   <properties>
    <property name="NoSpawn" value="All"/>
    <property name="Type" value="Wood"/>
   </properties>
  </tile>
  <tile id="1778">
   <properties>
    <property name="NoSpawn" value="All"/>
    <property name="Type" value="Wood"/>
   </properties>
  </tile>
  <tile id="1779">
   <properties>
    <property name="NoSpawn" value="All"/>
    <property name="Type" value="Wood"/>
   </properties>
  </tile>
  <tile id="1784">
   <properties>
    <property name="NoSpawn" value="All"/>
    <property name="Type" value="Wood"/>
   </properties>
  </tile>
  <tile id="1785">
   <properties>
    <property name="NoSpawn" value="All"/>
    <property name="Type" value="Wood"/>
   </properties>
  </tile>
  <tile id="1786">
   <properties>
    <property name="NoSpawn" value="All"/>
    <property name="Type" value="Wood"/>
   </properties>
  </tile>
  <tile id="1787">
   <properties>
    <property name="NoSpawn" value="All"/>
    <property name="Type" value="Wood"/>
   </properties>
  </tile>
  <tile id="1788">
   <properties>
    <property name="NoSpawn" value="All"/>
    <property name="Type" value="Wood"/>
   </properties>
  </tile>
  <tile id="1789">
   <properties>
    <property name="NoSpawn" value="All"/>
    <property name="Type" value="Wood"/>
   </properties>
  </tile>
  <tile id="1790">
   <properties>
    <property name="NoSpawn" value="All"/>
    <property name="Type" value="Wood"/>
   </properties>
  </tile>
  <tile id="1791">
   <properties>
    <property name="NoSpawn" value="All"/>
    <property name="Type" value="Wood"/>
   </properties>
  </tile>
  <tile id="1792">
   <properties>
    <property name="NoSpawn" value="All"/>
    <property name="Type" value="Stone"/>
   </properties>
  </tile>
  <tile id="1795">
   <properties>
    <property name="NoSpawn" value="All"/>
    <property name="Type" value="Stone"/>
   </properties>
  </tile>
  <tile id="1800">
   <properties>
    <property name="NoSpawn" value="All"/>
    <property name="Type" value="Wood"/>
   </properties>
  </tile>
  <tile id="1801">
   <properties>
    <property name="NoSpawn" value="All"/>
    <property name="Type" value="Wood"/>
   </properties>
  </tile>
  <tile id="1802">
   <properties>
    <property name="NoSpawn" value="All"/>
    <property name="Type" value="Wood"/>
   </properties>
  </tile>
  <tile id="1803">
   <properties>
    <property name="NoSpawn" value="All"/>
    <property name="Type" value="Wood"/>
   </properties>
  </tile>
  <tile id="1804">
   <properties>
    <property name="NoSpawn" value="All"/>
    <property name="Type" value="Wood"/>
   </properties>
  </tile>
  <tile id="1809">
   <properties>
    <property name="NoSpawn" value="All"/>
    <property name="Type" value="Wood"/>
   </properties>
  </tile>
  <tile id="1810">
   <properties>
    <property name="NoSpawn" value="All"/>
    <property name="Type" value="Wood"/>
   </properties>
  </tile>
  <tile id="1811">
   <properties>
    <property name="NoSpawn" value="All"/>
    <property name="Type" value="Wood"/>
   </properties>
  </tile>
  <tile id="1812">
   <properties>
    <property name="NoSpawn" value="All"/>
    <property name="Type" value="Wood"/>
   </properties>
  </tile>
  <tile id="1813">
   <properties>
    <property name="NoSpawn" value="All"/>
    <property name="Type" value="Wood"/>
   </properties>
  </tile>
  <tile id="1814">
   <properties>
    <property name="NoSpawn" value="All"/>
    <property name="Type" value="Wood"/>
   </properties>
  </tile>
  <tile id="1815">
   <properties>
    <property name="NoSpawn" value="All"/>
    <property name="Type" value="Wood"/>
   </properties>
  </tile>
  <tile id="1816">
   <properties>
    <property name="NoSpawn" value="All"/>
    <property name="Type" value="Wood"/>
   </properties>
  </tile>
  <tile id="1817">
   <properties>
    <property name="NoSpawn" value="All"/>
    <property name="Type" value="Stone"/>
   </properties>
  </tile>
  <tile id="1820">
   <properties>
    <property name="NoSpawn" value="All"/>
    <property name="Type" value="Stone"/>
   </properties>
  </tile>
  <tile id="1851">
   <properties>
    <property name="Buildable" type="bool" value="true"/>
    <property name="Diggable" type="bool" value="true"/>
    <property name="Type" value="Grass"/>
   </properties>
  </tile>
  <tile id="1852">
   <properties>
    <property name="NoSpawn" value="All"/>
    <property name="Type" value="Grass"/>
   </properties>
  </tile>
  <tile id="1865">
   <properties>
    <property name="NoSpawn" value="All"/>
    <property name="Type" value="Grass"/>
   </properties>
  </tile>
  <tile id="1937">
   <properties>
    <property name="Buildable" type="bool" value="true"/>
    <property name="NoSpawn" value="All"/>
    <property name="Type" value="Wood"/>
   </properties>
  </tile>
  <tile id="1957">
   <properties>
    <property name="Type" value="Wood"/>
   </properties>
  </tile>
  <tile id="1958">
   <properties>
    <property name="Type" value="Wood"/>
   </properties>
  </tile>
  <tile id="1962">
   <properties>
    <property name="Buildable" type="bool" value="true"/>
    <property name="NoSpawn" value="All"/>
    <property name="Type" value="Wood"/>
   </properties>
  </tile>
  <tile id="1963">
   <properties>
    <property name="Buildable" type="bool" value="true"/>
    <property name="NoSpawn" value="All"/>
    <property name="Type" value="Wood"/>
   </properties>
  </tile>
  <tile id="1964">
   <properties>
    <property name="NoFurniture" type="bool" value="true"/>
    <property name="NoSpawn" value="All"/>
    <property name="Type" value="Stone"/>
    <property name="placeable" value="F"/>
   </properties>
  </tile>
  <tile id="1965">
   <properties>
    <property name="NoFurniture" type="bool" value="true"/>
    <property name="NoSpawn" value="All"/>
    <property name="Type" value="Stone"/>
    <property name="placeable" value="F"/>
   </properties>
  </tile>
  <tile id="1966">
   <properties>
    <property name="NoFurniture" type="bool" value="true"/>
    <property name="NoSpawn" value="All"/>
    <property name="Type" value="Stone"/>
    <property name="placeable" value="F"/>
   </properties>
  </tile>
 </tileset>
 <tileset firstgid="2040" name="x04 - spring_island_tilesheet_1" tilewidth="16" tileheight="16" tilecount="1280" columns="32">
  <image source="spring_island_tilesheet_1.png" width="512" height="640"/>
  <tile id="7">
   <properties>
    <property name="Passable" value="F"/>
    <property name="Water" value="T"/>
   </properties>
  </tile>
  <tile id="8">
   <properties>
    <property name="Passable" value="F"/>
    <property name="Water" value="T"/>
   </properties>
  </tile>
  <tile id="33">
   <properties>
    <property name="BeachSpawn" value="T"/>
    <property name="Buildable" value="T"/>
    <property name="Diggable" value="T"/>
    <property name="NoSprinklers" value="T"/>
    <property name="Type" value="Dirt"/>
   </properties>
  </tile>
  <tile id="34">
   <properties>
    <property name="BeachSpawn" value="T"/>
    <property name="Buildable" value="T"/>
    <property name="Diggable" value="T"/>
    <property name="NoSprinklers" value="T"/>
    <property name="Type" value="Dirt"/>
   </properties>
  </tile>
  <tile id="35">
   <properties>
    <property name="BeachSpawn" value="T"/>
    <property name="Buildable" value="T"/>
    <property name="Diggable" value="T"/>
    <property name="NoSprinklers" value="T"/>
    <property name="Type" value="Dirt"/>
   </properties>
  </tile>
  <tile id="36">
   <properties>
    <property name="BeachSpawn" value="T"/>
    <property name="Buildable" value="T"/>
    <property name="Diggable" value="T"/>
    <property name="NoSprinklers" value="T"/>
    <property name="Type" value="Dirt"/>
   </properties>
  </tile>
  <tile id="37">
   <properties>
    <property name="BeachSpawn" value="T"/>
    <property name="Buildable" value="T"/>
    <property name="Diggable" value="T"/>
    <property name="NoSprinklers" value="T"/>
    <property name="Type" value="Dirt"/>
   </properties>
  </tile>
  <tile id="38">
   <properties>
    <property name="BeachSpawn" value="T"/>
    <property name="Buildable" value="T"/>
    <property name="Diggable" value="T"/>
    <property name="NoSprinklers" value="T"/>
    <property name="Type" value="Dirt"/>
   </properties>
  </tile>
  <tile id="39">
   <properties>
    <property name="BeachSpawn" value="T"/>
    <property name="Buildable" value="T"/>
    <property name="Diggable" value="T"/>
    <property name="NoSprinklers" value="T"/>
    <property name="Type" value="Dirt"/>
   </properties>
  </tile>
  <tile id="40">
   <properties>
    <property name="BeachSpawn" value="T"/>
    <property name="Buildable" value="T"/>
    <property name="Diggable" value="T"/>
    <property name="NoSprinklers" value="T"/>
    <property name="Type" value="Dirt"/>
   </properties>
  </tile>
  <tile id="41">
   <properties>
    <property name="BeachSpawn" value="T"/>
    <property name="Buildable" value="T"/>
    <property name="Diggable" value="T"/>
    <property name="NoSprinklers" value="T"/>
    <property name="Type" value="Dirt"/>
   </properties>
  </tile>
  <tile id="64">
   <properties>
    <property name="BeachSpawn" value="T"/>
    <property name="Buildable" value="T"/>
    <property name="Diggable" value="T"/>
    <property name="NoSprinklers" value="T"/>
    <property name="Type" value="Dirt"/>
   </properties>
  </tile>
  <tile id="65">
   <properties>
    <property name="BeachSpawn" value="T"/>
    <property name="Buildable" value="T"/>
    <property name="Diggable" value="T"/>
    <property name="NoSprinklers" value="T"/>
    <property name="Type" value="Dirt"/>
   </properties>
  </tile>
  <tile id="66">
   <properties>
    <property name="BeachSpawn" value="T"/>
    <property name="Buildable" value="T"/>
    <property name="Diggable" value="T"/>
    <property name="NoSprinklers" value="T"/>
    <property name="Type" value="Dirt"/>
   </properties>
  </tile>
  <tile id="67">
   <properties>
    <property name="BeachSpawn" value="T"/>
    <property name="Buildable" value="T"/>
    <property name="Diggable" value="T"/>
    <property name="NoSprinklers" value="T"/>
    <property name="Type" value="Dirt"/>
   </properties>
  </tile>
  <tile id="71">
   <properties>
    <property name="BeachSpawn" value="T"/>
    <property name="Buildable" value="T"/>
    <property name="Diggable" value="T"/>
    <property name="NoSprinklers" value="T"/>
    <property name="Type" value="Dirt"/>
   </properties>
  </tile>
  <tile id="72">
   <properties>
    <property name="BeachSpawn" value="T"/>
    <property name="Buildable" value="T"/>
    <property name="Diggable" value="T"/>
    <property name="NoSprinklers" value="T"/>
    <property name="Type" value="Dirt"/>
   </properties>
  </tile>
  <tile id="73">
   <properties>
    <property name="BeachSpawn" value="T"/>
    <property name="Buildable" value="T"/>
    <property name="Diggable" value="T"/>
    <property name="NoSprinklers" value="T"/>
    <property name="Type" value="Dirt"/>
   </properties>
  </tile>
  <tile id="96">
   <properties>
    <property name="BeachSpawn" value="T"/>
    <property name="Buildable" value="T"/>
    <property name="Diggable" value="T"/>
    <property name="NoSprinklers" value="T"/>
    <property name="Type" value="Dirt"/>
   </properties>
  </tile>
  <tile id="97">
   <properties>
    <property name="BeachSpawn" value="T"/>
    <property name="Buildable" value="T"/>
    <property name="Diggable" value="T"/>
    <property name="NoSprinklers" value="T"/>
    <property name="Type" value="Dirt"/>
   </properties>
  </tile>
  <tile id="98">
   <properties>
    <property name="BeachSpawn" value="T"/>
    <property name="Buildable" value="T"/>
    <property name="Diggable" value="T"/>
    <property name="NoSprinklers" value="T"/>
    <property name="Type" value="Dirt"/>
   </properties>
  </tile>
  <tile id="99">
   <properties>
    <property name="BeachSpawn" value="T"/>
    <property name="Buildable" value="T"/>
    <property name="Diggable" value="T"/>
    <property name="NoSprinklers" value="T"/>
    <property name="Type" value="Dirt"/>
   </properties>
  </tile>
  <tile id="103">
   <properties>
    <property name="BeachSpawn" value="T"/>
    <property name="Buildable" value="T"/>
    <property name="Diggable" value="T"/>
    <property name="NoSprinklers" value="T"/>
    <property name="Type" value="Dirt"/>
   </properties>
  </tile>
  <tile id="104">
   <properties>
    <property name="BeachSpawn" value="T"/>
    <property name="Buildable" value="T"/>
    <property name="Diggable" value="T"/>
    <property name="NoSprinklers" value="T"/>
    <property name="Type" value="Dirt"/>
   </properties>
  </tile>
  <tile id="128">
   <properties>
    <property name="BeachSpawn" value="T"/>
    <property name="Buildable" value="T"/>
    <property name="Diggable" value="T"/>
    <property name="NoSprinklers" value="T"/>
    <property name="Type" value="Dirt"/>
   </properties>
  </tile>
  <tile id="129">
   <properties>
    <property name="BeachSpawn" value="T"/>
    <property name="Buildable" value="T"/>
    <property name="Diggable" value="T"/>
    <property name="NoSprinklers" value="T"/>
    <property name="Type" value="Dirt"/>
   </properties>
  </tile>
  <tile id="130">
   <properties>
    <property name="BeachSpawn" value="T"/>
    <property name="Buildable" value="T"/>
    <property name="Diggable" value="T"/>
    <property name="NoSprinklers" value="T"/>
    <property name="Type" value="Dirt"/>
   </properties>
  </tile>
  <tile id="131">
   <properties>
    <property name="BeachSpawn" value="T"/>
    <property name="Buildable" value="T"/>
    <property name="Diggable" value="T"/>
    <property name="NoSprinklers" value="T"/>
    <property name="Type" value="Dirt"/>
   </properties>
  </tile>
  <tile id="135">
   <properties>
    <property name="Passable" value="F"/>
    <property name="Water" value="T"/>
   </properties>
  </tile>
  <tile id="160">
   <properties>
    <property name="Passable" value="F"/>
    <property name="Water" value="T"/>
   </properties>
  </tile>
  <tile id="161">
   <properties>
    <property name="Passable" value="F"/>
    <property name="Water" value="T"/>
   </properties>
  </tile>
  <tile id="162">
   <properties>
    <property name="Passable" value="F"/>
    <property name="Water" value="T"/>
   </properties>
  </tile>
  <tile id="163">
   <properties>
    <property name="Passable" value="F"/>
    <property name="Water" value="T"/>
   </properties>
  </tile>
  <tile id="164">
   <properties>
    <property name="Passable" value="F"/>
    <property name="Water" value="T"/>
   </properties>
  </tile>
  <tile id="165">
   <properties>
    <property name="Passable" value="F"/>
    <property name="Water" value="T"/>
   </properties>
  </tile>
  <tile id="166">
   <properties>
    <property name="Passable" value="F"/>
    <property name="Water" value="T"/>
   </properties>
  </tile>
  <tile id="167">
   <properties>
    <property name="Passable" value="F"/>
    <property name="Water" value="T"/>
   </properties>
  </tile>
  <tile id="168">
   <properties>
    <property name="Passable" value="F"/>
    <property name="Water" value="T"/>
   </properties>
  </tile>
  <tile id="192">
   <properties>
    <property name="Passable" value="F"/>
    <property name="Water" value="T"/>
   </properties>
  </tile>
  <tile id="193">
   <properties>
    <property name="Passable" value="F"/>
    <property name="Water" value="T"/>
   </properties>
  </tile>
  <tile id="197">
   <properties>
    <property name="Passable" value="F"/>
    <property name="Water" value="T"/>
   </properties>
  </tile>
  <tile id="198">
   <properties>
    <property name="Passable" value="F"/>
    <property name="Water" value="T"/>
   </properties>
  </tile>
  <tile id="199">
   <properties>
    <property name="Passable" value="F"/>
    <property name="Water" value="T"/>
   </properties>
  </tile>
  <tile id="200">
   <properties>
    <property name="Passable" value="F"/>
    <property name="Water" value="T"/>
   </properties>
  </tile>
  <tile id="225">
   <properties>
    <property name="Passable" value="F"/>
    <property name="Water" value="T"/>
   </properties>
  </tile>
  <tile id="229">
   <properties>
    <property name="Passable" value="F"/>
    <property name="Water" value="T"/>
   </properties>
  </tile>
  <tile id="230">
   <properties>
    <property name="Passable" value="F"/>
    <property name="Water" value="T"/>
   </properties>
  </tile>
  <tile id="231">
   <properties>
    <property name="Passable" value="F"/>
    <property name="Water" value="T"/>
   </properties>
  </tile>
  <tile id="232">
   <properties>
    <property name="Passable" value="F"/>
    <property name="Water" value="T"/>
   </properties>
  </tile>
  <tile id="233">
   <properties>
    <property name="Passable" value="T"/>
    <property name="Type" value="Dirt"/>
   </properties>
   <animation>
    <frame tileid="233" duration="250"/>
    <frame tileid="233" duration="250"/>
    <frame tileid="233" duration="250"/>
    <frame tileid="261" duration="250"/>
    <frame tileid="262" duration="250"/>
    <frame tileid="263" duration="250"/>
    <frame tileid="264" duration="250"/>
    <frame tileid="264" duration="250"/>
    <frame tileid="265" duration="250"/>
    <frame tileid="266" duration="250"/>
    <frame tileid="267" duration="250"/>
    <frame tileid="261" duration="250"/>
    <frame tileid="233" duration="250"/>
   </animation>
  </tile>
  <tile id="234">
   <properties>
    <property name="Passable" value="F"/>
    <property name="Water" value="T"/>
   </properties>
  </tile>
  <tile id="235">
   <properties>
    <property name="Passable" value="F"/>
    <property name="Water" value="T"/>
   </properties>
  </tile>
  <tile id="236">
   <properties>
    <property name="Passable" value="F"/>
    <property name="Water" value="T"/>
   </properties>
  </tile>
  <tile id="256">
   <properties>
    <property name="Passable" value="F"/>
    <property name="Water" value="T"/>
   </properties>
  </tile>
  <tile id="257">
   <properties>
    <property name="Passable" value="F"/>
    <property name="Water" value="T"/>
   </properties>
  </tile>
  <tile id="261">
   <properties>
    <property name="Passable" value="T"/>
    <property name="Type" value="Dirt"/>
   </properties>
  </tile>
  <tile id="262">
   <properties>
    <property name="Passable" value="T"/>
    <property name="Type" value="Dirt"/>
   </properties>
  </tile>
  <tile id="263">
   <properties>
    <property name="Passable" value="T"/>
    <property name="Type" value="Dirt"/>
   </properties>
  </tile>
  <tile id="264">
   <properties>
    <property name="Passable" value="T"/>
    <property name="Type" value="Dirt"/>
   </properties>
  </tile>
  <tile id="265">
   <properties>
    <property name="Passable" value="T"/>
    <property name="Type" value="Dirt"/>
   </properties>
  </tile>
  <tile id="266">
   <properties>
    <property name="Passable" value="T"/>
    <property name="Type" value="Dirt"/>
   </properties>
  </tile>
  <tile id="267">
   <properties>
    <property name="Passable" value="T"/>
    <property name="Type" value="Dirt"/>
   </properties>
  </tile>
  <tile id="268">
   <properties>
    <property name="Passable" value="F"/>
    <property name="Water" value="T"/>
   </properties>
  </tile>
  <tile id="288">
   <properties>
    <property name="Passable" value="F"/>
    <property name="Water" value="T"/>
   </properties>
  </tile>
  <tile id="289">
   <properties>
    <property name="Passable" value="F"/>
    <property name="Water" value="T"/>
   </properties>
  </tile>
  <tile id="293">
   <properties>
    <property name="Passable" value="T"/>
    <property name="Type" value="Dirt"/>
   </properties>
   <animation>
    <frame tileid="293" duration="250"/>
    <frame tileid="293" duration="250"/>
    <frame tileid="293" duration="250"/>
    <frame tileid="293" duration="250"/>
    <frame tileid="294" duration="250"/>
    <frame tileid="295" duration="250"/>
    <frame tileid="296" duration="250"/>
    <frame tileid="296" duration="250"/>
    <frame tileid="297" duration="250"/>
    <frame tileid="298" duration="250"/>
    <frame tileid="299" duration="250"/>
    <frame tileid="293" duration="250"/>
    <frame tileid="293" duration="250"/>
   </animation>
  </tile>
  <tile id="294">
   <properties>
    <property name="Passable" value="T"/>
    <property name="Type" value="Dirt"/>
   </properties>
  </tile>
  <tile id="295">
   <properties>
    <property name="Passable" value="T"/>
    <property name="Type" value="Dirt"/>
   </properties>
  </tile>
  <tile id="296">
   <properties>
    <property name="Passable" value="T"/>
    <property name="Type" value="Dirt"/>
   </properties>
  </tile>
  <tile id="297">
   <properties>
    <property name="Passable" value="T"/>
    <property name="Type" value="Dirt"/>
   </properties>
  </tile>
  <tile id="298">
   <properties>
    <property name="Passable" value="T"/>
    <property name="Type" value="Dirt"/>
   </properties>
  </tile>
  <tile id="299">
   <properties>
    <property name="Passable" value="T"/>
    <property name="Type" value="Dirt"/>
   </properties>
  </tile>
  <tile id="300">
   <properties>
    <property name="Passable" value="F"/>
    <property name="Water" value="T"/>
   </properties>
  </tile>
  <tile id="303">
   <properties>
    <property name="Buildable" value="T"/>
    <property name="NoSprinklers" value="T"/>
    <property name="Type" value="Dirt"/>
   </properties>
  </tile>
  <tile id="304">
   <properties>
    <property name="NoSpawn" value="All"/>
    <property name="Type" value="Stone"/>
   </properties>
  </tile>
  <tile id="320">
   <properties>
    <property name="Passable" value="F"/>
    <property name="Water" value="T"/>
   </properties>
  </tile>
  <tile id="321">
   <properties>
    <property name="Passable" value="F"/>
    <property name="Water" value="T"/>
   </properties>
  </tile>
  <tile id="325">
   <properties>
    <property name="Passable" value="T"/>
    <property name="Type" value="Dirt"/>
   </properties>
   <animation>
    <frame tileid="325" duration="250"/>
    <frame tileid="325" duration="250"/>
    <frame tileid="325" duration="250"/>
    <frame tileid="325" duration="250"/>
    <frame tileid="326" duration="250"/>
    <frame tileid="327" duration="250"/>
    <frame tileid="328" duration="250"/>
    <frame tileid="328" duration="250"/>
    <frame tileid="329" duration="250"/>
    <frame tileid="330" duration="250"/>
    <frame tileid="331" duration="250"/>
    <frame tileid="325" duration="250"/>
    <frame tileid="325" duration="250"/>
   </animation>
  </tile>
  <tile id="326">
   <properties>
    <property name="Passable" value="T"/>
    <property name="Type" value="Dirt"/>
   </properties>
  </tile>
  <tile id="327">
   <properties>
    <property name="Passable" value="T"/>
    <property name="Type" value="Dirt"/>
   </properties>
  </tile>
  <tile id="328">
   <properties>
    <property name="Passable" value="T"/>
    <property name="Type" value="Dirt"/>
   </properties>
  </tile>
  <tile id="329">
   <properties>
    <property name="Passable" value="T"/>
    <property name="Type" value="Dirt"/>
   </properties>
  </tile>
  <tile id="330">
   <properties>
    <property name="Passable" value="T"/>
    <property name="Type" value="Dirt"/>
   </properties>
  </tile>
  <tile id="331">
   <properties>
    <property name="Passable" value="T"/>
    <property name="Type" value="Dirt"/>
   </properties>
  </tile>
  <tile id="335">
   <properties>
    <property name="Passable" value="F"/>
    <property name="Water" value="T"/>
   </properties>
  </tile>
  <tile id="336">
   <properties>
    <property name="NoSpawn" value="All"/>
    <property name="Type" value="Stone"/>
   </properties>
  </tile>
  <tile id="357">
   <properties>
    <property name="Passable" value="T"/>
    <property name="Type" value="Dirt"/>
   </properties>
   <animation>
    <frame tileid="357" duration="250"/>
    <frame tileid="357" duration="250"/>
    <frame tileid="357" duration="250"/>
    <frame tileid="357" duration="250"/>
    <frame tileid="358" duration="250"/>
    <frame tileid="359" duration="250"/>
    <frame tileid="360" duration="250"/>
    <frame tileid="360" duration="250"/>
    <frame tileid="361" duration="250"/>
    <frame tileid="362" duration="250"/>
    <frame tileid="363" duration="250"/>
    <frame tileid="357" duration="250"/>
    <frame tileid="357" duration="250"/>
   </animation>
  </tile>
  <tile id="358">
   <properties>
    <property name="Passable" value="T"/>
    <property name="Type" value="Dirt"/>
   </properties>
  </tile>
  <tile id="359">
   <properties>
    <property name="Passable" value="T"/>
    <property name="Type" value="Dirt"/>
   </properties>
  </tile>
  <tile id="360">
   <properties>
    <property name="Passable" value="T"/>
    <property name="Type" value="Dirt"/>
   </properties>
  </tile>
  <tile id="361">
   <properties>
    <property name="Passable" value="T"/>
    <property name="Type" value="Dirt"/>
   </properties>
  </tile>
  <tile id="362">
   <properties>
    <property name="Passable" value="T"/>
    <property name="Type" value="Dirt"/>
   </properties>
  </tile>
  <tile id="363">
   <properties>
    <property name="Passable" value="T"/>
    <property name="Type" value="Dirt"/>
   </properties>
  </tile>
  <tile id="368">
   <properties>
    <property name="Passable" value="F"/>
    <property name="Water" value="T"/>
   </properties>
  </tile>
  <tile id="389">
   <properties>
    <property name="Passable" value="T"/>
    <property name="Type" value="Dirt"/>
   </properties>
   <animation>
    <frame tileid="389" duration="250"/>
    <frame tileid="389" duration="250"/>
    <frame tileid="389" duration="250"/>
    <frame tileid="389" duration="250"/>
    <frame tileid="390" duration="250"/>
    <frame tileid="391" duration="250"/>
    <frame tileid="392" duration="250"/>
    <frame tileid="392" duration="250"/>
    <frame tileid="393" duration="250"/>
    <frame tileid="394" duration="250"/>
    <frame tileid="395" duration="250"/>
    <frame tileid="389" duration="250"/>
    <frame tileid="389" duration="250"/>
   </animation>
  </tile>
  <tile id="390">
   <properties>
    <property name="Passable" value="T"/>
    <property name="Type" value="Dirt"/>
   </properties>
  </tile>
  <tile id="391">
   <properties>
    <property name="Passable" value="T"/>
    <property name="Type" value="Dirt"/>
   </properties>
  </tile>
  <tile id="392">
   <properties>
    <property name="Passable" value="T"/>
    <property name="Type" value="Dirt"/>
   </properties>
  </tile>
  <tile id="393">
   <properties>
    <property name="Passable" value="T"/>
    <property name="Type" value="Dirt"/>
   </properties>
  </tile>
  <tile id="394">
   <properties>
    <property name="Passable" value="T"/>
    <property name="Type" value="Dirt"/>
   </properties>
  </tile>
  <tile id="395">
   <properties>
    <property name="Passable" value="T"/>
    <property name="Type" value="Dirt"/>
   </properties>
  </tile>
  <tile id="421">
   <properties>
    <property name="Passable" value="T"/>
    <property name="Type" value="Dirt"/>
   </properties>
   <animation>
    <frame tileid="421" duration="250"/>
    <frame tileid="421" duration="250"/>
    <frame tileid="421" duration="250"/>
    <frame tileid="421" duration="250"/>
    <frame tileid="422" duration="250"/>
    <frame tileid="423" duration="250"/>
    <frame tileid="424" duration="250"/>
    <frame tileid="424" duration="250"/>
    <frame tileid="425" duration="250"/>
    <frame tileid="426" duration="250"/>
    <frame tileid="427" duration="250"/>
    <frame tileid="421" duration="250"/>
    <frame tileid="421" duration="250"/>
   </animation>
  </tile>
  <tile id="422">
   <properties>
    <property name="Passable" value="T"/>
    <property name="Type" value="Dirt"/>
   </properties>
  </tile>
  <tile id="423">
   <properties>
    <property name="Passable" value="T"/>
    <property name="Type" value="Dirt"/>
   </properties>
  </tile>
  <tile id="424">
   <properties>
    <property name="Passable" value="T"/>
    <property name="Type" value="Dirt"/>
   </properties>
  </tile>
  <tile id="425">
   <properties>
    <property name="Passable" value="T"/>
    <property name="Type" value="Dirt"/>
   </properties>
  </tile>
  <tile id="426">
   <properties>
    <property name="Passable" value="T"/>
    <property name="Type" value="Dirt"/>
   </properties>
  </tile>
  <tile id="427">
   <properties>
    <property name="Passable" value="T"/>
    <property name="Type" value="Dirt"/>
   </properties>
  </tile>
  <tile id="453">
   <properties>
    <property name="Passable" value="T"/>
    <property name="Type" value="Dirt"/>
   </properties>
   <animation>
    <frame tileid="453" duration="250"/>
    <frame tileid="453" duration="250"/>
    <frame tileid="453" duration="250"/>
    <frame tileid="453" duration="250"/>
    <frame tileid="454" duration="250"/>
    <frame tileid="455" duration="250"/>
    <frame tileid="456" duration="250"/>
    <frame tileid="456" duration="250"/>
    <frame tileid="457" duration="250"/>
    <frame tileid="458" duration="250"/>
    <frame tileid="459" duration="250"/>
    <frame tileid="453" duration="250"/>
    <frame tileid="453" duration="250"/>
   </animation>
  </tile>
  <tile id="454">
   <properties>
    <property name="Passable" value="T"/>
    <property name="Type" value="Dirt"/>
   </properties>
  </tile>
  <tile id="455">
   <properties>
    <property name="Passable" value="T"/>
    <property name="Type" value="Dirt"/>
   </properties>
  </tile>
  <tile id="456">
   <properties>
    <property name="Passable" value="T"/>
    <property name="Type" value="Dirt"/>
   </properties>
  </tile>
  <tile id="457">
   <properties>
    <property name="Passable" value="T"/>
    <property name="Type" value="Dirt"/>
   </properties>
  </tile>
  <tile id="458">
   <properties>
    <property name="Passable" value="T"/>
    <property name="Type" value="Dirt"/>
   </properties>
  </tile>
  <tile id="459">
   <properties>
    <property name="Passable" value="T"/>
    <property name="Type" value="Dirt"/>
   </properties>
  </tile>
  <tile id="485">
   <properties>
    <property name="Passable" value="T"/>
    <property name="Type" value="Dirt"/>
   </properties>
   <animation>
    <frame tileid="485" duration="250"/>
    <frame tileid="485" duration="250"/>
    <frame tileid="485" duration="250"/>
    <frame tileid="485" duration="250"/>
    <frame tileid="486" duration="250"/>
    <frame tileid="487" duration="250"/>
    <frame tileid="488" duration="250"/>
    <frame tileid="488" duration="250"/>
    <frame tileid="489" duration="250"/>
    <frame tileid="490" duration="250"/>
    <frame tileid="491" duration="250"/>
    <frame tileid="485" duration="250"/>
    <frame tileid="485" duration="250"/>
   </animation>
  </tile>
  <tile id="486">
   <properties>
    <property name="Passable" value="T"/>
    <property name="Type" value="Dirt"/>
   </properties>
  </tile>
  <tile id="487">
   <properties>
    <property name="Passable" value="T"/>
    <property name="Type" value="Dirt"/>
   </properties>
  </tile>
  <tile id="488">
   <properties>
    <property name="Passable" value="T"/>
    <property name="Type" value="Dirt"/>
   </properties>
  </tile>
  <tile id="489">
   <properties>
    <property name="Passable" value="T"/>
    <property name="Type" value="Dirt"/>
   </properties>
  </tile>
  <tile id="490">
   <properties>
    <property name="Passable" value="T"/>
    <property name="Type" value="Dirt"/>
   </properties>
  </tile>
  <tile id="491">
   <properties>
    <property name="Passable" value="T"/>
    <property name="Type" value="Dirt"/>
   </properties>
  </tile>
  <tile id="517">
   <properties>
    <property name="NoSpawn" value="All"/>
    <property name="Type" value="Wood"/>
   </properties>
  </tile>
  <tile id="518">
   <properties>
    <property name="NoSpawn" value="All"/>
    <property name="Type" value="Wood"/>
   </properties>
  </tile>
  <tile id="519">
   <properties>
    <property name="NoSpawn" value="All"/>
    <property name="Type" value="Wood"/>
   </properties>
  </tile>
  <tile id="520">
   <properties>
    <property name="NoSpawn" value="All"/>
    <property name="Type" value="Wood"/>
   </properties>
  </tile>
  <tile id="521">
   <properties>
    <property name="NoSpawn" value="All"/>
    <property name="Type" value="Wood"/>
   </properties>
  </tile>
  <tile id="522">
   <properties>
    <property name="NoSpawn" value="All"/>
    <property name="Type" value="Wood"/>
   </properties>
  </tile>
  <tile id="549">
   <properties>
    <property name="NoSpawn" value="All"/>
    <property name="Type" value="Wood"/>
   </properties>
  </tile>
  <tile id="550">
   <properties>
    <property name="NoSpawn" value="All"/>
    <property name="Type" value="Wood"/>
   </properties>
  </tile>
  <tile id="551">
   <properties>
    <property name="NoSpawn" value="All"/>
    <property name="Type" value="Wood"/>
   </properties>
  </tile>
  <tile id="552">
   <properties>
    <property name="NoSpawn" value="All"/>
    <property name="Type" value="Wood"/>
   </properties>
  </tile>
  <tile id="553">
   <properties>
    <property name="NoSpawn" value="All"/>
    <property name="Type" value="Wood"/>
   </properties>
  </tile>
  <tile id="554">
   <properties>
    <property name="NoSpawn" value="All"/>
    <property name="Type" value="Wood"/>
   </properties>
  </tile>
  <tile id="576">
   <properties>
    <property name="Buildable" value="T"/>
    <property name="Diggable" value="T"/>
    <property name="Type" value="Grass"/>
   </properties>
  </tile>
  <tile id="577">
   <properties>
    <property name="Buildable" value="T"/>
    <property name="Diggable" value="T"/>
    <property name="Type" value="Grass"/>
   </properties>
  </tile>
  <tile id="580">
   <properties>
    <property name="Buildable" value="T"/>
    <property name="Diggable" value="T"/>
    <property name="Type" value="Grass"/>
   </properties>
  </tile>
  <tile id="581">
   <properties>
    <property name="NoSpawn" value="All"/>
    <property name="Type" value="Wood"/>
   </properties>
  </tile>
  <tile id="582">
   <properties>
    <property name="NoSpawn" value="All"/>
    <property name="Type" value="Wood"/>
   </properties>
  </tile>
  <tile id="583">
   <properties>
    <property name="NoSpawn" value="All"/>
    <property name="Type" value="Wood"/>
   </properties>
  </tile>
  <tile id="584">
   <properties>
    <property name="NoSpawn" value="All"/>
    <property name="Type" value="Wood"/>
   </properties>
  </tile>
  <tile id="585">
   <properties>
    <property name="NoSpawn" value="All"/>
    <property name="Type" value="Wood"/>
   </properties>
  </tile>
  <tile id="586">
   <properties>
    <property name="NoSpawn" value="All"/>
    <property name="Type" value="Wood"/>
   </properties>
  </tile>
  <tile id="588">
   <properties>
    <property name="Passable" value="F"/>
    <property name="Water" value="T"/>
   </properties>
  </tile>
  <tile id="589">
   <properties>
    <property name="Water" value="T"/>
   </properties>
  </tile>
  <tile id="590">
   <properties>
    <property name="Passable" value="F"/>
    <property name="Water" value="T"/>
   </properties>
  </tile>
  <tile id="591">
   <properties>
    <property name="Water" value="T"/>
   </properties>
  </tile>
  <tile id="592">
   <properties>
    <property name="Passable" value="F"/>
    <property name="Water" value="T"/>
   </properties>
  </tile>
  <tile id="593">
   <properties>
    <property name="Passable" value="F"/>
    <property name="Water" value="T"/>
   </properties>
  </tile>
  <tile id="608">
   <properties>
    <property name="Buildable" value="T"/>
    <property name="Diggable" value="T"/>
    <property name="Type" value="Grass"/>
   </properties>
  </tile>
  <tile id="610">
   <properties>
    <property name="Buildable" value="T"/>
    <property name="Diggable" value="T"/>
    <property name="Type" value="Grass"/>
   </properties>
  </tile>
  <tile id="611">
   <properties>
    <property name="Buildable" value="T"/>
    <property name="Diggable" value="T"/>
    <property name="Type" value="Grass"/>
   </properties>
  </tile>
  <tile id="612">
   <properties>
    <property name="Buildable" value="T"/>
    <property name="Diggable" value="T"/>
    <property name="Type" value="Grass"/>
   </properties>
  </tile>
  <tile id="613">
   <properties>
    <property name="Buildable" value="T"/>
    <property name="Diggable" value="T"/>
    <property name="Type" value="Grass"/>
   </properties>
  </tile>
  <tile id="619">
   <properties>
    <property name="Passable" value="F"/>
    <property name="Water" value="T"/>
   </properties>
  </tile>
  <tile id="620">
   <properties>
    <property name="Passable" value="F"/>
    <property name="Water" value="T"/>
   </properties>
  </tile>
  <tile id="621">
   <properties>
    <property name="Passable" value="F"/>
    <property name="Water" value="T"/>
   </properties>
  </tile>
  <tile id="624">
   <properties>
    <property name="Water" value="T"/>
   </properties>
  </tile>
  <tile id="625">
   <properties>
    <property name="Passable" value="F"/>
    <property name="Water" value="T"/>
   </properties>
  </tile>
  <tile id="626">
   <properties>
    <property name="Passable" value="F"/>
    <property name="Water" value="T"/>
   </properties>
  </tile>
  <tile id="640">
   <properties>
    <property name="Buildable" value="T"/>
    <property name="Diggable" value="T"/>
    <property name="Type" value="Grass"/>
   </properties>
  </tile>
  <tile id="641">
   <properties>
    <property name="Buildable" value="T"/>
    <property name="Diggable" value="T"/>
    <property name="Type" value="Grass"/>
   </properties>
  </tile>
  <tile id="642">
   <properties>
    <property name="Buildable" value="T"/>
    <property name="Diggable" value="T"/>
    <property name="Type" value="Grass"/>
   </properties>
  </tile>
  <tile id="643">
   <properties>
    <property name="Buildable" value="T"/>
    <property name="Diggable" value="T"/>
    <property name="Type" value="Grass"/>
   </properties>
  </tile>
  <tile id="644">
   <properties>
    <property name="Buildable" value="T"/>
    <property name="Diggable" value="T"/>
    <property name="Type" value="Grass"/>
   </properties>
  </tile>
  <tile id="645">
   <properties>
    <property name="Buildable" value="T"/>
    <property name="Diggable" value="T"/>
    <property name="Type" value="Grass"/>
   </properties>
  </tile>
  <tile id="646">
   <properties>
    <property name="Buildable" value="T"/>
    <property name="Diggable" value="T"/>
    <property name="Type" value="Grass"/>
   </properties>
  </tile>
  <tile id="651">
   <properties>
    <property name="Passable" value="T"/>
    <property name="Type" value="Dirt"/>
   </properties>
   <animation>
    <frame tileid="651" duration="250"/>
    <frame tileid="651" duration="250"/>
    <frame tileid="651" duration="250"/>
    <frame tileid="651" duration="250"/>
    <frame tileid="652" duration="250"/>
    <frame tileid="653" duration="250"/>
    <frame tileid="654" duration="250"/>
    <frame tileid="654" duration="250"/>
    <frame tileid="655" duration="250"/>
    <frame tileid="656" duration="250"/>
    <frame tileid="657" duration="250"/>
    <frame tileid="651" duration="250"/>
    <frame tileid="651" duration="250"/>
   </animation>
  </tile>
  <tile id="652">
   <properties>
    <property name="Passable" value="T"/>
    <property name="Type" value="Dirt"/>
   </properties>
  </tile>
  <tile id="653">
   <properties>
    <property name="Passable" value="T"/>
    <property name="Type" value="Dirt"/>
   </properties>
  </tile>
  <tile id="654">
   <properties>
    <property name="Passable" value="T"/>
    <property name="Type" value="Dirt"/>
   </properties>
  </tile>
  <tile id="655">
   <properties>
    <property name="Passable" value="T"/>
    <property name="Type" value="Dirt"/>
   </properties>
  </tile>
  <tile id="656">
   <properties>
    <property name="Passable" value="T"/>
    <property name="Type" value="Dirt"/>
   </properties>
  </tile>
  <tile id="657">
   <properties>
    <property name="Passable" value="T"/>
    <property name="Type" value="Dirt"/>
   </properties>
  </tile>
  <tile id="658">
   <properties>
    <property name="Passable" value="F"/>
    <property name="Water" value="T"/>
   </properties>
  </tile>
  <tile id="659">
   <properties>
    <property name="Passable" value="F"/>
    <property name="Water" value="T"/>
   </properties>
  </tile>
  <tile id="672">
   <properties>
    <property name="Buildable" value="T"/>
    <property name="Diggable" value="T"/>
    <property name="Type" value="Grass"/>
   </properties>
  </tile>
  <tile id="673">
   <properties>
    <property name="BeachSpawn" value="T"/>
    <property name="Buildable" value="T"/>
    <property name="Diggable" value="T"/>
    <property name="NoSprinklers" value="T"/>
    <property name="Type" value="Dirt"/>
   </properties>
  </tile>
  <tile id="674">
   <properties>
    <property name="BeachSpawn" value="T"/>
    <property name="Buildable" value="T"/>
    <property name="Diggable" value="T"/>
    <property name="NoSprinklers" value="T"/>
    <property name="Type" value="Dirt"/>
   </properties>
  </tile>
  <tile id="675">
   <properties>
    <property name="Buildable" value="T"/>
    <property name="Diggable" value="T"/>
    <property name="Type" value="Grass"/>
   </properties>
  </tile>
  <tile id="676">
   <properties>
    <property name="Buildable" value="T"/>
    <property name="Diggable" value="T"/>
    <property name="Type" value="Grass"/>
   </properties>
  </tile>
  <tile id="677">
   <properties>
    <property name="Buildable" value="T"/>
    <property name="Diggable" value="T"/>
    <property name="Type" value="Grass"/>
   </properties>
  </tile>
  <tile id="679">
   <properties>
    <property name="Buildable" value="T"/>
    <property name="Diggable" value="T"/>
    <property name="Type" value="Grass"/>
   </properties>
  </tile>
  <tile id="683">
   <properties>
    <property name="Passable" value="T"/>
    <property name="Type" value="Dirt"/>
   </properties>
   <animation>
    <frame tileid="683" duration="250"/>
    <frame tileid="683" duration="250"/>
    <frame tileid="683" duration="250"/>
    <frame tileid="683" duration="250"/>
    <frame tileid="684" duration="250"/>
    <frame tileid="685" duration="250"/>
    <frame tileid="686" duration="250"/>
    <frame tileid="686" duration="250"/>
    <frame tileid="687" duration="250"/>
    <frame tileid="688" duration="250"/>
    <frame tileid="689" duration="250"/>
    <frame tileid="683" duration="250"/>
    <frame tileid="683" duration="250"/>
   </animation>
  </tile>
  <tile id="684">
   <properties>
    <property name="Passable" value="T"/>
    <property name="Type" value="Dirt"/>
   </properties>
  </tile>
  <tile id="685">
   <properties>
    <property name="Passable" value="T"/>
    <property name="Type" value="Dirt"/>
   </properties>
  </tile>
  <tile id="686">
   <properties>
    <property name="Passable" value="T"/>
    <property name="Type" value="Dirt"/>
   </properties>
  </tile>
  <tile id="687">
   <properties>
    <property name="Passable" value="T"/>
    <property name="Type" value="Dirt"/>
   </properties>
  </tile>
  <tile id="688">
   <properties>
    <property name="Passable" value="T"/>
    <property name="Type" value="Dirt"/>
   </properties>
  </tile>
  <tile id="689">
   <properties>
    <property name="Passable" value="T"/>
    <property name="Type" value="Dirt"/>
   </properties>
  </tile>
  <tile id="690">
   <properties>
    <property name="Passable" value="F"/>
    <property name="Water" value="T"/>
   </properties>
  </tile>
  <tile id="704">
   <properties>
    <property name="Buildable" value="T"/>
    <property name="Diggable" value="T"/>
    <property name="Type" value="Grass"/>
   </properties>
  </tile>
  <tile id="705">
   <properties>
    <property name="Buildable" value="T"/>
    <property name="Diggable" value="T"/>
    <property name="Type" value="Grass"/>
   </properties>
  </tile>
  <tile id="706">
   <properties>
    <property name="Buildable" value="T"/>
    <property name="Diggable" value="T"/>
    <property name="Type" value="Grass"/>
   </properties>
  </tile>
  <tile id="707">
   <properties>
    <property name="Buildable" value="T"/>
    <property name="Diggable" value="T"/>
    <property name="Type" value="Grass"/>
   </properties>
  </tile>
  <tile id="715">
   <properties>
    <property name="Passable" value="T"/>
    <property name="Type" value="Dirt"/>
   </properties>
   <animation>
    <frame tileid="715" duration="250"/>
    <frame tileid="715" duration="250"/>
    <frame tileid="715" duration="250"/>
    <frame tileid="715" duration="250"/>
    <frame tileid="716" duration="250"/>
    <frame tileid="717" duration="250"/>
    <frame tileid="718" duration="250"/>
    <frame tileid="718" duration="250"/>
    <frame tileid="719" duration="250"/>
    <frame tileid="720" duration="250"/>
    <frame tileid="721" duration="250"/>
    <frame tileid="715" duration="250"/>
    <frame tileid="715" duration="250"/>
   </animation>
  </tile>
  <tile id="716">
   <properties>
    <property name="Passable" value="T"/>
    <property name="Type" value="Dirt"/>
   </properties>
  </tile>
  <tile id="717">
   <properties>
    <property name="Passable" value="T"/>
    <property name="Type" value="Dirt"/>
   </properties>
  </tile>
  <tile id="718">
   <properties>
    <property name="Passable" value="T"/>
    <property name="Type" value="Dirt"/>
   </properties>
  </tile>
  <tile id="719">
   <properties>
    <property name="Passable" value="T"/>
    <property name="Type" value="Dirt"/>
   </properties>
  </tile>
  <tile id="720">
   <properties>
    <property name="Passable" value="T"/>
    <property name="Type" value="Dirt"/>
   </properties>
  </tile>
  <tile id="721">
   <properties>
    <property name="Passable" value="T"/>
    <property name="Type" value="Dirt"/>
   </properties>
  </tile>
  <tile id="736">
   <properties>
    <property name="Buildable" value="T"/>
    <property name="Diggable" value="T"/>
    <property name="Type" value="Grass"/>
   </properties>
  </tile>
  <tile id="744">
   <properties>
    <property name="Passable" value="T"/>
    <property name="Type" value="Dirt"/>
   </properties>
   <animation>
    <frame tileid="744" duration="250"/>
    <frame tileid="744" duration="250"/>
    <frame tileid="744" duration="250"/>
    <frame tileid="744" duration="250"/>
    <frame tileid="745" duration="250"/>
    <frame tileid="745" duration="250"/>
    <frame tileid="746" duration="250"/>
    <frame tileid="746" duration="250"/>
    <frame tileid="745" duration="250"/>
    <frame tileid="745" duration="250"/>
    <frame tileid="744" duration="250"/>
    <frame tileid="744" duration="250"/>
    <frame tileid="744" duration="250"/>
   </animation>
  </tile>
  <tile id="745">
   <properties>
    <property name="Passable" value="T"/>
    <property name="Type" value="Dirt"/>
   </properties>
  </tile>
  <tile id="746">
   <properties>
    <property name="Passable" value="T"/>
    <property name="Type" value="Dirt"/>
   </properties>
  </tile>
  <tile id="747">
   <properties>
    <property name="Passable" value="T"/>
    <property name="Type" value="Dirt"/>
   </properties>
   <animation>
    <frame tileid="747" duration="250"/>
    <frame tileid="747" duration="250"/>
    <frame tileid="747" duration="250"/>
    <frame tileid="747" duration="250"/>
    <frame tileid="748" duration="250"/>
    <frame tileid="749" duration="250"/>
    <frame tileid="750" duration="250"/>
    <frame tileid="750" duration="250"/>
    <frame tileid="751" duration="250"/>
    <frame tileid="752" duration="250"/>
    <frame tileid="753" duration="250"/>
    <frame tileid="747" duration="250"/>
    <frame tileid="747" duration="250"/>
   </animation>
  </tile>
  <tile id="748">
   <properties>
    <property name="Passable" value="T"/>
    <property name="Type" value="Dirt"/>
   </properties>
  </tile>
  <tile id="749">
   <properties>
    <property name="Passable" value="T"/>
    <property name="Type" value="Dirt"/>
   </properties>
  </tile>
  <tile id="750">
   <properties>
    <property name="Passable" value="T"/>
    <property name="Type" value="Dirt"/>
   </properties>
  </tile>
  <tile id="751">
   <properties>
    <property name="Passable" value="T"/>
    <property name="Type" value="Dirt"/>
   </properties>
  </tile>
  <tile id="752">
   <properties>
    <property name="Passable" value="T"/>
    <property name="Type" value="Dirt"/>
   </properties>
  </tile>
  <tile id="753">
   <properties>
    <property name="Passable" value="T"/>
    <property name="Type" value="Dirt"/>
   </properties>
  </tile>
  <tile id="768">
   <properties>
    <property name="Buildable" value="T"/>
    <property name="Diggable" value="T"/>
    <property name="Type" value="Grass"/>
   </properties>
  </tile>
  <tile id="776">
   <properties>
    <property name="Passable" value="T"/>
    <property name="Type" value="Dirt"/>
   </properties>
   <animation>
    <frame tileid="776" duration="250"/>
    <frame tileid="776" duration="250"/>
    <frame tileid="776" duration="250"/>
    <frame tileid="776" duration="250"/>
    <frame tileid="777" duration="250"/>
    <frame tileid="777" duration="250"/>
    <frame tileid="778" duration="250"/>
    <frame tileid="778" duration="250"/>
    <frame tileid="777" duration="250"/>
    <frame tileid="777" duration="250"/>
    <frame tileid="776" duration="250"/>
    <frame tileid="776" duration="250"/>
    <frame tileid="776" duration="250"/>
   </animation>
  </tile>
  <tile id="777">
   <properties>
    <property name="Passable" value="T"/>
    <property name="Type" value="Dirt"/>
   </properties>
  </tile>
  <tile id="778">
   <properties>
    <property name="Passable" value="T"/>
    <property name="Type" value="Dirt"/>
   </properties>
  </tile>
  <tile id="779">
   <properties>
    <property name="NoSpawn" value="All"/>
    <property name="Type" value="Wood"/>
   </properties>
  </tile>
  <tile id="800">
   <properties>
    <property name="Buildable" value="T"/>
    <property name="Diggable" value="T"/>
    <property name="Type" value="Grass"/>
   </properties>
  </tile>
  <tile id="801">
   <properties>
    <property name="BeachSpawn" value="T"/>
    <property name="Buildable" value="T"/>
    <property name="Diggable" value="T"/>
    <property name="NoSprinklers" value="T"/>
    <property name="Type" value="Dirt"/>
   </properties>
  </tile>
  <tile id="802">
   <properties>
    <property name="BeachSpawn" value="T"/>
    <property name="Buildable" value="T"/>
    <property name="Diggable" value="T"/>
    <property name="NoSprinklers" value="T"/>
    <property name="Type" value="Dirt"/>
   </properties>
  </tile>
  <tile id="803">
   <properties>
    <property name="BeachSpawn" value="T"/>
    <property name="Buildable" value="T"/>
    <property name="Diggable" value="T"/>
    <property name="NoSprinklers" value="T"/>
    <property name="Type" value="Dirt"/>
   </properties>
  </tile>
  <tile id="811">
   <properties>
    <property name="NoSpawn" value="All"/>
    <property name="Type" value="Wood"/>
   </properties>
  </tile>
  <tile id="843">
   <properties>
    <property name="NoSpawn" value="All"/>
    <property name="Type" value="Wood"/>
   </properties>
  </tile>
  <tile id="948">
   <properties>
    <property name="Passable" value="F"/>
    <property name="Water" value="T"/>
   </properties>
  </tile>
  <tile id="949">
   <properties>
    <property name="Passable" value="F"/>
    <property name="Water" value="T"/>
   </properties>
  </tile>
  <tile id="980">
   <properties>
    <property name="Passable" value="F"/>
    <property name="Water" value="T"/>
   </properties>
  </tile>
  <tile id="981">
   <properties>
    <property name="Passable" value="F"/>
    <property name="Water" value="T"/>
   </properties>
  </tile>
 </tileset>
 <tileset firstgid="3320" name="x03 - spring_town" tilewidth="16" tileheight="16" tilecount="2304" columns="32">
  <image source="spring_town.png" width="512" height="1152"/>
  <tile id="909">
   <properties>
    <property name="NoSpawn" value="All"/>
    <property name="Type" value="Stone"/>
   </properties>
  </tile>
  <tile id="917">
   <properties>
    <property name="Water" type="bool" value="true"/>
   </properties>
  </tile>
  <tile id="918">
   <properties>
    <property name="Water" type="bool" value="true"/>
   </properties>
  </tile>
  <tile id="969">
   <properties>
    <property name="NoSpawn" value="All"/>
    <property name="Type" value="Stone"/>
   </properties>
  </tile>
  <tile id="970">
   <properties>
    <property name="NoSpawn" value="All"/>
    <property name="Type" value="Stone"/>
   </properties>
  </tile>
  <tile id="1007">
   <properties>
    <property name="NoSpawn" value="All"/>
    <property name="Type" value="Stone"/>
   </properties>
  </tile>
  <tile id="1008">
   <properties>
    <property name="NoSpawn" value="All"/>
    <property name="Type" value="Stone"/>
   </properties>
  </tile>
  <tile id="1037">
   <animation>
    <frame tileid="1037" duration="100"/>
    <frame tileid="1038" duration="100"/>
    <frame tileid="1039" duration="100"/>
    <frame tileid="1069" duration="100"/>
   </animation>
  </tile>
  <tile id="1043">
   <animation>
    <frame tileid="1043" duration="100"/>
    <frame tileid="1070" duration="100"/>
    <frame tileid="1101" duration="100"/>
    <frame tileid="1102" duration="100"/>
   </animation>
  </tile>
  <tile id="1201">
   <animation>
    <frame tileid="1201" duration="100"/>
    <frame tileid="1202" duration="100"/>
    <frame tileid="1203" duration="100"/>
    <frame tileid="1204" duration="100"/>
    <frame tileid="1205" duration="100"/>
    <frame tileid="1206" duration="100"/>
   </animation>
  </tile>
  <tile id="1233">
   <animation>
    <frame tileid="1233" duration="100"/>
    <frame tileid="1234" duration="100"/>
    <frame tileid="1235" duration="100"/>
    <frame tileid="1236" duration="100"/>
    <frame tileid="1237" duration="100"/>
    <frame tileid="1238" duration="100"/>
   </animation>
  </tile>
  <tile id="1265">
   <animation>
    <frame tileid="1265" duration="100"/>
    <frame tileid="1266" duration="100"/>
    <frame tileid="1267" duration="100"/>
    <frame tileid="1268" duration="100"/>
    <frame tileid="1269" duration="100"/>
    <frame tileid="1270" duration="100"/>
   </animation>
  </tile>
 </tileset>
 <tileset firstgid="5624" name="x20 - spring_daisyextras" tilewidth="16" tileheight="16" tilecount="1800" columns="30">
  <image source="spring_daisyextras.png" width="480" height="960"/>
  <tile id="4">
   <properties>
    <property name="NPCBarrier" value="T"/>
    <property name="NoSpawn" value="All"/>
    <property name="Passable" value="T"/>
    <property name="Type" value="Wood"/>
   </properties>
  </tile>
  <tile id="5">
   <animation>
    <frame tileid="5" duration="150"/>
    <frame tileid="11" duration="150"/>
    <frame tileid="17" duration="150"/>
    <frame tileid="23" duration="150"/>
   </animation>
  </tile>
  <tile id="6">
   <animation>
    <frame tileid="6" duration="150"/>
    <frame tileid="12" duration="150"/>
    <frame tileid="18" duration="150"/>
    <frame tileid="24" duration="150"/>
   </animation>
  </tile>
  <tile id="7">
   <animation>
    <frame tileid="7" duration="150"/>
    <frame tileid="13" duration="150"/>
    <frame tileid="19" duration="150"/>
    <frame tileid="25" duration="150"/>
   </animation>
  </tile>
  <tile id="8">
   <animation>
    <frame tileid="8" duration="150"/>
    <frame tileid="14" duration="150"/>
    <frame tileid="20" duration="150"/>
    <frame tileid="26" duration="150"/>
   </animation>
  </tile>
  <tile id="27">
   <properties>
    <property name="NoSpawn" value="All"/>
   </properties>
  </tile>
  <tile id="28">
   <properties>
    <property name="NoSpawn" value="All"/>
   </properties>
  </tile>
  <tile id="29">
   <properties>
    <property name="NoSpawn" value="All"/>
   </properties>
  </tile>
  <tile id="34">
   <properties>
    <property name="NPCBarrier" value="T"/>
    <property name="NoSpawn" value="All"/>
    <property name="Passable" value="T"/>
    <property name="Type" value="Wood"/>
   </properties>
  </tile>
  <tile id="35">
   <animation>
    <frame tileid="35" duration="150"/>
    <frame tileid="41" duration="150"/>
    <frame tileid="47" duration="150"/>
    <frame tileid="53" duration="150"/>
   </animation>
  </tile>
  <tile id="36">
   <animation>
    <frame tileid="36" duration="150"/>
    <frame tileid="42" duration="150"/>
    <frame tileid="48" duration="150"/>
    <frame tileid="54" duration="150"/>
   </animation>
  </tile>
  <tile id="37">
   <animation>
    <frame tileid="37" duration="150"/>
    <frame tileid="43" duration="150"/>
    <frame tileid="49" duration="150"/>
    <frame tileid="55" duration="150"/>
   </animation>
  </tile>
  <tile id="38">
   <animation>
    <frame tileid="38" duration="150"/>
    <frame tileid="44" duration="150"/>
    <frame tileid="50" duration="150"/>
    <frame tileid="56" duration="150"/>
   </animation>
  </tile>
  <tile id="57">
   <properties>
    <property name="NoSpawn" value="All"/>
   </properties>
  </tile>
  <tile id="58">
   <properties>
    <property name="NoSpawn" value="All"/>
   </properties>
  </tile>
  <tile id="59">
   <properties>
    <property name="NoSpawn" value="All"/>
   </properties>
  </tile>
  <tile id="64">
   <properties>
    <property name="NPCBarrier" value="T"/>
    <property name="NoSpawn" value="All"/>
    <property name="Passable" value="T"/>
    <property name="Type" value="Wood"/>
   </properties>
  </tile>
  <tile id="65">
   <animation>
    <frame tileid="65" duration="150"/>
    <frame tileid="71" duration="150"/>
    <frame tileid="77" duration="150"/>
    <frame tileid="83" duration="150"/>
   </animation>
  </tile>
  <tile id="66">
   <animation>
    <frame tileid="66" duration="150"/>
    <frame tileid="72" duration="150"/>
    <frame tileid="78" duration="150"/>
    <frame tileid="84" duration="150"/>
   </animation>
  </tile>
  <tile id="67">
   <animation>
    <frame tileid="67" duration="150"/>
    <frame tileid="73" duration="150"/>
    <frame tileid="79" duration="150"/>
    <frame tileid="85" duration="150"/>
   </animation>
  </tile>
  <tile id="68">
   <animation>
    <frame tileid="68" duration="150"/>
    <frame tileid="74" duration="150"/>
    <frame tileid="80" duration="150"/>
    <frame tileid="86" duration="150"/>
   </animation>
  </tile>
  <tile id="94">
   <properties>
    <property name="NPCBarrier" value="T"/>
    <property name="NoSpawn" value="All"/>
    <property name="Passable" value="T"/>
    <property name="Type" value="Wood"/>
   </properties>
  </tile>
  <tile id="95">
   <animation>
    <frame tileid="95" duration="150"/>
    <frame tileid="101" duration="150"/>
    <frame tileid="107" duration="150"/>
    <frame tileid="113" duration="150"/>
   </animation>
  </tile>
  <tile id="96">
   <animation>
    <frame tileid="96" duration="150"/>
    <frame tileid="102" duration="150"/>
    <frame tileid="108" duration="150"/>
    <frame tileid="114" duration="150"/>
   </animation>
  </tile>
  <tile id="97">
   <animation>
    <frame tileid="97" duration="150"/>
    <frame tileid="103" duration="150"/>
    <frame tileid="109" duration="150"/>
    <frame tileid="115" duration="150"/>
   </animation>
  </tile>
  <tile id="98">
   <animation>
    <frame tileid="98" duration="150"/>
    <frame tileid="104" duration="150"/>
    <frame tileid="110" duration="150"/>
    <frame tileid="116" duration="150"/>
   </animation>
  </tile>
  <tile id="117">
   <properties>
    <property name="NoSpawn" value="All"/>
    <property name="Type" value="Wood"/>
   </properties>
  </tile>
  <tile id="118">
   <properties>
    <property name="NoSpawn" value="All"/>
   </properties>
  </tile>
  <tile id="119">
   <properties>
    <property name="NoSpawn" value="All"/>
   </properties>
  </tile>
  <tile id="125">
   <animation>
    <frame tileid="125" duration="150"/>
    <frame tileid="131" duration="150"/>
    <frame tileid="137" duration="150"/>
    <frame tileid="143" duration="150"/>
   </animation>
  </tile>
  <tile id="126">
   <animation>
    <frame tileid="126" duration="150"/>
    <frame tileid="132" duration="150"/>
    <frame tileid="138" duration="150"/>
    <frame tileid="144" duration="150"/>
   </animation>
  </tile>
  <tile id="127">
   <animation>
    <frame tileid="127" duration="150"/>
    <frame tileid="133" duration="150"/>
    <frame tileid="139" duration="150"/>
    <frame tileid="145" duration="150"/>
   </animation>
  </tile>
  <tile id="128">
   <animation>
    <frame tileid="128" duration="150"/>
    <frame tileid="134" duration="150"/>
    <frame tileid="140" duration="150"/>
    <frame tileid="146" duration="150"/>
   </animation>
  </tile>
  <tile id="147">
   <properties>
    <property name="NoSpawn" value="All"/>
   </properties>
  </tile>
  <tile id="148">
   <properties>
    <property name="NoSpawn" value="All"/>
   </properties>
  </tile>
  <tile id="149">
   <properties>
    <property name="NoSpawn" value="All"/>
   </properties>
  </tile>
  <tile id="154">
   <animation>
    <frame tileid="154" duration="150"/>
    <frame tileid="160" duration="150"/>
    <frame tileid="166" duration="150"/>
    <frame tileid="172" duration="150"/>
   </animation>
  </tile>
  <tile id="155">
   <animation>
    <frame tileid="155" duration="150"/>
    <frame tileid="161" duration="150"/>
    <frame tileid="167" duration="150"/>
    <frame tileid="173" duration="150"/>
   </animation>
  </tile>
  <tile id="156">
   <animation>
    <frame tileid="156" duration="150"/>
    <frame tileid="162" duration="150"/>
    <frame tileid="168" duration="150"/>
    <frame tileid="174" duration="150"/>
   </animation>
  </tile>
  <tile id="157">
   <animation>
    <frame tileid="157" duration="150"/>
    <frame tileid="163" duration="150"/>
    <frame tileid="169" duration="150"/>
    <frame tileid="175" duration="150"/>
   </animation>
  </tile>
  <tile id="158">
   <animation>
    <frame tileid="158" duration="150"/>
    <frame tileid="164" duration="150"/>
    <frame tileid="170" duration="150"/>
    <frame tileid="176" duration="150"/>
   </animation>
  </tile>
  <tile id="159">
   <animation>
    <frame tileid="159" duration="150"/>
    <frame tileid="165" duration="150"/>
    <frame tileid="171" duration="150"/>
    <frame tileid="177" duration="150"/>
   </animation>
  </tile>
  <tile id="178">
   <properties>
    <property name="NoSpawn" value="All"/>
    <property name="Type" value="Dirt"/>
   </properties>
  </tile>
  <tile id="179">
   <properties>
    <property name="NoSpawn" value="All"/>
    <property name="Type" value="Dirt"/>
   </properties>
  </tile>
  <tile id="184">
   <animation>
    <frame tileid="184" duration="150"/>
    <frame tileid="190" duration="150"/>
    <frame tileid="196" duration="150"/>
    <frame tileid="202" duration="150"/>
   </animation>
  </tile>
  <tile id="185">
   <animation>
    <frame tileid="185" duration="150"/>
    <frame tileid="191" duration="150"/>
    <frame tileid="197" duration="150"/>
    <frame tileid="203" duration="150"/>
   </animation>
  </tile>
  <tile id="186">
   <animation>
    <frame tileid="186" duration="150"/>
    <frame tileid="192" duration="150"/>
    <frame tileid="198" duration="150"/>
    <frame tileid="204" duration="150"/>
   </animation>
  </tile>
  <tile id="187">
   <animation>
    <frame tileid="193" duration="150"/>
    <frame tileid="199" duration="150"/>
    <frame tileid="205" duration="150"/>
   </animation>
  </tile>
  <tile id="188">
   <animation>
    <frame tileid="188" duration="150"/>
    <frame tileid="194" duration="150"/>
    <frame tileid="200" duration="150"/>
    <frame tileid="206" duration="150"/>
   </animation>
  </tile>
  <tile id="189">
   <animation>
    <frame tileid="189" duration="150"/>
    <frame tileid="195" duration="150"/>
    <frame tileid="201" duration="150"/>
    <frame tileid="207" duration="150"/>
   </animation>
  </tile>
  <tile id="208">
   <properties>
    <property name="NoSpawn" value="All"/>
    <property name="Type" value="Dirt"/>
   </properties>
  </tile>
  <tile id="209">
   <properties>
    <property name="NoSpawn" value="All"/>
    <property name="Type" value="Dirt"/>
   </properties>
  </tile>
  <tile id="457">
   <animation>
    <frame tileid="457" duration="1000"/>
    <frame tileid="460" duration="1000"/>
   </animation>
  </tile>
  <tile id="458">
   <animation>
    <frame tileid="458" duration="1000"/>
    <frame tileid="461" duration="1000"/>
   </animation>
  </tile>
  <tile id="459">
   <animation>
    <frame tileid="459" duration="1000"/>
    <frame tileid="462" duration="1000"/>
   </animation>
  </tile>
  <tile id="487">
   <animation>
    <frame tileid="487" duration="1000"/>
    <frame tileid="490" duration="1000"/>
   </animation>
  </tile>
  <tile id="488">
   <animation>
    <frame tileid="488" duration="1000"/>
    <frame tileid="491" duration="1000"/>
   </animation>
  </tile>
  <tile id="489">
   <animation>
    <frame tileid="489" duration="1000"/>
    <frame tileid="492" duration="1000"/>
   </animation>
  </tile>
  <tile id="512">
   <animation>
    <frame tileid="512" duration="1000"/>
    <frame tileid="520" duration="1000"/>
   </animation>
  </tile>
  <tile id="513">
   <animation>
    <frame tileid="513" duration="1000"/>
    <frame tileid="521" duration="1000"/>
   </animation>
  </tile>
  <tile id="514">
   <animation>
    <frame tileid="514" duration="1000"/>
    <frame tileid="517" duration="1000"/>
   </animation>
  </tile>
  <tile id="515">
   <animation>
    <frame tileid="515" duration="1000"/>
    <frame tileid="518" duration="1000"/>
   </animation>
  </tile>
  <tile id="516">
   <animation>
    <frame tileid="516" duration="1000"/>
    <frame tileid="519" duration="1000"/>
   </animation>
  </tile>
  <tile id="542">
   <animation>
    <frame tileid="542" duration="1000"/>
    <frame tileid="550" duration="1000"/>
   </animation>
  </tile>
  <tile id="543">
   <animation>
    <frame tileid="543" duration="1000"/>
    <frame tileid="551" duration="1000"/>
   </animation>
  </tile>
  <tile id="544">
   <animation>
    <frame tileid="544" duration="1000"/>
    <frame tileid="547" duration="1000"/>
   </animation>
  </tile>
  <tile id="545">
   <animation>
    <frame tileid="545" duration="1000"/>
    <frame tileid="548" duration="1000"/>
   </animation>
  </tile>
  <tile id="546">
   <animation>
    <frame tileid="546" duration="1000"/>
    <frame tileid="549" duration="1000"/>
   </animation>
  </tile>
  <tile id="574">
   <animation>
    <frame tileid="574" duration="1000"/>
    <frame tileid="577" duration="1000"/>
   </animation>
  </tile>
  <tile id="575">
   <animation>
    <frame tileid="575" duration="1000"/>
    <frame tileid="578" duration="1000"/>
   </animation>
  </tile>
  <tile id="576">
   <animation>
    <frame tileid="576" duration="1000"/>
    <frame tileid="579" duration="1000"/>
   </animation>
  </tile>
  <tile id="604">
   <animation>
    <frame tileid="604" duration="1000"/>
    <frame tileid="607" duration="1000"/>
   </animation>
  </tile>
  <tile id="606">
   <animation>
    <frame tileid="606" duration="1000"/>
    <frame tileid="609" duration="1000"/>
   </animation>
  </tile>
  <tile id="632">
   <animation>
    <frame tileid="632" duration="1000"/>
    <frame tileid="700" duration="1000"/>
   </animation>
  </tile>
  <tile id="633">
   <animation>
    <frame tileid="633" duration="1000"/>
    <frame tileid="701" duration="1000"/>
   </animation>
  </tile>
  <tile id="634">
   <animation>
    <frame tileid="634" duration="1000"/>
    <frame tileid="637" duration="1000"/>
   </animation>
  </tile>
  <tile id="635">
   <animation>
    <frame tileid="635" duration="1000"/>
    <frame tileid="638" duration="1000"/>
   </animation>
  </tile>
  <tile id="636">
   <animation>
    <frame tileid="636" duration="1000"/>
    <frame tileid="639" duration="1000"/>
   </animation>
  </tile>
  <tile id="662">
   <animation>
    <frame tileid="662" duration="1000"/>
    <frame tileid="730" duration="1000"/>
   </animation>
  </tile>
  <tile id="663">
   <animation>
    <frame tileid="663" duration="1000"/>
    <frame tileid="731" duration="1000"/>
   </animation>
  </tile>
  <tile id="664">
   <animation>
    <frame tileid="664" duration="1000"/>
    <frame tileid="667" duration="1000"/>
   </animation>
  </tile>
  <tile id="665">
   <animation>
    <frame tileid="665" duration="1000"/>
    <frame tileid="668" duration="1000"/>
   </animation>
  </tile>
  <tile id="666">
   <animation>
    <frame tileid="666" duration="1000"/>
    <frame tileid="669" duration="1000"/>
   </animation>
  </tile>
  <tile id="694">
   <animation>
    <frame tileid="694" duration="1000"/>
    <frame tileid="697" duration="1000"/>
   </animation>
  </tile>
  <tile id="695">
   <animation>
    <frame tileid="695" duration="1000"/>
    <frame tileid="698" duration="1000"/>
   </animation>
  </tile>
  <tile id="696">
   <animation>
    <frame tileid="696" duration="1000"/>
    <frame tileid="699" duration="1000"/>
   </animation>
  </tile>
  <tile id="724">
   <animation>
    <frame tileid="724" duration="1000"/>
    <frame tileid="727" duration="1000"/>
   </animation>
  </tile>
  <tile id="726">
   <animation>
    <frame tileid="726" duration="1000"/>
    <frame tileid="729" duration="1000"/>
   </animation>
  </tile>
 </tileset>
 <tileset firstgid="7424" name="x14 - ALL_Waterfall_Shed" tilewidth="16" tileheight="16" tilecount="432" columns="24">
  <image source="ALL_Waterfall_Shed.png" width="384" height="288"/>
 </tileset>
 <tileset firstgid="7856" name="x05 - spring_Waterfalls" tilewidth="16" tileheight="16" tilecount="900" columns="36">
  <image source="spring_Waterfalls.png" width="576" height="400"/>
  <tile id="1">
   <animation>
    <frame tileid="1" duration="100"/>
    <frame tileid="5" duration="100"/>
    <frame tileid="9" duration="100"/>
    <frame tileid="13" duration="100"/>
    <frame tileid="17" duration="100"/>
    <frame tileid="21" duration="100"/>
    <frame tileid="25" duration="100"/>
    <frame tileid="29" duration="100"/>
   </animation>
  </tile>
  <tile id="2">
   <animation>
    <frame tileid="2" duration="100"/>
    <frame tileid="6" duration="100"/>
    <frame tileid="10" duration="100"/>
    <frame tileid="14" duration="100"/>
    <frame tileid="18" duration="100"/>
    <frame tileid="22" duration="100"/>
    <frame tileid="26" duration="100"/>
    <frame tileid="30" duration="100"/>
   </animation>
  </tile>
  <tile id="37">
   <animation>
    <frame tileid="37" duration="100"/>
    <frame tileid="41" duration="100"/>
    <frame tileid="45" duration="100"/>
    <frame tileid="49" duration="100"/>
    <frame tileid="53" duration="100"/>
    <frame tileid="57" duration="100"/>
    <frame tileid="61" duration="100"/>
    <frame tileid="65" duration="100"/>
   </animation>
  </tile>
  <tile id="38">
   <animation>
    <frame tileid="38" duration="100"/>
    <frame tileid="42" duration="100"/>
    <frame tileid="46" duration="100"/>
    <frame tileid="50" duration="100"/>
    <frame tileid="54" duration="100"/>
    <frame tileid="58" duration="100"/>
    <frame tileid="62" duration="100"/>
    <frame tileid="66" duration="100"/>
   </animation>
  </tile>
  <tile id="73">
   <animation>
    <frame tileid="73" duration="100"/>
    <frame tileid="77" duration="100"/>
    <frame tileid="81" duration="100"/>
    <frame tileid="85" duration="100"/>
    <frame tileid="89" duration="100"/>
    <frame tileid="93" duration="100"/>
    <frame tileid="97" duration="100"/>
    <frame tileid="101" duration="100"/>
   </animation>
  </tile>
  <tile id="74">
   <animation>
    <frame tileid="74" duration="100"/>
    <frame tileid="78" duration="100"/>
    <frame tileid="82" duration="100"/>
    <frame tileid="86" duration="100"/>
    <frame tileid="90" duration="100"/>
    <frame tileid="94" duration="100"/>
    <frame tileid="98" duration="100"/>
    <frame tileid="102" duration="100"/>
   </animation>
  </tile>
  <tile id="108">
   <animation>
    <frame tileid="108" duration="100"/>
    <frame tileid="112" duration="100"/>
    <frame tileid="116" duration="100"/>
    <frame tileid="120" duration="100"/>
    <frame tileid="124" duration="100"/>
    <frame tileid="128" duration="100"/>
    <frame tileid="132" duration="100"/>
    <frame tileid="136" duration="100"/>
   </animation>
  </tile>
  <tile id="109">
   <animation>
    <frame tileid="109" duration="100"/>
    <frame tileid="113" duration="100"/>
    <frame tileid="117" duration="100"/>
    <frame tileid="121" duration="100"/>
    <frame tileid="125" duration="100"/>
    <frame tileid="129" duration="100"/>
    <frame tileid="133" duration="100"/>
    <frame tileid="137" duration="100"/>
   </animation>
  </tile>
  <tile id="110">
   <animation>
    <frame tileid="110" duration="100"/>
    <frame tileid="114" duration="100"/>
    <frame tileid="118" duration="100"/>
    <frame tileid="122" duration="100"/>
    <frame tileid="126" duration="100"/>
    <frame tileid="130" duration="100"/>
    <frame tileid="134" duration="100"/>
    <frame tileid="138" duration="100"/>
   </animation>
  </tile>
  <tile id="111">
   <animation>
    <frame tileid="111" duration="100"/>
    <frame tileid="115" duration="100"/>
    <frame tileid="119" duration="100"/>
    <frame tileid="123" duration="100"/>
    <frame tileid="127" duration="100"/>
    <frame tileid="131" duration="100"/>
    <frame tileid="135" duration="100"/>
    <frame tileid="139" duration="100"/>
   </animation>
  </tile>
  <tile id="145">
   <animation>
    <frame tileid="145" duration="100"/>
    <frame tileid="151" duration="100"/>
    <frame tileid="157" duration="100"/>
    <frame tileid="163" duration="100"/>
    <frame tileid="169" duration="100"/>
    <frame tileid="175" duration="100"/>
    <frame tileid="397" duration="100"/>
    <frame tileid="403" duration="100"/>
    <frame tileid="409" duration="100"/>
    <frame tileid="415" duration="100"/>
    <frame tileid="421" duration="100"/>
    <frame tileid="427" duration="100"/>
    <frame tileid="649" duration="100"/>
    <frame tileid="655" duration="100"/>
    <frame tileid="661" duration="100"/>
    <frame tileid="667" duration="100"/>
    <frame tileid="673" duration="100"/>
   </animation>
  </tile>
  <tile id="146">
   <animation>
    <frame tileid="146" duration="100"/>
    <frame tileid="152" duration="100"/>
    <frame tileid="158" duration="100"/>
    <frame tileid="164" duration="100"/>
    <frame tileid="170" duration="100"/>
    <frame tileid="176" duration="100"/>
    <frame tileid="398" duration="100"/>
    <frame tileid="404" duration="100"/>
    <frame tileid="410" duration="100"/>
    <frame tileid="416" duration="100"/>
    <frame tileid="422" duration="100"/>
    <frame tileid="428" duration="100"/>
    <frame tileid="650" duration="100"/>
    <frame tileid="656" duration="100"/>
    <frame tileid="662" duration="100"/>
    <frame tileid="668" duration="100"/>
    <frame tileid="674" duration="100"/>
   </animation>
  </tile>
  <tile id="147">
   <animation>
    <frame tileid="147" duration="100"/>
    <frame tileid="153" duration="100"/>
    <frame tileid="159" duration="100"/>
    <frame tileid="165" duration="100"/>
    <frame tileid="171" duration="100"/>
    <frame tileid="177" duration="100"/>
    <frame tileid="399" duration="100"/>
    <frame tileid="405" duration="100"/>
    <frame tileid="411" duration="100"/>
    <frame tileid="417" duration="100"/>
    <frame tileid="423" duration="100"/>
    <frame tileid="429" duration="100"/>
    <frame tileid="651" duration="100"/>
    <frame tileid="657" duration="100"/>
    <frame tileid="663" duration="100"/>
    <frame tileid="669" duration="100"/>
    <frame tileid="675" duration="100"/>
   </animation>
  </tile>
  <tile id="148">
   <animation>
    <frame tileid="148" duration="100"/>
    <frame tileid="154" duration="100"/>
    <frame tileid="160" duration="100"/>
    <frame tileid="166" duration="100"/>
    <frame tileid="172" duration="100"/>
    <frame tileid="178" duration="100"/>
    <frame tileid="400" duration="100"/>
    <frame tileid="406" duration="100"/>
    <frame tileid="412" duration="100"/>
    <frame tileid="418" duration="100"/>
    <frame tileid="424" duration="100"/>
    <frame tileid="430" duration="100"/>
    <frame tileid="652" duration="100"/>
    <frame tileid="658" duration="100"/>
    <frame tileid="664" duration="100"/>
    <frame tileid="670" duration="100"/>
    <frame tileid="676" duration="100"/>
   </animation>
  </tile>
  <tile id="181">
   <animation>
    <frame tileid="181" duration="100"/>
    <frame tileid="187" duration="100"/>
    <frame tileid="193" duration="100"/>
    <frame tileid="199" duration="100"/>
    <frame tileid="205" duration="100"/>
    <frame tileid="211" duration="100"/>
    <frame tileid="433" duration="100"/>
    <frame tileid="439" duration="100"/>
    <frame tileid="445" duration="100"/>
    <frame tileid="451" duration="100"/>
    <frame tileid="457" duration="100"/>
    <frame tileid="463" duration="100"/>
    <frame tileid="685" duration="100"/>
    <frame tileid="691" duration="100"/>
    <frame tileid="697" duration="100"/>
    <frame tileid="703" duration="100"/>
    <frame tileid="709" duration="100"/>
   </animation>
  </tile>
  <tile id="182">
   <animation>
    <frame tileid="182" duration="100"/>
    <frame tileid="188" duration="100"/>
    <frame tileid="194" duration="100"/>
    <frame tileid="200" duration="100"/>
    <frame tileid="206" duration="100"/>
    <frame tileid="212" duration="100"/>
    <frame tileid="434" duration="100"/>
    <frame tileid="440" duration="100"/>
    <frame tileid="446" duration="100"/>
    <frame tileid="452" duration="100"/>
    <frame tileid="458" duration="100"/>
    <frame tileid="464" duration="100"/>
    <frame tileid="686" duration="100"/>
    <frame tileid="692" duration="100"/>
    <frame tileid="698" duration="100"/>
    <frame tileid="704" duration="100"/>
    <frame tileid="710" duration="100"/>
   </animation>
  </tile>
  <tile id="183">
   <animation>
    <frame tileid="183" duration="100"/>
    <frame tileid="189" duration="100"/>
    <frame tileid="195" duration="100"/>
    <frame tileid="201" duration="100"/>
    <frame tileid="207" duration="100"/>
    <frame tileid="213" duration="100"/>
    <frame tileid="435" duration="100"/>
    <frame tileid="441" duration="100"/>
    <frame tileid="447" duration="100"/>
    <frame tileid="453" duration="100"/>
    <frame tileid="459" duration="100"/>
    <frame tileid="465" duration="100"/>
    <frame tileid="687" duration="100"/>
    <frame tileid="693" duration="100"/>
    <frame tileid="699" duration="100"/>
    <frame tileid="705" duration="100"/>
    <frame tileid="711" duration="100"/>
   </animation>
  </tile>
  <tile id="184">
   <animation>
    <frame tileid="184" duration="100"/>
    <frame tileid="190" duration="100"/>
    <frame tileid="196" duration="100"/>
    <frame tileid="202" duration="100"/>
    <frame tileid="208" duration="100"/>
    <frame tileid="214" duration="100"/>
    <frame tileid="436" duration="100"/>
    <frame tileid="442" duration="100"/>
    <frame tileid="448" duration="100"/>
    <frame tileid="454" duration="100"/>
    <frame tileid="460" duration="100"/>
    <frame tileid="466" duration="100"/>
    <frame tileid="688" duration="100"/>
    <frame tileid="694" duration="100"/>
    <frame tileid="700" duration="100"/>
    <frame tileid="706" duration="100"/>
    <frame tileid="712" duration="100"/>
   </animation>
  </tile>
  <tile id="217">
   <animation>
    <frame tileid="217" duration="100"/>
    <frame tileid="223" duration="100"/>
    <frame tileid="229" duration="100"/>
    <frame tileid="235" duration="100"/>
    <frame tileid="241" duration="100"/>
    <frame tileid="247" duration="100"/>
    <frame tileid="469" duration="100"/>
    <frame tileid="475" duration="100"/>
    <frame tileid="481" duration="100"/>
    <frame tileid="487" duration="100"/>
    <frame tileid="493" duration="100"/>
    <frame tileid="499" duration="100"/>
    <frame tileid="721" duration="100"/>
    <frame tileid="727" duration="100"/>
    <frame tileid="733" duration="100"/>
    <frame tileid="739" duration="100"/>
    <frame tileid="745" duration="100"/>
   </animation>
  </tile>
  <tile id="218">
   <animation>
    <frame tileid="218" duration="100"/>
    <frame tileid="224" duration="100"/>
    <frame tileid="230" duration="100"/>
    <frame tileid="236" duration="100"/>
    <frame tileid="242" duration="100"/>
    <frame tileid="248" duration="100"/>
    <frame tileid="470" duration="100"/>
    <frame tileid="476" duration="100"/>
    <frame tileid="482" duration="100"/>
    <frame tileid="488" duration="100"/>
    <frame tileid="494" duration="100"/>
    <frame tileid="500" duration="100"/>
    <frame tileid="722" duration="100"/>
    <frame tileid="728" duration="100"/>
    <frame tileid="734" duration="100"/>
    <frame tileid="740" duration="100"/>
    <frame tileid="746" duration="100"/>
   </animation>
  </tile>
  <tile id="219">
   <animation>
    <frame tileid="219" duration="100"/>
    <frame tileid="225" duration="100"/>
    <frame tileid="231" duration="100"/>
    <frame tileid="237" duration="100"/>
    <frame tileid="243" duration="100"/>
    <frame tileid="249" duration="100"/>
    <frame tileid="471" duration="100"/>
    <frame tileid="477" duration="100"/>
    <frame tileid="483" duration="100"/>
    <frame tileid="489" duration="100"/>
    <frame tileid="495" duration="100"/>
    <frame tileid="501" duration="100"/>
    <frame tileid="723" duration="100"/>
    <frame tileid="729" duration="100"/>
    <frame tileid="735" duration="100"/>
    <frame tileid="741" duration="100"/>
    <frame tileid="747" duration="100"/>
   </animation>
  </tile>
  <tile id="220">
   <animation>
    <frame tileid="220" duration="100"/>
    <frame tileid="226" duration="100"/>
    <frame tileid="232" duration="100"/>
    <frame tileid="238" duration="100"/>
    <frame tileid="244" duration="100"/>
    <frame tileid="250" duration="100"/>
    <frame tileid="472" duration="100"/>
    <frame tileid="478" duration="100"/>
    <frame tileid="484" duration="100"/>
    <frame tileid="490" duration="100"/>
    <frame tileid="496" duration="100"/>
    <frame tileid="502" duration="100"/>
    <frame tileid="724" duration="100"/>
    <frame tileid="730" duration="100"/>
    <frame tileid="736" duration="100"/>
    <frame tileid="742" duration="100"/>
    <frame tileid="748" duration="100"/>
   </animation>
  </tile>
  <tile id="253">
   <animation>
    <frame tileid="253" duration="100"/>
    <frame tileid="259" duration="100"/>
    <frame tileid="265" duration="100"/>
    <frame tileid="271" duration="100"/>
    <frame tileid="277" duration="100"/>
    <frame tileid="283" duration="100"/>
    <frame tileid="505" duration="100"/>
    <frame tileid="511" duration="100"/>
    <frame tileid="517" duration="100"/>
    <frame tileid="523" duration="100"/>
    <frame tileid="529" duration="100"/>
    <frame tileid="535" duration="100"/>
    <frame tileid="757" duration="100"/>
    <frame tileid="763" duration="100"/>
    <frame tileid="769" duration="100"/>
    <frame tileid="775" duration="100"/>
    <frame tileid="781" duration="100"/>
   </animation>
  </tile>
  <tile id="254">
   <animation>
    <frame tileid="254" duration="100"/>
    <frame tileid="260" duration="100"/>
    <frame tileid="266" duration="100"/>
    <frame tileid="272" duration="100"/>
    <frame tileid="278" duration="100"/>
    <frame tileid="284" duration="100"/>
    <frame tileid="506" duration="100"/>
    <frame tileid="512" duration="100"/>
    <frame tileid="518" duration="100"/>
    <frame tileid="524" duration="100"/>
    <frame tileid="530" duration="100"/>
    <frame tileid="536" duration="100"/>
    <frame tileid="758" duration="100"/>
    <frame tileid="764" duration="100"/>
    <frame tileid="770" duration="100"/>
    <frame tileid="776" duration="100"/>
    <frame tileid="782" duration="100"/>
   </animation>
  </tile>
  <tile id="255">
   <animation>
    <frame tileid="255" duration="100"/>
    <frame tileid="261" duration="100"/>
    <frame tileid="267" duration="100"/>
    <frame tileid="273" duration="100"/>
    <frame tileid="279" duration="100"/>
    <frame tileid="285" duration="100"/>
    <frame tileid="507" duration="100"/>
    <frame tileid="513" duration="100"/>
    <frame tileid="519" duration="100"/>
    <frame tileid="525" duration="100"/>
    <frame tileid="531" duration="100"/>
    <frame tileid="537" duration="100"/>
    <frame tileid="759" duration="100"/>
    <frame tileid="765" duration="100"/>
    <frame tileid="771" duration="100"/>
    <frame tileid="777" duration="100"/>
    <frame tileid="783" duration="100"/>
   </animation>
  </tile>
  <tile id="256">
   <animation>
    <frame tileid="256" duration="100"/>
    <frame tileid="262" duration="100"/>
    <frame tileid="268" duration="100"/>
    <frame tileid="274" duration="100"/>
    <frame tileid="280" duration="100"/>
    <frame tileid="286" duration="100"/>
    <frame tileid="508" duration="100"/>
    <frame tileid="514" duration="100"/>
    <frame tileid="520" duration="100"/>
    <frame tileid="526" duration="100"/>
    <frame tileid="532" duration="100"/>
    <frame tileid="538" duration="100"/>
    <frame tileid="760" duration="100"/>
    <frame tileid="766" duration="100"/>
    <frame tileid="772" duration="100"/>
    <frame tileid="778" duration="100"/>
    <frame tileid="784" duration="100"/>
   </animation>
  </tile>
  <tile id="289">
   <animation>
    <frame tileid="289" duration="100"/>
    <frame tileid="295" duration="100"/>
    <frame tileid="301" duration="100"/>
    <frame tileid="307" duration="100"/>
    <frame tileid="313" duration="100"/>
    <frame tileid="319" duration="100"/>
    <frame tileid="541" duration="100"/>
    <frame tileid="547" duration="100"/>
    <frame tileid="553" duration="100"/>
    <frame tileid="559" duration="100"/>
    <frame tileid="565" duration="100"/>
    <frame tileid="571" duration="100"/>
    <frame tileid="793" duration="100"/>
    <frame tileid="799" duration="100"/>
    <frame tileid="805" duration="100"/>
    <frame tileid="811" duration="100"/>
    <frame tileid="817" duration="100"/>
   </animation>
  </tile>
  <tile id="290">
   <animation>
    <frame tileid="290" duration="100"/>
    <frame tileid="296" duration="100"/>
    <frame tileid="302" duration="100"/>
    <frame tileid="308" duration="100"/>
    <frame tileid="314" duration="100"/>
    <frame tileid="320" duration="100"/>
    <frame tileid="542" duration="100"/>
    <frame tileid="548" duration="100"/>
    <frame tileid="554" duration="100"/>
    <frame tileid="560" duration="100"/>
    <frame tileid="566" duration="100"/>
    <frame tileid="572" duration="100"/>
    <frame tileid="794" duration="100"/>
    <frame tileid="800" duration="100"/>
    <frame tileid="806" duration="100"/>
    <frame tileid="812" duration="100"/>
    <frame tileid="818" duration="100"/>
   </animation>
  </tile>
  <tile id="291">
   <animation>
    <frame tileid="291" duration="100"/>
    <frame tileid="297" duration="100"/>
    <frame tileid="303" duration="100"/>
    <frame tileid="309" duration="100"/>
    <frame tileid="315" duration="100"/>
    <frame tileid="321" duration="100"/>
    <frame tileid="543" duration="100"/>
    <frame tileid="549" duration="100"/>
    <frame tileid="555" duration="100"/>
    <frame tileid="561" duration="100"/>
    <frame tileid="567" duration="100"/>
    <frame tileid="573" duration="100"/>
    <frame tileid="795" duration="100"/>
    <frame tileid="801" duration="100"/>
    <frame tileid="807" duration="100"/>
    <frame tileid="813" duration="100"/>
    <frame tileid="819" duration="100"/>
   </animation>
  </tile>
  <tile id="292">
   <animation>
    <frame tileid="292" duration="100"/>
    <frame tileid="298" duration="100"/>
    <frame tileid="304" duration="100"/>
    <frame tileid="310" duration="100"/>
    <frame tileid="316" duration="100"/>
    <frame tileid="322" duration="100"/>
    <frame tileid="544" duration="100"/>
    <frame tileid="550" duration="100"/>
    <frame tileid="556" duration="100"/>
    <frame tileid="562" duration="100"/>
    <frame tileid="568" duration="100"/>
    <frame tileid="574" duration="100"/>
    <frame tileid="796" duration="100"/>
    <frame tileid="802" duration="100"/>
    <frame tileid="808" duration="100"/>
    <frame tileid="814" duration="100"/>
    <frame tileid="820" duration="100"/>
   </animation>
  </tile>
  <tile id="324">
   <animation>
    <frame tileid="324" duration="100"/>
    <frame tileid="330" duration="100"/>
    <frame tileid="336" duration="100"/>
    <frame tileid="342" duration="100"/>
    <frame tileid="348" duration="100"/>
    <frame tileid="354" duration="100"/>
    <frame tileid="576" duration="100"/>
    <frame tileid="582" duration="100"/>
    <frame tileid="588" duration="100"/>
    <frame tileid="594" duration="100"/>
    <frame tileid="600" duration="100"/>
    <frame tileid="606" duration="100"/>
    <frame tileid="828" duration="100"/>
    <frame tileid="834" duration="100"/>
    <frame tileid="840" duration="100"/>
    <frame tileid="846" duration="100"/>
    <frame tileid="852" duration="100"/>
   </animation>
  </tile>
  <tile id="325">
   <animation>
    <frame tileid="325" duration="100"/>
    <frame tileid="331" duration="100"/>
    <frame tileid="337" duration="100"/>
    <frame tileid="343" duration="100"/>
    <frame tileid="349" duration="100"/>
    <frame tileid="355" duration="100"/>
    <frame tileid="577" duration="100"/>
    <frame tileid="583" duration="100"/>
    <frame tileid="589" duration="100"/>
    <frame tileid="595" duration="100"/>
    <frame tileid="601" duration="100"/>
    <frame tileid="607" duration="100"/>
    <frame tileid="829" duration="100"/>
    <frame tileid="835" duration="100"/>
    <frame tileid="841" duration="100"/>
    <frame tileid="847" duration="100"/>
    <frame tileid="853" duration="100"/>
   </animation>
  </tile>
  <tile id="326">
   <animation>
    <frame tileid="326" duration="100"/>
    <frame tileid="332" duration="100"/>
    <frame tileid="338" duration="100"/>
    <frame tileid="344" duration="100"/>
    <frame tileid="350" duration="100"/>
    <frame tileid="356" duration="100"/>
    <frame tileid="578" duration="100"/>
    <frame tileid="584" duration="100"/>
    <frame tileid="590" duration="100"/>
    <frame tileid="596" duration="100"/>
    <frame tileid="602" duration="100"/>
    <frame tileid="608" duration="100"/>
    <frame tileid="830" duration="100"/>
    <frame tileid="836" duration="100"/>
    <frame tileid="842" duration="100"/>
    <frame tileid="848" duration="100"/>
    <frame tileid="854" duration="100"/>
   </animation>
  </tile>
  <tile id="327">
   <animation>
    <frame tileid="327" duration="100"/>
    <frame tileid="333" duration="100"/>
    <frame tileid="339" duration="100"/>
    <frame tileid="345" duration="100"/>
    <frame tileid="351" duration="100"/>
    <frame tileid="357" duration="100"/>
    <frame tileid="579" duration="100"/>
    <frame tileid="585" duration="100"/>
    <frame tileid="591" duration="100"/>
    <frame tileid="597" duration="100"/>
    <frame tileid="603" duration="100"/>
    <frame tileid="609" duration="100"/>
    <frame tileid="831" duration="100"/>
    <frame tileid="837" duration="100"/>
    <frame tileid="843" duration="100"/>
    <frame tileid="849" duration="100"/>
    <frame tileid="855" duration="100"/>
   </animation>
  </tile>
  <tile id="328">
   <animation>
    <frame tileid="328" duration="100"/>
    <frame tileid="334" duration="100"/>
    <frame tileid="340" duration="100"/>
    <frame tileid="346" duration="100"/>
    <frame tileid="352" duration="100"/>
    <frame tileid="358" duration="100"/>
    <frame tileid="580" duration="100"/>
    <frame tileid="586" duration="100"/>
    <frame tileid="592" duration="100"/>
    <frame tileid="598" duration="100"/>
    <frame tileid="604" duration="100"/>
    <frame tileid="610" duration="100"/>
    <frame tileid="832" duration="100"/>
    <frame tileid="838" duration="100"/>
    <frame tileid="844" duration="100"/>
    <frame tileid="850" duration="100"/>
    <frame tileid="856" duration="100"/>
   </animation>
  </tile>
  <tile id="329">
   <animation>
    <frame tileid="329" duration="100"/>
    <frame tileid="335" duration="100"/>
    <frame tileid="341" duration="100"/>
    <frame tileid="347" duration="100"/>
    <frame tileid="353" duration="100"/>
    <frame tileid="359" duration="100"/>
    <frame tileid="581" duration="100"/>
    <frame tileid="587" duration="100"/>
    <frame tileid="593" duration="100"/>
    <frame tileid="599" duration="100"/>
    <frame tileid="605" duration="100"/>
    <frame tileid="611" duration="100"/>
    <frame tileid="833" duration="100"/>
    <frame tileid="839" duration="100"/>
    <frame tileid="845" duration="100"/>
    <frame tileid="851" duration="100"/>
    <frame tileid="857" duration="100"/>
   </animation>
  </tile>
  <tile id="360">
   <animation>
    <frame tileid="360" duration="100"/>
    <frame tileid="366" duration="100"/>
    <frame tileid="372" duration="100"/>
    <frame tileid="378" duration="100"/>
    <frame tileid="384" duration="100"/>
    <frame tileid="390" duration="100"/>
    <frame tileid="612" duration="100"/>
    <frame tileid="618" duration="100"/>
    <frame tileid="624" duration="100"/>
    <frame tileid="630" duration="100"/>
    <frame tileid="636" duration="100"/>
    <frame tileid="642" duration="100"/>
    <frame tileid="864" duration="100"/>
    <frame tileid="870" duration="100"/>
    <frame tileid="876" duration="100"/>
    <frame tileid="882" duration="100"/>
    <frame tileid="888" duration="100"/>
   </animation>
  </tile>
  <tile id="361">
   <animation>
    <frame tileid="361" duration="100"/>
    <frame tileid="367" duration="100"/>
    <frame tileid="373" duration="100"/>
    <frame tileid="379" duration="100"/>
    <frame tileid="385" duration="100"/>
    <frame tileid="391" duration="100"/>
    <frame tileid="613" duration="100"/>
    <frame tileid="619" duration="100"/>
    <frame tileid="625" duration="100"/>
    <frame tileid="631" duration="100"/>
    <frame tileid="637" duration="100"/>
    <frame tileid="643" duration="100"/>
    <frame tileid="865" duration="100"/>
    <frame tileid="871" duration="100"/>
    <frame tileid="877" duration="100"/>
    <frame tileid="883" duration="100"/>
    <frame tileid="889" duration="100"/>
   </animation>
  </tile>
  <tile id="362">
   <animation>
    <frame tileid="362" duration="100"/>
    <frame tileid="368" duration="100"/>
    <frame tileid="374" duration="100"/>
    <frame tileid="380" duration="100"/>
    <frame tileid="386" duration="100"/>
    <frame tileid="392" duration="100"/>
    <frame tileid="614" duration="100"/>
    <frame tileid="620" duration="100"/>
    <frame tileid="626" duration="100"/>
    <frame tileid="632" duration="100"/>
    <frame tileid="638" duration="100"/>
    <frame tileid="644" duration="100"/>
    <frame tileid="866" duration="100"/>
    <frame tileid="872" duration="100"/>
    <frame tileid="878" duration="100"/>
    <frame tileid="884" duration="100"/>
    <frame tileid="890" duration="100"/>
   </animation>
  </tile>
  <tile id="363">
   <animation>
    <frame tileid="363" duration="100"/>
    <frame tileid="369" duration="100"/>
    <frame tileid="375" duration="100"/>
    <frame tileid="381" duration="100"/>
    <frame tileid="387" duration="100"/>
    <frame tileid="393" duration="100"/>
    <frame tileid="615" duration="100"/>
    <frame tileid="621" duration="100"/>
    <frame tileid="627" duration="100"/>
    <frame tileid="633" duration="100"/>
    <frame tileid="639" duration="100"/>
    <frame tileid="645" duration="100"/>
    <frame tileid="867" duration="100"/>
    <frame tileid="873" duration="100"/>
    <frame tileid="879" duration="100"/>
    <frame tileid="885" duration="100"/>
    <frame tileid="891" duration="100"/>
   </animation>
  </tile>
  <tile id="364">
   <animation>
    <frame tileid="364" duration="100"/>
    <frame tileid="370" duration="100"/>
    <frame tileid="376" duration="100"/>
    <frame tileid="382" duration="100"/>
    <frame tileid="388" duration="100"/>
    <frame tileid="394" duration="100"/>
    <frame tileid="616" duration="100"/>
    <frame tileid="622" duration="100"/>
    <frame tileid="628" duration="100"/>
    <frame tileid="634" duration="100"/>
    <frame tileid="640" duration="100"/>
    <frame tileid="646" duration="100"/>
    <frame tileid="868" duration="100"/>
    <frame tileid="874" duration="100"/>
    <frame tileid="880" duration="100"/>
    <frame tileid="886" duration="100"/>
    <frame tileid="892" duration="100"/>
   </animation>
  </tile>
  <tile id="365">
   <animation>
    <frame tileid="365" duration="100"/>
    <frame tileid="371" duration="100"/>
    <frame tileid="377" duration="100"/>
    <frame tileid="383" duration="100"/>
    <frame tileid="389" duration="100"/>
    <frame tileid="395" duration="100"/>
    <frame tileid="617" duration="100"/>
    <frame tileid="623" duration="100"/>
    <frame tileid="629" duration="100"/>
    <frame tileid="635" duration="100"/>
    <frame tileid="641" duration="100"/>
    <frame tileid="647" duration="100"/>
    <frame tileid="869" duration="100"/>
    <frame tileid="875" duration="100"/>
    <frame tileid="881" duration="100"/>
    <frame tileid="887" duration="100"/>
    <frame tileid="893" duration="100"/>
   </animation>
  </tile>
 </tileset>
 <tileset firstgid="8756" name="x02 - spring_outdoorsTileSheet2" tilewidth="16" tileheight="16" tilecount="1120" columns="16">
  <image source="spring_outdoorsTileSheet2.png" width="256" height="1120"/>
  <tile id="0">
   <properties>
    <property name="NoSpawn" value="All"/>
    <property name="Type" value="Stone"/>
   </properties>
  </tile>
  <tile id="1">
   <properties>
    <property name="NoSpawn" value="All"/>
    <property name="Type" value="Stone"/>
   </properties>
  </tile>
  <tile id="2">
   <properties>
    <property name="NoSpawn" value="All"/>
    <property name="Type" value="Stone"/>
   </properties>
  </tile>
  <tile id="6">
   <properties>
    <property name="NoSpawn" value="All"/>
    <property name="Type" value="Stone"/>
   </properties>
  </tile>
  <tile id="7">
   <properties>
    <property name="NoSpawn" value="All"/>
    <property name="Type" value="Stone"/>
   </properties>
  </tile>
  <tile id="8">
   <properties>
    <property name="Buildable" type="bool" value="true"/>
    <property name="Diggable" type="bool" value="true"/>
    <property name="Type" value="Dirt"/>
   </properties>
  </tile>
  <tile id="12">
   <properties>
    <property name="NoSpawn" value="All"/>
    <property name="Type" value="Dirt"/>
   </properties>
  </tile>
  <tile id="14">
   <properties>
    <property name="NoSpawn" value="All"/>
    <property name="Type" value="Stone"/>
   </properties>
  </tile>
  <tile id="16">
   <properties>
    <property name="NoSpawn" value="All"/>
    <property name="Type" value="Stone"/>
   </properties>
  </tile>
  <tile id="17">
   <properties>
    <property name="NoSpawn" value="All"/>
    <property name="Type" value="Stone"/>
   </properties>
  </tile>
  <tile id="22">
   <properties>
    <property name="NoSpawn" value="All"/>
    <property name="Type" value="Stone"/>
   </properties>
  </tile>
  <tile id="23">
   <properties>
    <property name="NoSpawn" value="All"/>
    <property name="Type" value="Stone"/>
   </properties>
  </tile>
  <tile id="24">
   <properties>
    <property name="Buildable" type="bool" value="true"/>
    <property name="Type" value="Dirt"/>
   </properties>
  </tile>
  <tile id="29">
   <properties>
    <property name="NoSpawn" value="All"/>
    <property name="Type" value="Stone"/>
   </properties>
  </tile>
  <tile id="31">
   <properties>
    <property name="Buildable" type="bool" value="true"/>
    <property name="Type" value="Stone"/>
   </properties>
  </tile>
  <tile id="32">
   <properties>
    <property name="NoSpawn" value="All"/>
    <property name="Type" value="Stone"/>
   </properties>
  </tile>
  <tile id="33">
   <properties>
    <property name="NoSpawn" value="All"/>
    <property name="Type" value="Stone"/>
   </properties>
  </tile>
  <tile id="34">
   <properties>
    <property name="NoSpawn" value="All"/>
    <property name="Type" value="Stone"/>
   </properties>
  </tile>
  <tile id="38">
   <properties>
    <property name="NoSpawn" value="All"/>
    <property name="Type" value="Stone"/>
   </properties>
  </tile>
  <tile id="39">
   <properties>
    <property name="NoSpawn" value="All"/>
    <property name="Type" value="Stone"/>
   </properties>
  </tile>
  <tile id="44">
   <properties>
    <property name="NoSpawn" value="All"/>
    <property name="Type" value="Stone"/>
   </properties>
  </tile>
  <tile id="45">
   <properties>
    <property name="NoSpawn" value="All"/>
    <property name="Type" value="Stone"/>
   </properties>
  </tile>
  <tile id="46">
   <properties>
    <property name="NoSpawn" value="All"/>
    <property name="Type" value="Stone"/>
   </properties>
  </tile>
  <tile id="47">
   <properties>
    <property name="NoSpawn" value="All"/>
    <property name="Type" value="Stone"/>
   </properties>
  </tile>
  <tile id="48">
   <properties>
    <property name="NoSpawn" value="All"/>
    <property name="Type" value="Stone"/>
   </properties>
  </tile>
  <tile id="49">
   <properties>
    <property name="NoSpawn" value="All"/>
    <property name="Type" value="Stone"/>
   </properties>
  </tile>
  <tile id="50">
   <properties>
    <property name="NoSpawn" value="All"/>
    <property name="Type" value="Stone"/>
   </properties>
  </tile>
  <tile id="51">
   <properties>
    <property name="NoSpawn" value="All"/>
    <property name="Type" value="Stone"/>
   </properties>
  </tile>
  <tile id="52">
   <properties>
    <property name="NoSpawn" value="All"/>
    <property name="Type" value="Stone"/>
   </properties>
  </tile>
  <tile id="53">
   <properties>
    <property name="NoSpawn" value="All"/>
    <property name="Type" value="Stone"/>
   </properties>
  </tile>
  <tile id="54">
   <properties>
    <property name="NoSpawn" value="All"/>
    <property name="Type" value="Stone"/>
   </properties>
  </tile>
  <tile id="55">
   <properties>
    <property name="NoSpawn" value="All"/>
    <property name="Type" value="Stone"/>
   </properties>
  </tile>
  <tile id="59">
   <properties>
    <property name="NoSpawn" value="All"/>
    <property name="Type" value="Stone"/>
   </properties>
  </tile>
  <tile id="60">
   <properties>
    <property name="NoSpawn" value="All"/>
    <property name="Type" value="Stone"/>
   </properties>
  </tile>
  <tile id="61">
   <properties>
    <property name="NoSpawn" value="All"/>
    <property name="Type" value="Stone"/>
   </properties>
  </tile>
  <tile id="62">
   <properties>
    <property name="NoSpawn" value="All"/>
    <property name="Type" value="Stone"/>
   </properties>
  </tile>
  <tile id="63">
   <properties>
    <property name="NoSpawn" value="All"/>
    <property name="Type" value="Stone"/>
   </properties>
  </tile>
  <tile id="64">
   <properties>
    <property name="NoSpawn" value="All"/>
    <property name="Type" value="Stone"/>
   </properties>
  </tile>
  <tile id="66">
   <properties>
    <property name="NoSpawn" value="All"/>
    <property name="Type" value="Stone"/>
   </properties>
  </tile>
  <tile id="67">
   <properties>
    <property name="NoSpawn" value="All"/>
    <property name="Type" value="Stone"/>
   </properties>
  </tile>
  <tile id="68">
   <properties>
    <property name="NoSpawn" value="All"/>
    <property name="Type" value="Stone"/>
   </properties>
  </tile>
  <tile id="69">
   <properties>
    <property name="NoSpawn" value="All"/>
    <property name="Type" value="Stone"/>
   </properties>
  </tile>
  <tile id="70">
   <properties>
    <property name="NoSpawn" value="All"/>
    <property name="Type" value="Stone"/>
   </properties>
  </tile>
  <tile id="71">
   <properties>
    <property name="NoSpawn" value="All"/>
    <property name="Type" value="Stone"/>
   </properties>
  </tile>
  <tile id="72">
   <properties>
    <property name="NoSpawn" value="All"/>
    <property name="Type" value="Wood"/>
   </properties>
  </tile>
  <tile id="74">
   <properties>
    <property name="NoSpawn" value="All"/>
    <property name="Type" value="Stone"/>
   </properties>
  </tile>
  <tile id="75">
   <properties>
    <property name="NoSpawn" value="All"/>
    <property name="Type" value="Stone"/>
   </properties>
  </tile>
  <tile id="76">
   <properties>
    <property name="NoSpawn" value="All"/>
    <property name="Type" value="Stone"/>
   </properties>
  </tile>
  <tile id="77">
   <properties>
    <property name="NoSpawn" value="All"/>
    <property name="Type" value="Stone"/>
   </properties>
  </tile>
  <tile id="78">
   <properties>
    <property name="Buildable" type="bool" value="true"/>
    <property name="Type" value="Stone"/>
   </properties>
  </tile>
  <tile id="79">
   <properties>
    <property name="NoSpawn" value="All"/>
    <property name="Type" value="Stone"/>
   </properties>
  </tile>
  <tile id="80">
   <properties>
    <property name="NoSpawn" value="All"/>
    <property name="Type" value="Stone"/>
   </properties>
  </tile>
  <tile id="82">
   <properties>
    <property name="NoSpawn" value="All"/>
    <property name="Type" value="Stone"/>
   </properties>
  </tile>
  <tile id="83">
   <properties>
    <property name="Buildable" type="bool" value="true"/>
    <property name="Diggable" type="bool" value="true"/>
    <property name="Type" value="Grass"/>
   </properties>
  </tile>
  <tile id="90">
   <properties>
    <property name="NoSpawn" value="All"/>
    <property name="Type" value="Stone"/>
   </properties>
  </tile>
  <tile id="91">
   <properties>
    <property name="Buildable" type="bool" value="true"/>
    <property name="Type" value="Stone"/>
   </properties>
  </tile>
  <tile id="92">
   <properties>
    <property name="NoSpawn" value="All"/>
    <property name="Type" value="Stone"/>
   </properties>
  </tile>
  <tile id="93">
   <properties>
    <property name="NoSpawn" value="All"/>
    <property name="Type" value="Stone"/>
   </properties>
  </tile>
  <tile id="94">
   <properties>
    <property name="Buildable" type="bool" value="true"/>
    <property name="Type" value="Stone"/>
   </properties>
  </tile>
  <tile id="95">
   <properties>
    <property name="NoSpawn" value="All"/>
    <property name="Type" value="Stone"/>
   </properties>
  </tile>
  <tile id="96">
   <properties>
    <property name="NoSpawn" value="All"/>
    <property name="Type" value="Stone"/>
   </properties>
  </tile>
  <tile id="98">
   <properties>
    <property name="NoSpawn" value="All"/>
    <property name="Type" value="Stone"/>
   </properties>
  </tile>
  <tile id="107">
   <properties>
    <property name="Buildable" type="bool" value="true"/>
    <property name="Type" value="Stone"/>
   </properties>
  </tile>
  <tile id="108">
   <properties>
    <property name="Buildable" type="bool" value="true"/>
    <property name="Type" value="Stone"/>
   </properties>
  </tile>
  <tile id="109">
   <properties>
    <property name="Buildable" type="bool" value="true"/>
    <property name="Type" value="Stone"/>
   </properties>
  </tile>
  <tile id="110">
   <properties>
    <property name="Buildable" type="bool" value="true"/>
    <property name="Type" value="Stone"/>
   </properties>
  </tile>
  <tile id="111">
   <properties>
    <property name="Buildable" type="bool" value="true"/>
    <property name="Type" value="Stone"/>
   </properties>
  </tile>
  <tile id="122">
   <properties>
    <property name="Buildable" type="bool" value="true"/>
    <property name="Diggable" type="bool" value="true"/>
    <property name="Type" value="Grass"/>
   </properties>
  </tile>
  <tile id="123">
   <properties>
    <property name="Buildable" type="bool" value="true"/>
    <property name="Type" value="Stone"/>
   </properties>
  </tile>
  <tile id="124">
   <properties>
    <property name="Buildable" type="bool" value="true"/>
    <property name="Type" value="Stone"/>
   </properties>
  </tile>
  <tile id="125">
   <properties>
    <property name="Buildable" type="bool" value="true"/>
    <property name="Type" value="Stone"/>
   </properties>
  </tile>
  <tile id="126">
   <properties>
    <property name="Buildable" type="bool" value="true"/>
    <property name="Type" value="Stone"/>
   </properties>
  </tile>
  <tile id="137">
   <properties>
    <property name="Buildable" type="bool" value="true"/>
    <property name="Diggable" type="bool" value="true"/>
    <property name="Type" value="Grass"/>
   </properties>
  </tile>
  <tile id="138">
   <properties>
    <property name="Buildable" type="bool" value="true"/>
    <property name="Diggable" type="bool" value="true"/>
    <property name="Type" value="Grass"/>
   </properties>
  </tile>
  <tile id="139">
   <properties>
    <property name="Buildable" type="bool" value="true"/>
    <property name="Type" value="Stone"/>
   </properties>
  </tile>
  <tile id="140">
   <properties>
    <property name="Buildable" type="bool" value="true"/>
    <property name="Type" value="Stone"/>
   </properties>
  </tile>
  <tile id="141">
   <properties>
    <property name="Buildable" type="bool" value="true"/>
    <property name="Type" value="Stone"/>
   </properties>
  </tile>
  <tile id="142">
   <properties>
    <property name="Buildable" type="bool" value="true"/>
    <property name="Type" value="Stone"/>
   </properties>
  </tile>
  <tile id="173">
   <properties>
    <property name="NoSpawn" value="All"/>
    <property name="Type" value="Stone"/>
   </properties>
  </tile>
  <tile id="175">
   <properties>
    <property name="NoSpawn" value="All"/>
    <property name="Type" value="Stone"/>
   </properties>
  </tile>
  <tile id="189">
   <properties>
    <property name="NoSpawn" value="All"/>
    <property name="Type" value="Stone"/>
   </properties>
  </tile>
  <tile id="191">
   <properties>
    <property name="NoSpawn" value="All"/>
    <property name="Type" value="Stone"/>
   </properties>
  </tile>
  <tile id="205">
   <properties>
    <property name="NoSpawn" value="All"/>
    <property name="Type" value="Stone"/>
   </properties>
  </tile>
  <tile id="207">
   <properties>
    <property name="NoSpawn" value="All"/>
    <property name="Type" value="Stone"/>
   </properties>
  </tile>
  <tile id="368">
   <properties>
    <property name="NoSpawn" value="All"/>
    <property name="Type" value="Grass"/>
   </properties>
  </tile>
  <tile id="371">
   <properties>
    <property name="NoSpawn" value="All"/>
    <property name="Type" value="Grass"/>
   </properties>
  </tile>
  <tile id="373">
   <properties>
    <property name="Diggable" type="bool" value="true"/>
    <property name="Type" value="Grass"/>
   </properties>
  </tile>
  <tile id="374">
   <properties>
    <property name="Diggable" type="bool" value="true"/>
    <property name="Type" value="Grass"/>
   </properties>
  </tile>
  <tile id="376">
   <properties>
    <property name="NoSpawn" value="All"/>
    <property name="Type" value="Grass"/>
   </properties>
  </tile>
  <tile id="377">
   <properties>
    <property name="NoSpawn" value="All"/>
    <property name="Type" value="Grass"/>
   </properties>
  </tile>
  <tile id="380">
   <properties>
    <property name="NoSpawn" value="All"/>
    <property name="Type" value="Grass"/>
   </properties>
  </tile>
  <tile id="381">
   <properties>
    <property name="NoSpawn" value="All"/>
    <property name="Type" value="Grass"/>
   </properties>
  </tile>
  <tile id="384">
   <properties>
    <property name="NoSpawn" value="All"/>
    <property name="Type" value="Stone"/>
   </properties>
  </tile>
  <tile id="385">
   <properties>
    <property name="NoSpawn" value="All"/>
    <property name="Type" value="Stone"/>
   </properties>
  </tile>
  <tile id="386">
   <properties>
    <property name="NoSpawn" value="All"/>
    <property name="Type" value="Stone"/>
   </properties>
  </tile>
  <tile id="387">
   <properties>
    <property name="NoSpawn" value="All"/>
    <property name="Type" value="Stone"/>
   </properties>
  </tile>
  <tile id="388">
   <properties>
    <property name="NoSpawn" value="All"/>
    <property name="Type" value="Stone"/>
   </properties>
  </tile>
  <tile id="389">
   <properties>
    <property name="NoSpawn" value="All"/>
    <property name="Type" value="Grass"/>
   </properties>
  </tile>
  <tile id="390">
   <properties>
    <property name="NoSpawn" value="All"/>
    <property name="Type" value="Grass"/>
   </properties>
  </tile>
  <tile id="391">
   <properties>
    <property name="NoSpawn" value="All"/>
    <property name="Type" value="Stone"/>
   </properties>
  </tile>
  <tile id="392">
   <properties>
    <property name="NoSpawn" value="All"/>
    <property name="Type" value="Stone"/>
   </properties>
  </tile>
  <tile id="393">
   <properties>
    <property name="NoSpawn" value="All"/>
    <property name="Type" value="Stone"/>
   </properties>
  </tile>
  <tile id="394">
   <properties>
    <property name="NoSpawn" value="All"/>
    <property name="Type" value="Stone"/>
   </properties>
  </tile>
  <tile id="395">
   <properties>
    <property name="NoSpawn" value="All"/>
    <property name="Type" value="Stone"/>
   </properties>
  </tile>
  <tile id="396">
   <properties>
    <property name="NoSpawn" value="All"/>
    <property name="Type" value="Stone"/>
   </properties>
  </tile>
  <tile id="397">
   <properties>
    <property name="NoSpawn" value="All"/>
    <property name="Type" value="Stone"/>
   </properties>
  </tile>
  <tile id="400">
   <properties>
    <property name="NoSpawn" value="All"/>
    <property name="Type" value="Stone"/>
   </properties>
  </tile>
  <tile id="401">
   <properties>
    <property name="NoSpawn" value="All"/>
    <property name="Type" value="Stone"/>
   </properties>
  </tile>
  <tile id="402">
   <properties>
    <property name="NoSpawn" value="All"/>
    <property name="Type" value="Stone"/>
   </properties>
  </tile>
  <tile id="403">
   <properties>
    <property name="NoSpawn" value="All"/>
    <property name="Type" value="Stone"/>
   </properties>
  </tile>
  <tile id="404">
   <properties>
    <property name="NoSpawn" value="All"/>
    <property name="Type" value="Grass"/>
   </properties>
  </tile>
  <tile id="409">
   <properties>
    <property name="NoSpawn" value="All"/>
    <property name="Type" value="Stone"/>
   </properties>
  </tile>
  <tile id="410">
   <properties>
    <property name="NoSpawn" value="All"/>
    <property name="Type" value="Stone"/>
   </properties>
  </tile>
  <tile id="411">
   <properties>
    <property name="NoSpawn" value="All"/>
    <property name="Type" value="Stone"/>
   </properties>
  </tile>
  <tile id="412">
   <properties>
    <property name="NoSpawn" value="All"/>
    <property name="Type" value="Stone"/>
   </properties>
  </tile>
  <tile id="417">
   <properties>
    <property name="NoSpawn" value="All"/>
    <property name="Type" value="Stone"/>
   </properties>
  </tile>
  <tile id="418">
   <properties>
    <property name="NoSpawn" value="All"/>
    <property name="Type" value="Stone"/>
   </properties>
  </tile>
  <tile id="420">
   <properties>
    <property name="NoSpawn" value="All"/>
    <property name="Type" value="Stone"/>
   </properties>
  </tile>
  <tile id="421">
   <properties>
    <property name="NoSpawn" value="All"/>
    <property name="Type" value="Grass"/>
   </properties>
  </tile>
  <tile id="433">
   <properties>
    <property name="NoSpawn" value="All"/>
    <property name="Type" value="Stone"/>
   </properties>
  </tile>
  <tile id="434">
   <properties>
    <property name="NoSpawn" value="All"/>
    <property name="Type" value="Stone"/>
   </properties>
  </tile>
  <tile id="436">
   <properties>
    <property name="NoSpawn" value="All"/>
    <property name="Type" value="Stone"/>
   </properties>
  </tile>
  <tile id="437">
   <properties>
    <property name="NoSpawn" value="All"/>
    <property name="Type" value="Stone"/>
   </properties>
  </tile>
  <tile id="438">
   <properties>
    <property name="NoSpawn" value="All"/>
    <property name="Type" value="Grass"/>
   </properties>
  </tile>
  <tile id="448">
   <properties>
    <property name="NoSpawn" value="All"/>
    <property name="Type" value="Stone"/>
   </properties>
  </tile>
  <tile id="449">
   <properties>
    <property name="NoSpawn" value="All"/>
    <property name="Type" value="Stone"/>
   </properties>
  </tile>
  <tile id="450">
   <properties>
    <property name="NoSpawn" value="All"/>
    <property name="Type" value="Stone"/>
   </properties>
  </tile>
  <tile id="451">
   <properties>
    <property name="NoSpawn" value="All"/>
    <property name="Type" value="Stone"/>
   </properties>
  </tile>
  <tile id="452">
   <properties>
    <property name="NoSpawn" value="All"/>
    <property name="Type" value="Stone"/>
   </properties>
  </tile>
  <tile id="453">
   <properties>
    <property name="NoSpawn" value="All"/>
    <property name="Type" value="Stone"/>
   </properties>
  </tile>
  <tile id="454">
   <properties>
    <property name="NoSpawn" value="All"/>
    <property name="Type" value="Stone"/>
   </properties>
  </tile>
  <tile id="455">
   <properties>
    <property name="NoSpawn" value="All"/>
    <property name="Type" value="Grass"/>
   </properties>
  </tile>
  <tile id="464">
   <properties>
    <property name="NoSpawn" value="All"/>
    <property name="Type" value="Stone"/>
   </properties>
  </tile>
  <tile id="465">
   <properties>
    <property name="NoSpawn" value="All"/>
    <property name="Type" value="Stone"/>
   </properties>
  </tile>
  <tile id="466">
   <properties>
    <property name="NoSpawn" value="All"/>
    <property name="Type" value="Stone"/>
   </properties>
  </tile>
  <tile id="467">
   <properties>
    <property name="NoSpawn" value="All"/>
    <property name="Type" value="Stone"/>
   </properties>
  </tile>
  <tile id="471">
   <properties>
    <property name="NoSpawn" value="All"/>
    <property name="Type" value="Grass"/>
   </properties>
  </tile>
  <tile id="480">
   <properties>
    <property name="NoSpawn" value="All"/>
    <property name="Type" value="Stone"/>
   </properties>
  </tile>
  <tile id="481">
   <properties>
    <property name="NoSpawn" value="All"/>
    <property name="Type" value="Stone"/>
   </properties>
  </tile>
  <tile id="482">
   <properties>
    <property name="NoSpawn" value="All"/>
    <property name="Type" value="Stone"/>
   </properties>
  </tile>
  <tile id="483">
   <properties>
    <property name="NoSpawn" value="All"/>
    <property name="Type" value="Stone"/>
   </properties>
  </tile>
  <tile id="486">
   <properties>
    <property name="NoSpawn" value="All"/>
    <property name="Type" value="Grass"/>
   </properties>
  </tile>
  <tile id="487">
   <properties>
    <property name="NoSpawn" value="All"/>
    <property name="Type" value="Stone"/>
   </properties>
  </tile>
  <tile id="496">
   <properties>
    <property name="NoSpawn" value="All"/>
    <property name="Type" value="Stone"/>
   </properties>
  </tile>
  <tile id="497">
   <properties>
    <property name="NoSpawn" value="All"/>
    <property name="Type" value="Stone"/>
   </properties>
  </tile>
  <tile id="498">
   <properties>
    <property name="NoSpawn" value="All"/>
    <property name="Type" value="Stone"/>
   </properties>
  </tile>
  <tile id="499">
   <properties>
    <property name="NoSpawn" value="All"/>
    <property name="Type" value="Stone"/>
   </properties>
  </tile>
  <tile id="501">
   <properties>
    <property name="NoSpawn" value="All"/>
    <property name="Type" value="Grass"/>
   </properties>
  </tile>
  <tile id="502">
   <properties>
    <property name="NoSpawn" value="All"/>
    <property name="Type" value="Stone"/>
   </properties>
  </tile>
  <tile id="503">
   <properties>
    <property name="NoSpawn" value="All"/>
    <property name="Type" value="Stone"/>
   </properties>
  </tile>
  <tile id="516">
   <properties>
    <property name="NoSpawn" value="All"/>
    <property name="Type" value="Grass"/>
   </properties>
  </tile>
  <tile id="517">
   <properties>
    <property name="NoSpawn" value="All"/>
    <property name="Type" value="Stone"/>
   </properties>
  </tile>
  <tile id="518">
   <properties>
    <property name="NoSpawn" value="All"/>
    <property name="Type" value="Stone"/>
   </properties>
  </tile>
  <tile id="519">
   <properties>
    <property name="NoSpawn" value="All"/>
    <property name="Type" value="Stone"/>
   </properties>
  </tile>
  <tile id="536">
   <properties>
    <property name="NoSpawn" value="All"/>
    <property name="Type" value="Grass"/>
   </properties>
   <animation>
    <frame tileid="536" duration="1000"/>
    <frame tileid="540" duration="1000"/>
   </animation>
  </tile>
  <tile id="537">
   <properties>
    <property name="NoSpawn" value="All"/>
    <property name="Type" value="Dirt"/>
   </properties>
   <animation>
    <frame tileid="537" duration="1000"/>
    <frame tileid="541" duration="1000"/>
   </animation>
  </tile>
  <tile id="538">
   <properties>
    <property name="NoSpawn" value="All"/>
    <property name="Type" value="Grass"/>
   </properties>
   <animation>
    <frame tileid="538" duration="1000"/>
    <frame tileid="542" duration="1000"/>
   </animation>
  </tile>
  <tile id="539">
   <properties>
    <property name="NoSpawn" value="All"/>
   </properties>
  </tile>
  <tile id="540">
   <properties>
    <property name="NoSpawn" value="All"/>
    <property name="Type" value="Grass"/>
   </properties>
  </tile>
  <tile id="541">
   <properties>
    <property name="NoSpawn" value="All"/>
    <property name="Type" value="Dirt"/>
   </properties>
  </tile>
  <tile id="542">
   <properties>
    <property name="NoSpawn" value="All"/>
    <property name="Type" value="Grass"/>
   </properties>
  </tile>
  <tile id="544">
   <properties>
    <property name="NoSpawn" value="All"/>
    <property name="Type" value="Stone"/>
   </properties>
  </tile>
  <tile id="545">
   <properties>
    <property name="NoSpawn" value="All"/>
    <property name="Type" value="Stone"/>
   </properties>
  </tile>
  <tile id="546">
   <properties>
    <property name="NoSpawn" value="All"/>
    <property name="Type" value="Stone"/>
   </properties>
  </tile>
  <tile id="547">
   <properties>
    <property name="NoSpawn" value="All"/>
    <property name="Type" value="Stone"/>
   </properties>
  </tile>
  <tile id="550">
   <properties>
    <property name="NoSpawn" value="All"/>
    <property name="Type" value="Stone"/>
   </properties>
  </tile>
  <tile id="551">
   <properties>
    <property name="NoSpawn" value="All"/>
    <property name="Type" value="Stone"/>
   </properties>
  </tile>
  <tile id="552">
   <properties>
    <property name="NoSpawn" value="All"/>
    <property name="Type" value="Dirt"/>
   </properties>
   <animation>
    <frame tileid="552" duration="1000"/>
    <frame tileid="556" duration="1000"/>
   </animation>
  </tile>
  <tile id="553">
   <animation>
    <frame tileid="553" duration="1000"/>
    <frame tileid="557" duration="1000"/>
   </animation>
  </tile>
  <tile id="554">
   <properties>
    <property name="NoSpawn" value="All"/>
    <property name="Type" value="Dirt"/>
   </properties>
   <animation>
    <frame tileid="554" duration="1000"/>
    <frame tileid="558" duration="1000"/>
   </animation>
  </tile>
  <tile id="556">
   <properties>
    <property name="NoSpawn" value="All"/>
    <property name="Type" value="Dirt"/>
   </properties>
  </tile>
  <tile id="558">
   <properties>
    <property name="NoSpawn" value="All"/>
    <property name="Type" value="Dirt"/>
   </properties>
  </tile>
  <tile id="563">
   <properties>
    <property name="NoSpawn" value="All"/>
    <property name="Type" value="Stone"/>
   </properties>
  </tile>
  <tile id="564">
   <properties>
    <property name="NoSpawn" value="All"/>
    <property name="Type" value="Stone"/>
   </properties>
  </tile>
  <tile id="565">
   <properties>
    <property name="NoSpawn" value="All"/>
    <property name="Type" value="Stone"/>
   </properties>
  </tile>
  <tile id="566">
   <properties>
    <property name="NoSpawn" value="All"/>
    <property name="Type" value="Stone"/>
   </properties>
  </tile>
  <tile id="568">
   <properties>
    <property name="NoSpawn" value="All"/>
    <property name="Type" value="Dirt"/>
   </properties>
   <animation>
    <frame tileid="568" duration="1000"/>
    <frame tileid="572" duration="1000"/>
   </animation>
  </tile>
  <tile id="570">
   <properties>
    <property name="NoSpawn" value="All"/>
    <property name="Type" value="Dirt"/>
   </properties>
   <animation>
    <frame tileid="570" duration="1000"/>
    <frame tileid="574" duration="1000"/>
   </animation>
  </tile>
  <tile id="572">
   <properties>
    <property name="NoSpawn" value="All"/>
    <property name="Type" value="Dirt"/>
   </properties>
  </tile>
  <tile id="574">
   <properties>
    <property name="NoSpawn" value="All"/>
    <property name="Type" value="Dirt"/>
   </properties>
  </tile>
  <tile id="576">
   <properties>
    <property name="NoSpawn" value="All"/>
    <property name="Type" value="Stone"/>
   </properties>
  </tile>
  <tile id="577">
   <properties>
    <property name="NoSpawn" value="All"/>
    <property name="Type" value="Stone"/>
   </properties>
  </tile>
  <tile id="578">
   <properties>
    <property name="NoSpawn" value="All"/>
    <property name="Type" value="Stone"/>
   </properties>
  </tile>
  <tile id="579">
   <properties>
    <property name="NoSpawn" value="All"/>
    <property name="Type" value="Stone"/>
   </properties>
  </tile>
  <tile id="582">
   <properties>
    <property name="NoSpawn" value="All"/>
    <property name="Type" value="Stone"/>
   </properties>
  </tile>
  <tile id="583">
   <properties>
    <property name="NoSpawn" value="All"/>
    <property name="Type" value="Stone"/>
   </properties>
  </tile>
  <tile id="584">
   <properties>
    <property name="NoSpawn" value="All"/>
    <property name="Type" value="Grass"/>
   </properties>
   <animation>
    <frame tileid="584" duration="1000"/>
    <frame tileid="588" duration="1000"/>
   </animation>
  </tile>
  <tile id="585">
   <properties>
    <property name="NoSpawn" value="All"/>
    <property name="Type" value="Dirt"/>
   </properties>
  </tile>
  <tile id="586">
   <properties>
    <property name="NoSpawn" value="All"/>
    <property name="Type" value="Grass"/>
   </properties>
   <animation>
    <frame tileid="586" duration="1000"/>
    <frame tileid="590" duration="1000"/>
   </animation>
  </tile>
  <tile id="588">
   <properties>
    <property name="NoSpawn" value="All"/>
    <property name="Type" value="Grass"/>
   </properties>
  </tile>
  <tile id="589">
   <properties>
    <property name="NoSpawn" value="All"/>
    <property name="Type" value="Dirt"/>
   </properties>
  </tile>
  <tile id="590">
   <properties>
    <property name="NoSpawn" value="All"/>
    <property name="Type" value="Grass"/>
   </properties>
  </tile>
  <tile id="595">
   <properties>
    <property name="NoSpawn" value="All"/>
    <property name="Type" value="Stone"/>
   </properties>
  </tile>
  <tile id="596">
   <properties>
    <property name="NoSpawn" value="All"/>
    <property name="Type" value="Stone"/>
   </properties>
  </tile>
  <tile id="597">
   <properties>
    <property name="NoSpawn" value="All"/>
    <property name="Type" value="Stone"/>
   </properties>
  </tile>
  <tile id="598">
   <properties>
    <property name="NoSpawn" value="All"/>
    <property name="Type" value="Stone"/>
   </properties>
  </tile>
  <tile id="600">
   <properties>
    <property name="NoSpawn" value="All"/>
    <property name="Type" value="Dirt"/>
   </properties>
   <animation>
    <frame tileid="600" duration="1000"/>
    <frame tileid="604" duration="1000"/>
   </animation>
  </tile>
  <tile id="602">
   <properties>
    <property name="NoSpawn" value="All"/>
    <property name="Type" value="Dirt"/>
   </properties>
   <animation>
    <frame tileid="602" duration="1000"/>
    <frame tileid="606" duration="1000"/>
   </animation>
  </tile>
  <tile id="604">
   <properties>
    <property name="NoSpawn" value="All"/>
    <property name="Type" value="Dirt"/>
   </properties>
  </tile>
  <tile id="606">
   <properties>
    <property name="NoSpawn" value="All"/>
    <property name="Type" value="Dirt"/>
   </properties>
  </tile>
  <tile id="608">
   <properties>
    <property name="NoSpawn" value="All"/>
    <property name="Type" value="Stone"/>
   </properties>
  </tile>
  <tile id="609">
   <properties>
    <property name="NoSpawn" value="All"/>
    <property name="Type" value="Stone"/>
   </properties>
  </tile>
  <tile id="610">
   <properties>
    <property name="NoSpawn" value="All"/>
    <property name="Type" value="Stone"/>
   </properties>
  </tile>
  <tile id="611">
   <properties>
    <property name="NoSpawn" value="All"/>
    <property name="Type" value="Stone"/>
   </properties>
  </tile>
  <tile id="612">
   <properties>
    <property name="NoSpawn" value="All"/>
    <property name="Type" value="Stone"/>
   </properties>
  </tile>
  <tile id="613">
   <properties>
    <property name="NoSpawn" value="All"/>
    <property name="Type" value="Stone"/>
   </properties>
  </tile>
  <tile id="614">
   <properties>
    <property name="NoSpawn" value="All"/>
    <property name="Type" value="Stone"/>
   </properties>
  </tile>
  <tile id="615">
   <properties>
    <property name="NoSpawn" value="All"/>
    <property name="Type" value="Stone"/>
   </properties>
  </tile>
  <tile id="616">
   <properties>
    <property name="NoSpawn" value="All"/>
    <property name="Type" value="Dirt"/>
   </properties>
   <animation>
    <frame tileid="616" duration="1000"/>
    <frame tileid="620" duration="1000"/>
   </animation>
  </tile>
  <tile id="617">
   <properties>
    <property name="NoSpawn" value="All"/>
    <property name="Type" value="Dirt"/>
   </properties>
   <animation>
    <frame tileid="617" duration="1000"/>
    <frame tileid="621" duration="1000"/>
   </animation>
  </tile>
  <tile id="618">
   <properties>
    <property name="NoSpawn" value="All"/>
    <property name="Type" value="Dirt"/>
   </properties>
   <animation>
    <frame tileid="618" duration="1000"/>
    <frame tileid="622" duration="1000"/>
   </animation>
  </tile>
  <tile id="620">
   <properties>
    <property name="NoSpawn" value="All"/>
    <property name="Type" value="Dirt"/>
   </properties>
  </tile>
  <tile id="621">
   <properties>
    <property name="NoSpawn" value="All"/>
    <property name="Type" value="Dirt"/>
   </properties>
  </tile>
  <tile id="622">
   <properties>
    <property name="NoSpawn" value="All"/>
    <property name="Type" value="Dirt"/>
   </properties>
  </tile>
  <tile id="624">
   <properties>
    <property name="NoSpawn" value="All"/>
    <property name="Type" value="Stone"/>
   </properties>
  </tile>
  <tile id="625">
   <properties>
    <property name="NoSpawn" value="All"/>
    <property name="Type" value="Stone"/>
   </properties>
  </tile>
  <tile id="626">
   <properties>
    <property name="NoSpawn" value="All"/>
    <property name="Type" value="Stone"/>
   </properties>
  </tile>
  <tile id="627">
   <properties>
    <property name="NoSpawn" value="All"/>
    <property name="Type" value="Stone"/>
   </properties>
  </tile>
  <tile id="628">
   <properties>
    <property name="NoSpawn" value="All"/>
    <property name="Type" value="Stone"/>
   </properties>
  </tile>
  <tile id="629">
   <properties>
    <property name="NoSpawn" value="All"/>
    <property name="Type" value="Stone"/>
   </properties>
  </tile>
  <tile id="630">
   <properties>
    <property name="NoSpawn" value="All"/>
    <property name="Type" value="Stone"/>
   </properties>
  </tile>
  <tile id="631">
   <properties>
    <property name="NoSpawn" value="All"/>
    <property name="Type" value="Stone"/>
   </properties>
  </tile>
  <tile id="632">
   <properties>
    <property name="NoSpawn" value="All"/>
    <property name="Type" value="Dirt"/>
   </properties>
   <animation>
    <frame tileid="632" duration="1000"/>
    <frame tileid="636" duration="1000"/>
   </animation>
  </tile>
  <tile id="633">
   <properties>
    <property name="NoSpawn" value="All"/>
    <property name="Type" value="Dirt"/>
   </properties>
   <animation>
    <frame tileid="633" duration="1000"/>
    <frame tileid="637" duration="1000"/>
   </animation>
  </tile>
  <tile id="636">
   <properties>
    <property name="NoSpawn" value="All"/>
    <property name="Type" value="Dirt"/>
   </properties>
  </tile>
  <tile id="637">
   <properties>
    <property name="NoSpawn" value="All"/>
    <property name="Type" value="Dirt"/>
   </properties>
  </tile>
  <tile id="640">
   <properties>
    <property name="NoSpawn" value="All"/>
    <property name="Type" value="Stone"/>
   </properties>
  </tile>
  <tile id="641">
   <properties>
    <property name="NoSpawn" value="All"/>
    <property name="Type" value="Stone"/>
   </properties>
  </tile>
  <tile id="642">
   <properties>
    <property name="NoSpawn" value="All"/>
    <property name="Type" value="Stone"/>
   </properties>
  </tile>
  <tile id="643">
   <properties>
    <property name="NoSpawn" value="All"/>
    <property name="Type" value="Stone"/>
   </properties>
  </tile>
  <tile id="646">
   <properties>
    <property name="NoSpawn" value="All"/>
    <property name="Type" value="Stone"/>
   </properties>
  </tile>
  <tile id="647">
   <properties>
    <property name="NoSpawn" value="All"/>
    <property name="Type" value="Stone"/>
   </properties>
  </tile>
  <tile id="648">
   <properties>
    <property name="NoSpawn" value="All"/>
    <property name="Type" value="Dirt"/>
   </properties>
   <animation>
    <frame tileid="648" duration="1000"/>
    <frame tileid="652" duration="1000"/>
   </animation>
  </tile>
  <tile id="649">
   <properties>
    <property name="NoSpawn" value="All"/>
    <property name="Type" value="Dirt"/>
   </properties>
   <animation>
    <frame tileid="649" duration="1000"/>
    <frame tileid="653" duration="1000"/>
   </animation>
  </tile>
  <tile id="652">
   <properties>
    <property name="NoSpawn" value="All"/>
    <property name="Type" value="Dirt"/>
   </properties>
  </tile>
  <tile id="653">
   <properties>
    <property name="NoSpawn" value="All"/>
    <property name="Type" value="Dirt"/>
   </properties>
  </tile>
  <tile id="656">
   <properties>
    <property name="NoSpawn" value="All"/>
    <property name="Type" value="Stone"/>
   </properties>
  </tile>
  <tile id="657">
   <properties>
    <property name="NoSpawn" value="All"/>
    <property name="Type" value="Stone"/>
   </properties>
  </tile>
  <tile id="658">
   <properties>
    <property name="NoSpawn" value="All"/>
    <property name="Type" value="Stone"/>
   </properties>
  </tile>
  <tile id="659">
   <properties>
    <property name="NoSpawn" value="All"/>
    <property name="Type" value="Stone"/>
   </properties>
  </tile>
  <tile id="660">
   <properties>
    <property name="NoSpawn" value="All"/>
    <property name="Type" value="Stone"/>
   </properties>
  </tile>
  <tile id="661">
   <properties>
    <property name="NoSpawn" value="All"/>
    <property name="Type" value="Stone"/>
   </properties>
  </tile>
  <tile id="662">
   <properties>
    <property name="NoSpawn" value="All"/>
    <property name="Type" value="Stone"/>
   </properties>
  </tile>
  <tile id="663">
   <properties>
    <property name="NoSpawn" value="All"/>
    <property name="Type" value="Stone"/>
   </properties>
  </tile>
  <tile id="664">
   <properties>
    <property name="NoSpawn" value="All"/>
    <property name="Type" value="Dirt"/>
   </properties>
   <animation>
    <frame tileid="664" duration="1000"/>
    <frame tileid="668" duration="1000"/>
   </animation>
  </tile>
  <tile id="665">
   <properties>
    <property name="NoSpawn" value="All"/>
    <property name="Type" value="Dirt"/>
   </properties>
   <animation>
    <frame tileid="665" duration="1000"/>
    <frame tileid="669" duration="1000"/>
   </animation>
  </tile>
  <tile id="668">
   <properties>
    <property name="NoSpawn" value="All"/>
    <property name="Type" value="Dirt"/>
   </properties>
  </tile>
  <tile id="669">
   <properties>
    <property name="NoSpawn" value="All"/>
    <property name="Type" value="Dirt"/>
   </properties>
  </tile>
  <tile id="676">
   <properties>
    <property name="NoSpawn" value="All"/>
    <property name="Type" value="Stone"/>
   </properties>
  </tile>
  <tile id="677">
   <properties>
    <property name="NoSpawn" value="All"/>
    <property name="Type" value="Stone"/>
   </properties>
  </tile>
  <tile id="682">
   <properties>
    <property name="NoSpawn" value="All"/>
    <property name="Type" value="Dirt"/>
   </properties>
  </tile>
  <tile id="683">
   <properties>
    <property name="NoSpawn" value="All"/>
    <property name="Type" value="Dirt"/>
   </properties>
  </tile>
  <tile id="688">
   <properties>
    <property name="NoSpawn" value="All"/>
    <property name="Type" value="Stone"/>
   </properties>
  </tile>
  <tile id="689">
   <properties>
    <property name="NoSpawn" value="All"/>
    <property name="Type" value="Stone"/>
   </properties>
  </tile>
  <tile id="690">
   <properties>
    <property name="NoSpawn" value="All"/>
    <property name="Type" value="Stone"/>
   </properties>
  </tile>
  <tile id="691">
   <properties>
    <property name="NoSpawn" value="All"/>
    <property name="Type" value="Stone"/>
   </properties>
  </tile>
  <tile id="694">
   <properties>
    <property name="NoSpawn" value="All"/>
    <property name="Type" value="Stone"/>
   </properties>
  </tile>
  <tile id="695">
   <properties>
    <property name="NoSpawn" value="All"/>
    <property name="Type" value="Stone"/>
   </properties>
  </tile>
  <tile id="696">
   <properties>
    <property name="Buildable" type="bool" value="true"/>
    <property name="Diggable" type="bool" value="true"/>
    <property name="Type" value="Dirt"/>
   </properties>
  </tile>
  <tile id="697">
   <properties>
    <property name="Buildable" type="bool" value="true"/>
    <property name="Diggable" type="bool" value="true"/>
    <property name="Type" value="Dirt"/>
   </properties>
  </tile>
  <tile id="698">
   <properties>
    <property name="NoSpawn" value="All"/>
    <property name="Type" value="Grass"/>
   </properties>
  </tile>
  <tile id="699">
   <properties>
    <property name="NoSpawn" value="All"/>
    <property name="Type" value="Grass"/>
   </properties>
  </tile>
  <tile id="704">
   <properties>
    <property name="NoSpawn" value="All"/>
    <property name="Type" value="Stone"/>
   </properties>
  </tile>
  <tile id="705">
   <properties>
    <property name="NoSpawn" value="All"/>
    <property name="Type" value="Stone"/>
   </properties>
  </tile>
  <tile id="706">
   <properties>
    <property name="NoSpawn" value="All"/>
    <property name="Type" value="Stone"/>
   </properties>
  </tile>
  <tile id="707">
   <properties>
    <property name="NoSpawn" value="All"/>
    <property name="Type" value="Stone"/>
   </properties>
  </tile>
  <tile id="708">
   <properties>
    <property name="NoSpawn" value="All"/>
    <property name="Type" value="Stone"/>
   </properties>
  </tile>
  <tile id="709">
   <properties>
    <property name="NoSpawn" value="All"/>
    <property name="Type" value="Stone"/>
   </properties>
  </tile>
  <tile id="710">
   <properties>
    <property name="NoSpawn" value="All"/>
    <property name="Type" value="Stone"/>
   </properties>
  </tile>
  <tile id="711">
   <properties>
    <property name="NoSpawn" value="All"/>
    <property name="Type" value="Stone"/>
   </properties>
  </tile>
  <tile id="724">
   <properties>
    <property name="NoSpawn" value="All"/>
    <property name="Type" value="Stone"/>
   </properties>
  </tile>
  <tile id="725">
   <properties>
    <property name="NoSpawn" value="All"/>
    <property name="Type" value="Stone"/>
   </properties>
  </tile>
  <tile id="728">
   <properties>
    <property name="NoSpawn" value="All"/>
    <property name="Type" value="Grass"/>
   </properties>
   <animation>
    <frame tileid="728" duration="1000"/>
    <frame tileid="732" duration="1000"/>
   </animation>
  </tile>
  <tile id="729">
   <properties>
    <property name="NoSpawn" value="All"/>
    <property name="Type" value="Dirt"/>
   </properties>
   <animation>
    <frame tileid="729" duration="1000"/>
    <frame tileid="733" duration="1000"/>
   </animation>
  </tile>
  <tile id="730">
   <properties>
    <property name="NoSpawn" value="All"/>
    <property name="Type" value="Grass"/>
   </properties>
   <animation>
    <frame tileid="730" duration="1000"/>
    <frame tileid="734" duration="1000"/>
   </animation>
  </tile>
  <tile id="732">
   <properties>
    <property name="NoSpawn" value="All"/>
    <property name="Type" value="Grass"/>
   </properties>
  </tile>
  <tile id="733">
   <properties>
    <property name="NoSpawn" value="All"/>
    <property name="Type" value="Dirt"/>
   </properties>
  </tile>
  <tile id="734">
   <properties>
    <property name="NoSpawn" value="All"/>
    <property name="Type" value="Grass"/>
   </properties>
  </tile>
  <tile id="736">
   <properties>
    <property name="NoSpawn" value="All"/>
    <property name="Type" value="Wood"/>
   </properties>
  </tile>
  <tile id="737">
   <properties>
    <property name="NoSpawn" value="All"/>
    <property name="Type" value="Wood"/>
   </properties>
  </tile>
  <tile id="739">
   <properties>
    <property name="Buildable" type="bool" value="true"/>
    <property name="Type" value="Stone"/>
   </properties>
  </tile>
  <tile id="740">
   <properties>
    <property name="Buildable" type="bool" value="true"/>
    <property name="Diggable" type="bool" value="true"/>
    <property name="Type" value="Grass"/>
   </properties>
  </tile>
  <tile id="741">
   <properties>
    <property name="Buildable" type="bool" value="true"/>
    <property name="Diggable" type="bool" value="true"/>
    <property name="Type" value="Grass"/>
   </properties>
  </tile>
  <tile id="742">
   <properties>
    <property name="Type" value="Stone"/>
   </properties>
  </tile>
  <tile id="743">
   <properties>
    <property name="Type" value="Stone"/>
   </properties>
  </tile>
  <tile id="744">
   <properties>
    <property name="NoSpawn" value="All"/>
    <property name="Type" value="Dirt"/>
   </properties>
   <animation>
    <frame tileid="744" duration="1000"/>
    <frame tileid="748" duration="1000"/>
   </animation>
  </tile>
  <tile id="745">
   <animation>
    <frame tileid="745" duration="1000"/>
    <frame tileid="749" duration="1000"/>
   </animation>
  </tile>
  <tile id="746">
   <properties>
    <property name="NoSpawn" value="All"/>
    <property name="Type" value="Dirt"/>
   </properties>
   <animation>
    <frame tileid="746" duration="1000"/>
    <frame tileid="750" duration="1000"/>
   </animation>
  </tile>
  <tile id="748">
   <properties>
    <property name="NoSpawn" value="All"/>
    <property name="Type" value="Dirt"/>
   </properties>
  </tile>
  <tile id="750">
   <properties>
    <property name="NoSpawn" value="All"/>
    <property name="Type" value="Dirt"/>
   </properties>
  </tile>
  <tile id="752">
   <properties>
    <property name="NoSpawn" value="All"/>
    <property name="Type" value="Wood"/>
   </properties>
  </tile>
  <tile id="753">
   <properties>
    <property name="NoSpawn" value="All"/>
    <property name="Type" value="Wood"/>
   </properties>
  </tile>
  <tile id="754">
   <properties>
    <property name="NoSpawn" value="All"/>
    <property name="Type" value="Wood"/>
   </properties>
  </tile>
  <tile id="755">
   <properties>
    <property name="NoSpawn" value="All"/>
    <property name="Type" value="Wood"/>
   </properties>
  </tile>
  <tile id="756">
   <properties>
    <property name="Buildable" type="bool" value="true"/>
    <property name="Diggable" type="bool" value="true"/>
    <property name="Type" value="Grass"/>
   </properties>
  </tile>
  <tile id="757">
   <properties>
    <property name="Buildable" type="bool" value="true"/>
    <property name="Diggable" type="bool" value="true"/>
    <property name="Type" value="Grass"/>
   </properties>
  </tile>
  <tile id="758">
   <properties>
    <property name="Type" value="Stone"/>
   </properties>
  </tile>
  <tile id="759">
   <properties>
    <property name="Type" value="Stone"/>
   </properties>
  </tile>
  <tile id="760">
   <properties>
    <property name="NoSpawn" value="All"/>
    <property name="Type" value="Dirt"/>
   </properties>
   <animation>
    <frame tileid="760" duration="1000"/>
    <frame tileid="764" duration="1000"/>
   </animation>
  </tile>
  <tile id="762">
   <properties>
    <property name="NoSpawn" value="All"/>
    <property name="Type" value="Dirt"/>
   </properties>
   <animation>
    <frame tileid="762" duration="1000"/>
    <frame tileid="766" duration="1000"/>
   </animation>
  </tile>
  <tile id="764">
   <properties>
    <property name="NoSpawn" value="All"/>
    <property name="Type" value="Dirt"/>
   </properties>
  </tile>
  <tile id="766">
   <properties>
    <property name="NoSpawn" value="All"/>
    <property name="Type" value="Dirt"/>
   </properties>
  </tile>
  <tile id="768">
   <properties>
    <property name="NoSpawn" value="All"/>
    <property name="Type" value="Wood"/>
   </properties>
  </tile>
  <tile id="769">
   <properties>
    <property name="NoSpawn" value="All"/>
    <property name="Type" value="Wood"/>
   </properties>
  </tile>
  <tile id="770">
   <properties>
    <property name="Buildable" type="bool" value="true"/>
    <property name="Diggable" type="bool" value="true"/>
    <property name="Type" value="Grass"/>
   </properties>
  </tile>
  <tile id="771">
   <properties>
    <property name="Buildable" type="bool" value="true"/>
    <property name="Diggable" type="bool" value="true"/>
    <property name="Type" value="Grass"/>
   </properties>
  </tile>
  <tile id="772">
   <properties>
    <property name="Buildable" type="bool" value="true"/>
    <property name="Diggable" type="bool" value="true"/>
    <property name="Type" value="Grass"/>
   </properties>
  </tile>
  <tile id="773">
   <properties>
    <property name="Buildable" type="bool" value="true"/>
    <property name="Diggable" type="bool" value="true"/>
    <property name="Type" value="Grass"/>
   </properties>
  </tile>
  <tile id="774">
   <properties>
    <property name="Type" value="Stone"/>
   </properties>
  </tile>
  <tile id="775">
   <properties>
    <property name="Type" value="Stone"/>
   </properties>
  </tile>
  <tile id="776">
   <properties>
    <property name="NoSpawn" value="All"/>
    <property name="Type" value="Grass"/>
   </properties>
   <animation>
    <frame tileid="776" duration="1000"/>
    <frame tileid="780" duration="1000"/>
   </animation>
  </tile>
  <tile id="777">
   <properties>
    <property name="NoSpawn" value="All"/>
    <property name="Type" value="Dirt"/>
   </properties>
  </tile>
  <tile id="778">
   <properties>
    <property name="NoSpawn" value="All"/>
    <property name="Type" value="Grass"/>
   </properties>
   <animation>
    <frame tileid="778" duration="1000"/>
    <frame tileid="782" duration="1000"/>
   </animation>
  </tile>
  <tile id="780">
   <properties>
    <property name="NoSpawn" value="All"/>
    <property name="Type" value="Grass"/>
   </properties>
  </tile>
  <tile id="781">
   <properties>
    <property name="NoSpawn" value="All"/>
    <property name="Type" value="Dirt"/>
   </properties>
  </tile>
  <tile id="782">
   <properties>
    <property name="NoSpawn" value="All"/>
    <property name="Type" value="Grass"/>
   </properties>
  </tile>
  <tile id="786">
   <properties>
    <property name="Buildable" type="bool" value="true"/>
    <property name="Diggable" type="bool" value="true"/>
    <property name="Type" value="Grass"/>
   </properties>
  </tile>
  <tile id="787">
   <properties>
    <property name="Buildable" type="bool" value="true"/>
    <property name="Diggable" type="bool" value="true"/>
    <property name="Type" value="Grass"/>
   </properties>
  </tile>
  <tile id="788">
   <properties>
    <property name="Type" value="Stone"/>
   </properties>
  </tile>
  <tile id="789">
   <properties>
    <property name="Type" value="Stone"/>
   </properties>
  </tile>
  <tile id="790">
   <properties>
    <property name="Type" value="Stone"/>
   </properties>
  </tile>
  <tile id="791">
   <properties>
    <property name="Type" value="Stone"/>
   </properties>
  </tile>
  <tile id="792">
   <properties>
    <property name="NoSpawn" value="All"/>
    <property name="Type" value="Dirt"/>
   </properties>
   <animation>
    <frame tileid="792" duration="1000"/>
    <frame tileid="796" duration="1000"/>
   </animation>
  </tile>
  <tile id="794">
   <properties>
    <property name="NoSpawn" value="All"/>
    <property name="Type" value="Dirt"/>
   </properties>
   <animation>
    <frame tileid="794" duration="1000"/>
    <frame tileid="798" duration="1000"/>
   </animation>
  </tile>
  <tile id="796">
   <properties>
    <property name="NoSpawn" value="All"/>
    <property name="Type" value="Dirt"/>
   </properties>
  </tile>
  <tile id="798">
   <properties>
    <property name="NoSpawn" value="All"/>
    <property name="Type" value="Dirt"/>
   </properties>
  </tile>
  <tile id="802">
   <properties>
    <property name="Buildable" type="bool" value="true"/>
    <property name="Diggable" type="bool" value="true"/>
    <property name="Type" value="Grass"/>
   </properties>
  </tile>
  <tile id="803">
   <properties>
    <property name="Buildable" type="bool" value="true"/>
    <property name="Diggable" type="bool" value="true"/>
    <property name="Type" value="Grass"/>
   </properties>
  </tile>
  <tile id="804">
   <properties>
    <property name="Type" value="Stone"/>
   </properties>
  </tile>
  <tile id="805">
   <properties>
    <property name="Type" value="Stone"/>
   </properties>
  </tile>
  <tile id="806">
   <properties>
    <property name="Type" value="Stone"/>
   </properties>
  </tile>
  <tile id="807">
   <properties>
    <property name="Type" value="Stone"/>
   </properties>
  </tile>
  <tile id="808">
   <properties>
    <property name="NoSpawn" value="All"/>
    <property name="Type" value="Dirt"/>
   </properties>
   <animation>
    <frame tileid="808" duration="1000"/>
    <frame tileid="812" duration="1000"/>
   </animation>
  </tile>
  <tile id="809">
   <properties>
    <property name="NoSpawn" value="All"/>
    <property name="Type" value="Dirt"/>
   </properties>
   <animation>
    <frame tileid="809" duration="1000"/>
    <frame tileid="813" duration="1000"/>
   </animation>
  </tile>
  <tile id="810">
   <properties>
    <property name="NoSpawn" value="All"/>
    <property name="Type" value="Dirt"/>
   </properties>
   <animation>
    <frame tileid="810" duration="1000"/>
    <frame tileid="814" duration="1000"/>
   </animation>
  </tile>
  <tile id="812">
   <properties>
    <property name="NoSpawn" value="All"/>
    <property name="Type" value="Dirt"/>
   </properties>
  </tile>
  <tile id="813">
   <properties>
    <property name="NoSpawn" value="All"/>
    <property name="Type" value="Dirt"/>
   </properties>
  </tile>
  <tile id="814">
   <properties>
    <property name="NoSpawn" value="All"/>
    <property name="Type" value="Dirt"/>
   </properties>
  </tile>
  <tile id="816">
   <properties>
    <property name="Passable" type="bool" value="false"/>
    <property name="Water" type="bool" value="true"/>
   </properties>
  </tile>
  <tile id="817">
   <properties>
    <property name="Passable" type="bool" value="false"/>
    <property name="Water" type="bool" value="true"/>
   </properties>
  </tile>
  <tile id="820">
   <properties>
    <property name="Water" type="bool" value="true"/>
   </properties>
  </tile>
  <tile id="821">
   <properties>
    <property name="Passable" type="bool" value="false"/>
    <property name="Water" type="bool" value="true"/>
   </properties>
  </tile>
  <tile id="822">
   <properties>
    <property name="Passable" type="bool" value="false"/>
    <property name="Water" type="bool" value="true"/>
   </properties>
  </tile>
  <tile id="824">
   <properties>
    <property name="NoSpawn" value="All"/>
    <property name="Type" value="Dirt"/>
   </properties>
   <animation>
    <frame tileid="824" duration="1000"/>
    <frame tileid="828" duration="1000"/>
   </animation>
  </tile>
  <tile id="825">
   <properties>
    <property name="NoSpawn" value="All"/>
    <property name="Type" value="Dirt"/>
   </properties>
   <animation>
    <frame tileid="825" duration="1000"/>
    <frame tileid="829" duration="1000"/>
   </animation>
  </tile>
  <tile id="828">
   <properties>
    <property name="NoSpawn" value="All"/>
    <property name="Type" value="Dirt"/>
   </properties>
  </tile>
  <tile id="829">
   <properties>
    <property name="NoSpawn" value="All"/>
    <property name="Type" value="Dirt"/>
   </properties>
  </tile>
  <tile id="832">
   <properties>
    <property name="Water" type="bool" value="true"/>
   </properties>
  </tile>
  <tile id="833">
   <properties>
    <property name="Passable" type="bool" value="false"/>
    <property name="Water" type="bool" value="true"/>
   </properties>
  </tile>
  <tile id="834">
   <properties>
    <property name="Passable" type="bool" value="false"/>
    <property name="Water" type="bool" value="true"/>
   </properties>
  </tile>
  <tile id="835">
   <properties>
    <property name="Water" type="bool" value="true"/>
   </properties>
  </tile>
  <tile id="836">
   <properties>
    <property name="Passable" type="bool" value="false"/>
    <property name="Water" type="bool" value="true"/>
   </properties>
  </tile>
  <tile id="837">
   <properties>
    <property name="Passable" type="bool" value="false"/>
    <property name="Water" type="bool" value="true"/>
   </properties>
  </tile>
  <tile id="838">
   <properties>
    <property name="Passable" type="bool" value="false"/>
    <property name="Water" type="bool" value="true"/>
   </properties>
  </tile>
  <tile id="840">
   <properties>
    <property name="NoSpawn" value="All"/>
    <property name="Type" value="Dirt"/>
   </properties>
   <animation>
    <frame tileid="840" duration="1000"/>
    <frame tileid="844" duration="1000"/>
   </animation>
  </tile>
  <tile id="841">
   <properties>
    <property name="NoSpawn" value="All"/>
    <property name="Type" value="Dirt"/>
   </properties>
   <animation>
    <frame tileid="841" duration="1000"/>
    <frame tileid="845" duration="1000"/>
   </animation>
  </tile>
  <tile id="844">
   <properties>
    <property name="NoSpawn" value="All"/>
    <property name="Type" value="Dirt"/>
   </properties>
  </tile>
  <tile id="845">
   <properties>
    <property name="NoSpawn" value="All"/>
    <property name="Type" value="Dirt"/>
   </properties>
  </tile>
  <tile id="848">
   <properties>
    <property name="Passable" type="bool" value="false"/>
    <property name="Water" type="bool" value="true"/>
   </properties>
  </tile>
  <tile id="849">
   <properties>
    <property name="Passable" type="bool" value="false"/>
    <property name="Water" type="bool" value="true"/>
   </properties>
  </tile>
  <tile id="850">
   <properties>
    <property name="Passable" type="bool" value="false"/>
    <property name="Water" type="bool" value="true"/>
   </properties>
  </tile>
  <tile id="851">
   <properties>
    <property name="Passable" type="bool" value="false"/>
    <property name="Water" type="bool" value="true"/>
   </properties>
  </tile>
  <tile id="852">
   <properties>
    <property name="Passable" type="bool" value="false"/>
    <property name="Water" type="bool" value="true"/>
   </properties>
  </tile>
  <tile id="853">
   <properties>
    <property name="Passable" type="bool" value="false"/>
    <property name="Water" type="bool" value="true"/>
   </properties>
  </tile>
  <tile id="854">
   <properties>
    <property name="Water" type="bool" value="true"/>
   </properties>
  </tile>
  <tile id="856">
   <properties>
    <property name="NoSpawn" value="All"/>
    <property name="Type" value="Dirt"/>
   </properties>
   <animation>
    <frame tileid="856" duration="1000"/>
    <frame tileid="860" duration="1000"/>
   </animation>
  </tile>
  <tile id="857">
   <properties>
    <property name="NoSpawn" value="All"/>
    <property name="Type" value="Dirt"/>
   </properties>
   <animation>
    <frame tileid="857" duration="1000"/>
    <frame tileid="861" duration="1000"/>
   </animation>
  </tile>
  <tile id="860">
   <properties>
    <property name="NoSpawn" value="All"/>
    <property name="Type" value="Dirt"/>
   </properties>
  </tile>
  <tile id="861">
   <properties>
    <property name="NoSpawn" value="All"/>
    <property name="Type" value="Dirt"/>
   </properties>
  </tile>
  <tile id="864">
   <properties>
    <property name="Passable" type="bool" value="false"/>
    <property name="Water" type="bool" value="true"/>
   </properties>
  </tile>
  <tile id="865">
   <properties>
    <property name="Passable" type="bool" value="false"/>
    <property name="Water" type="bool" value="true"/>
   </properties>
  </tile>
  <tile id="866">
   <properties>
    <property name="Passable" type="bool" value="false"/>
    <property name="Water" type="bool" value="true"/>
   </properties>
  </tile>
  <tile id="867">
   <properties>
    <property name="Passable" type="bool" value="false"/>
    <property name="Water" type="bool" value="true"/>
   </properties>
  </tile>
  <tile id="868">
   <properties>
    <property name="Passable" type="bool" value="false"/>
    <property name="Water" type="bool" value="true"/>
   </properties>
  </tile>
  <tile id="869">
   <properties>
    <property name="Passable" type="bool" value="false"/>
    <property name="Water" type="bool" value="true"/>
   </properties>
  </tile>
  <tile id="870">
   <properties>
    <property name="Passable" type="bool" value="false"/>
    <property name="Water" type="bool" value="true"/>
   </properties>
  </tile>
  <tile id="874">
   <properties>
    <property name="NoSpawn" value="All"/>
    <property name="Type" value="Dirt"/>
   </properties>
  </tile>
  <tile id="875">
   <properties>
    <property name="NoSpawn" value="All"/>
    <property name="Type" value="Dirt"/>
   </properties>
  </tile>
  <tile id="880">
   <properties>
    <property name="Passable" type="bool" value="false"/>
    <property name="Water" type="bool" value="true"/>
   </properties>
  </tile>
  <tile id="881">
   <properties>
    <property name="Passable" type="bool" value="false"/>
    <property name="Water" type="bool" value="true"/>
   </properties>
  </tile>
  <tile id="882">
   <properties>
    <property name="Passable" type="bool" value="false"/>
    <property name="Water" type="bool" value="true"/>
   </properties>
  </tile>
  <tile id="883">
   <properties>
    <property name="Passable" type="bool" value="false"/>
    <property name="Water" type="bool" value="true"/>
   </properties>
  </tile>
  <tile id="884">
   <properties>
    <property name="NoSpawn" value="All"/>
    <property name="Type" value="Dirt"/>
   </properties>
  </tile>
  <tile id="885">
   <properties>
    <property name="NoSpawn" value="All"/>
    <property name="Type" value="Dirt"/>
   </properties>
  </tile>
  <tile id="886">
   <properties>
    <property name="NoSpawn" value="All"/>
    <property name="Type" value="Dirt"/>
   </properties>
  </tile>
  <tile id="887">
   <properties>
    <property name="NoSpawn" value="All"/>
    <property name="Type" value="Dirt"/>
   </properties>
  </tile>
  <tile id="888">
   <properties>
    <property name="Buildable" type="bool" value="true"/>
    <property name="Diggable" type="bool" value="true"/>
    <property name="Type" value="Dirt"/>
   </properties>
  </tile>
  <tile id="889">
   <properties>
    <property name="Buildable" type="bool" value="true"/>
    <property name="Diggable" type="bool" value="true"/>
    <property name="Type" value="Dirt"/>
   </properties>
  </tile>
  <tile id="890">
   <properties>
    <property name="NoSpawn" value="All"/>
    <property name="Type" value="Grass"/>
   </properties>
  </tile>
  <tile id="891">
   <properties>
    <property name="NoSpawn" value="All"/>
    <property name="Type" value="Grass"/>
   </properties>
  </tile>
  <tile id="892">
   <properties>
    <property name="NoSpawn" value="All"/>
    <property name="Type" value="Grass"/>
   </properties>
  </tile>
  <tile id="893">
   <properties>
    <property name="NoSpawn" value="All"/>
    <property name="Type" value="Grass"/>
   </properties>
  </tile>
  <tile id="896">
   <properties>
    <property name="Buildable" type="bool" value="true"/>
    <property name="Diggable" type="bool" value="true"/>
    <property name="Type" value="Dirt"/>
   </properties>
  </tile>
  <tile id="897">
   <properties>
    <property name="NoSpawn" value="All"/>
    <property name="Type" value="Dirt"/>
   </properties>
   <animation>
    <frame tileid="897" duration="1000"/>
    <frame tileid="929" duration="1000"/>
   </animation>
  </tile>
  <tile id="898">
   <properties>
    <property name="NoSpawn" value="All"/>
    <property name="Type" value="Dirt"/>
   </properties>
  </tile>
  <tile id="899">
   <properties>
    <property name="NoSpawn" value="All"/>
    <property name="Type" value="Dirt"/>
   </properties>
  </tile>
  <tile id="900">
   <properties>
    <property name="Buildable" type="bool" value="true"/>
    <property name="Diggable" type="bool" value="true"/>
    <property name="Type" value="Dirt"/>
   </properties>
  </tile>
  <tile id="901">
   <properties>
    <property name="NoSpawn" value="All"/>
    <property name="Type" value="Dirt"/>
   </properties>
   <animation>
    <frame tileid="901" duration="1000"/>
    <frame tileid="933" duration="1000"/>
   </animation>
  </tile>
  <tile id="902">
   <properties>
    <property name="NoSpawn" value="All"/>
    <property name="Type" value="Dirt"/>
   </properties>
  </tile>
  <tile id="903">
   <properties>
    <property name="NoSpawn" value="All"/>
    <property name="Type" value="Dirt"/>
   </properties>
  </tile>
  <tile id="904">
   <properties>
    <property name="Buildable" type="bool" value="true"/>
    <property name="Diggable" type="bool" value="true"/>
    <property name="Type" value="Grass"/>
   </properties>
  </tile>
  <tile id="905">
   <properties>
    <property name="NoSpawn" value="All"/>
    <property name="Type" value="Grass"/>
   </properties>
   <animation>
    <frame tileid="905" duration="1000"/>
    <frame tileid="937" duration="1000"/>
   </animation>
  </tile>
  <tile id="906">
   <properties>
    <property name="NoSpawn" value="All"/>
    <property name="Type" value="Grass"/>
   </properties>
  </tile>
  <tile id="907">
   <properties>
    <property name="NoSpawn" value="All"/>
    <property name="Type" value="Grass"/>
   </properties>
  </tile>
  <tile id="908">
   <properties>
    <property name="Buildable" type="bool" value="true"/>
    <property name="Diggable" type="bool" value="true"/>
    <property name="Type" value="Grass"/>
   </properties>
  </tile>
  <tile id="909">
   <properties>
    <property name="NoSpawn" value="All"/>
    <property name="Type" value="Grass"/>
   </properties>
   <animation>
    <frame tileid="909" duration="1000"/>
    <frame tileid="941" duration="1000"/>
   </animation>
  </tile>
  <tile id="910">
   <properties>
    <property name="NoSpawn" value="All"/>
    <property name="Type" value="Grass"/>
   </properties>
  </tile>
  <tile id="911">
   <properties>
    <property name="NoSpawn" value="All"/>
    <property name="Type" value="Grass"/>
   </properties>
  </tile>
  <tile id="912">
   <properties>
    <property name="NoSpawn" value="All"/>
    <property name="Type" value="Dirt"/>
   </properties>
   <animation>
    <frame tileid="912" duration="1000"/>
    <frame tileid="944" duration="1000"/>
   </animation>
  </tile>
  <tile id="913">
   <properties>
    <property name="NoSpawn" value="All"/>
    <property name="Type" value="Dirt"/>
   </properties>
   <animation>
    <frame tileid="913" duration="1000"/>
    <frame tileid="945" duration="1000"/>
   </animation>
  </tile>
  <tile id="914">
   <properties>
    <property name="NoSpawn" value="All"/>
    <property name="Type" value="Dirt"/>
   </properties>
   <animation>
    <frame tileid="914" duration="1000"/>
    <frame tileid="915" duration="1000"/>
   </animation>
  </tile>
  <tile id="915">
   <properties>
    <property name="NoSpawn" value="All"/>
    <property name="Type" value="Dirt"/>
   </properties>
  </tile>
  <tile id="916">
   <properties>
    <property name="NoSpawn" value="All"/>
    <property name="Type" value="Dirt"/>
   </properties>
   <animation>
    <frame tileid="916" duration="1000"/>
    <frame tileid="948" duration="1000"/>
   </animation>
  </tile>
  <tile id="917">
   <properties>
    <property name="NoSpawn" value="All"/>
    <property name="Type" value="Dirt"/>
   </properties>
   <animation>
    <frame tileid="917" duration="1000"/>
    <frame tileid="949" duration="1000"/>
   </animation>
  </tile>
  <tile id="918">
   <properties>
    <property name="NoSpawn" value="All"/>
    <property name="Type" value="Dirt"/>
   </properties>
  </tile>
  <tile id="919">
   <properties>
    <property name="NoSpawn" value="All"/>
    <property name="Type" value="Dirt"/>
   </properties>
  </tile>
  <tile id="920">
   <properties>
    <property name="NoSpawn" value="All"/>
    <property name="Type" value="Grass"/>
   </properties>
   <animation>
    <frame tileid="920" duration="1000"/>
    <frame tileid="952" duration="1000"/>
   </animation>
  </tile>
  <tile id="921">
   <properties>
    <property name="NoSpawn" value="All"/>
    <property name="Type" value="Dirt"/>
   </properties>
   <animation>
    <frame tileid="921" duration="1000"/>
    <frame tileid="953" duration="1000"/>
   </animation>
  </tile>
  <tile id="922">
   <properties>
    <property name="NoSpawn" value="All"/>
    <property name="Type" value="Grass"/>
   </properties>
   <animation>
    <frame tileid="922" duration="1000"/>
    <frame tileid="923" duration="1000"/>
   </animation>
  </tile>
  <tile id="923">
   <properties>
    <property name="NoSpawn" value="All"/>
    <property name="Type" value="Grass"/>
   </properties>
  </tile>
  <tile id="924">
   <properties>
    <property name="NoSpawn" value="All"/>
    <property name="Type" value="Grass"/>
   </properties>
   <animation>
    <frame tileid="924" duration="1000"/>
    <frame tileid="956" duration="1000"/>
   </animation>
  </tile>
  <tile id="925">
   <properties>
    <property name="NoSpawn" value="All"/>
    <property name="Type" value="Dirt"/>
   </properties>
   <animation>
    <frame tileid="925" duration="1000"/>
    <frame tileid="957" duration="1000"/>
   </animation>
  </tile>
  <tile id="926">
   <properties>
    <property name="NoSpawn" value="All"/>
    <property name="Type" value="Grass"/>
   </properties>
   <animation>
    <frame tileid="926" duration="1000"/>
    <frame tileid="927" duration="1000"/>
   </animation>
  </tile>
  <tile id="927">
   <properties>
    <property name="NoSpawn" value="All"/>
    <property name="Type" value="Grass"/>
   </properties>
  </tile>
  <tile id="928">
   <properties>
    <property name="Buildable" type="bool" value="true"/>
    <property name="Diggable" type="bool" value="true"/>
    <property name="Type" value="Dirt"/>
   </properties>
  </tile>
  <tile id="929">
   <properties>
    <property name="NoSpawn" value="All"/>
    <property name="Type" value="Dirt"/>
   </properties>
  </tile>
  <tile id="930">
   <properties>
    <property name="NoSpawn" value="All"/>
    <property name="Type" value="Dirt"/>
   </properties>
   <animation>
    <frame tileid="930" duration="1000"/>
    <frame tileid="931" duration="1000"/>
   </animation>
  </tile>
  <tile id="931">
   <properties>
    <property name="NoSpawn" value="All"/>
    <property name="Type" value="Dirt"/>
   </properties>
  </tile>
  <tile id="932">
   <properties>
    <property name="Buildable" type="bool" value="true"/>
    <property name="Diggable" type="bool" value="true"/>
    <property name="Type" value="Dirt"/>
   </properties>
  </tile>
  <tile id="933">
   <properties>
    <property name="Type" value="Dirt"/>
   </properties>
  </tile>
  <tile id="934">
   <properties>
    <property name="NoSpawn" value="All"/>
    <property name="Type" value="Dirt"/>
   </properties>
  </tile>
  <tile id="935">
   <properties>
    <property name="NoSpawn" value="All"/>
    <property name="Type" value="Dirt"/>
   </properties>
  </tile>
  <tile id="936">
   <properties>
    <property name="Buildable" type="bool" value="true"/>
    <property name="Diggable" type="bool" value="true"/>
    <property name="Type" value="Grass"/>
   </properties>
  </tile>
  <tile id="937">
   <properties>
    <property name="NoSpawn" value="All"/>
    <property name="Type" value="Grass"/>
   </properties>
  </tile>
  <tile id="938">
   <properties>
    <property name="NoSpawn" value="All"/>
    <property name="Type" value="Grass"/>
   </properties>
   <animation>
    <frame tileid="938" duration="1000"/>
    <frame tileid="939" duration="1000"/>
   </animation>
  </tile>
  <tile id="939">
   <properties>
    <property name="NoSpawn" value="All"/>
    <property name="Type" value="Grass"/>
   </properties>
  </tile>
  <tile id="940">
   <properties>
    <property name="Buildable" type="bool" value="true"/>
    <property name="Diggable" type="bool" value="true"/>
    <property name="Type" value="Grass"/>
   </properties>
  </tile>
  <tile id="941">
   <properties>
    <property name="NoSpawn" value="All"/>
    <property name="Type" value="Grass"/>
   </properties>
  </tile>
  <tile id="942">
   <properties>
    <property name="NoSpawn" value="All"/>
    <property name="Type" value="Grass"/>
   </properties>
   <animation>
    <frame tileid="942" duration="1000"/>
    <frame tileid="943" duration="1000"/>
   </animation>
  </tile>
  <tile id="943">
   <properties>
    <property name="NoSpawn" value="All"/>
    <property name="Type" value="Grass"/>
   </properties>
  </tile>
  <tile id="944">
   <properties>
    <property name="NoSpawn" value="All"/>
    <property name="Type" value="Dirt"/>
   </properties>
  </tile>
  <tile id="945">
   <properties>
    <property name="NoSpawn" value="All"/>
    <property name="Type" value="Dirt"/>
   </properties>
  </tile>
  <tile id="946">
   <properties>
    <property name="NoSpawn" value="All"/>
    <property name="Type" value="Dirt"/>
   </properties>
  </tile>
  <tile id="947">
   <properties>
    <property name="NoSpawn" value="All"/>
    <property name="Type" value="Dirt"/>
   </properties>
  </tile>
  <tile id="948">
   <properties>
    <property name="NoSpawn" value="All"/>
    <property name="Type" value="Dirt"/>
   </properties>
  </tile>
  <tile id="949">
   <properties>
    <property name="NoSpawn" value="All"/>
    <property name="Type" value="Dirt"/>
   </properties>
  </tile>
  <tile id="950">
   <properties>
    <property name="NoSpawn" value="All"/>
    <property name="Type" value="Dirt"/>
   </properties>
  </tile>
  <tile id="951">
   <properties>
    <property name="NoSpawn" value="All"/>
    <property name="Type" value="Dirt"/>
   </properties>
  </tile>
  <tile id="952">
   <properties>
    <property name="NoSpawn" value="All"/>
    <property name="Type" value="Grass"/>
   </properties>
  </tile>
  <tile id="953">
   <properties>
    <property name="NoSpawn" value="All"/>
    <property name="Type" value="Dirt"/>
   </properties>
  </tile>
  <tile id="954">
   <properties>
    <property name="NoSpawn" value="All"/>
    <property name="Type" value="Grass"/>
   </properties>
  </tile>
  <tile id="955">
   <properties>
    <property name="NoSpawn" value="All"/>
    <property name="Type" value="Grass"/>
   </properties>
  </tile>
  <tile id="956">
   <properties>
    <property name="NoSpawn" value="All"/>
    <property name="Type" value="Grass"/>
   </properties>
  </tile>
  <tile id="957">
   <properties>
    <property name="NoSpawn" value="All"/>
    <property name="Type" value="Dirt"/>
   </properties>
  </tile>
  <tile id="958">
   <properties>
    <property name="NoSpawn" value="All"/>
    <property name="Type" value="Grass"/>
   </properties>
  </tile>
  <tile id="959">
   <properties>
    <property name="NoSpawn" value="All"/>
    <property name="Type" value="Grass"/>
   </properties>
  </tile>
  <tile id="960">
   <properties>
    <property name="NoSpawn" value="All"/>
    <property name="Type" value="Dirt"/>
   </properties>
   <animation>
    <frame tileid="960" duration="1000"/>
    <frame tileid="992" duration="1000"/>
   </animation>
  </tile>
  <tile id="961">
   <properties>
    <property name="Buildable" type="bool" value="true"/>
    <property name="Diggable" type="bool" value="true"/>
    <property name="Type" value="Dirt"/>
   </properties>
  </tile>
  <tile id="962">
   <properties>
    <property name="NoSpawn" value="All"/>
    <property name="Type" value="Dirt"/>
   </properties>
   <animation>
    <frame tileid="962" duration="1000"/>
    <frame tileid="963" duration="1000"/>
   </animation>
  </tile>
  <tile id="963">
   <properties>
    <property name="NoSpawn" value="All"/>
    <property name="Type" value="Dirt"/>
   </properties>
  </tile>
  <tile id="964">
   <properties>
    <property name="NoSpawn" value="All"/>
    <property name="Type" value="Dirt"/>
   </properties>
   <animation>
    <frame tileid="964" duration="1000"/>
    <frame tileid="996" duration="1000"/>
   </animation>
  </tile>
  <tile id="965">
   <properties>
    <property name="Buildable" type="bool" value="true"/>
    <property name="Diggable" type="bool" value="true"/>
    <property name="Type" value="Dirt"/>
   </properties>
  </tile>
  <tile id="966">
   <properties>
    <property name="NoSpawn" value="All"/>
    <property name="Type" value="Dirt"/>
   </properties>
  </tile>
  <tile id="967">
   <properties>
    <property name="NoSpawn" value="All"/>
    <property name="Type" value="Dirt"/>
   </properties>
  </tile>
  <tile id="968">
   <properties>
    <property name="NoSpawn" value="All"/>
    <property name="Type" value="Grass"/>
   </properties>
   <animation>
    <frame tileid="968" duration="1000"/>
    <frame tileid="1000" duration="1000"/>
   </animation>
  </tile>
  <tile id="969">
   <properties>
    <property name="Buildable" type="bool" value="true"/>
    <property name="Diggable" type="bool" value="true"/>
    <property name="Type" value="Grass"/>
   </properties>
  </tile>
  <tile id="970">
   <properties>
    <property name="NoSpawn" value="All"/>
    <property name="Type" value="Grass"/>
   </properties>
   <animation>
    <frame tileid="970" duration="1000"/>
    <frame tileid="971" duration="1000"/>
   </animation>
  </tile>
  <tile id="971">
   <properties>
    <property name="NoSpawn" value="All"/>
    <property name="Type" value="Grass"/>
   </properties>
  </tile>
  <tile id="972">
   <properties>
    <property name="NoSpawn" value="All"/>
    <property name="Type" value="Grass"/>
   </properties>
   <animation>
    <frame tileid="972" duration="1000"/>
    <frame tileid="1004" duration="1000"/>
   </animation>
  </tile>
  <tile id="973">
   <properties>
    <property name="Buildable" type="bool" value="true"/>
    <property name="Diggable" type="bool" value="true"/>
    <property name="Type" value="Grass"/>
   </properties>
  </tile>
  <tile id="974">
   <properties>
    <property name="NoSpawn" value="All"/>
    <property name="Type" value="Grass"/>
   </properties>
   <animation>
    <frame tileid="974" duration="1000"/>
    <frame tileid="975" duration="1000"/>
   </animation>
  </tile>
  <tile id="975">
   <properties>
    <property name="NoSpawn" value="All"/>
    <property name="Type" value="Grass"/>
   </properties>
  </tile>
  <tile id="976">
   <properties>
    <property name="NoSpawn" value="All"/>
    <property name="Type" value="Dirt"/>
   </properties>
   <animation>
    <frame tileid="976" duration="1000"/>
    <frame tileid="1008" duration="1000"/>
   </animation>
  </tile>
  <tile id="977">
   <properties>
    <property name="NoSpawn" value="All"/>
    <property name="Type" value="Dirt"/>
   </properties>
   <animation>
    <frame tileid="977" duration="1000"/>
    <frame tileid="1009" duration="1000"/>
   </animation>
  </tile>
  <tile id="978">
   <properties>
    <property name="NoSpawn" value="All"/>
    <property name="Type" value="Dirt"/>
   </properties>
   <animation>
    <frame tileid="978" duration="1000"/>
    <frame tileid="979" duration="1000"/>
   </animation>
  </tile>
  <tile id="979">
   <properties>
    <property name="NoSpawn" value="All"/>
    <property name="Type" value="Dirt"/>
   </properties>
  </tile>
  <tile id="980">
   <properties>
    <property name="NoSpawn" value="All"/>
    <property name="Type" value="Dirt"/>
   </properties>
   <animation>
    <frame tileid="980" duration="1000"/>
    <frame tileid="1012" duration="1000"/>
   </animation>
  </tile>
  <tile id="981">
   <properties>
    <property name="NoSpawn" value="All"/>
    <property name="Type" value="Dirt"/>
   </properties>
   <animation>
    <frame tileid="981" duration="1000"/>
    <frame tileid="1013" duration="1000"/>
   </animation>
  </tile>
  <tile id="982">
   <properties>
    <property name="NoSpawn" value="All"/>
    <property name="Type" value="Dirt"/>
   </properties>
  </tile>
  <tile id="983">
   <properties>
    <property name="NoSpawn" value="All"/>
    <property name="Type" value="Dirt"/>
   </properties>
  </tile>
  <tile id="984">
   <properties>
    <property name="NoSpawn" value="All"/>
    <property name="Type" value="Dirt"/>
   </properties>
   <animation>
    <frame tileid="984" duration="1000"/>
    <frame tileid="1016" duration="1000"/>
   </animation>
  </tile>
  <tile id="985">
   <properties>
    <property name="NoSpawn" value="All"/>
    <property name="Type" value="Grass"/>
   </properties>
   <animation>
    <frame tileid="985" duration="1000"/>
    <frame tileid="1017" duration="1000"/>
   </animation>
  </tile>
  <tile id="986">
   <properties>
    <property name="NoSpawn" value="All"/>
    <property name="Type" value="Grass"/>
   </properties>
   <animation>
    <frame tileid="986" duration="1000"/>
    <frame tileid="987" duration="1000"/>
   </animation>
  </tile>
  <tile id="987">
   <properties>
    <property name="NoSpawn" value="All"/>
    <property name="Type" value="Grass"/>
   </properties>
  </tile>
  <tile id="988">
   <properties>
    <property name="NoSpawn" value="All"/>
    <property name="Type" value="Dirt"/>
   </properties>
   <animation>
    <frame tileid="988" duration="1000"/>
    <frame tileid="1020" duration="1000"/>
   </animation>
  </tile>
  <tile id="989">
   <properties>
    <property name="NoSpawn" value="All"/>
    <property name="Type" value="Grass"/>
   </properties>
   <animation>
    <frame tileid="989" duration="1000"/>
    <frame tileid="1021" duration="1000"/>
   </animation>
  </tile>
  <tile id="990">
   <properties>
    <property name="NoSpawn" value="All"/>
    <property name="Type" value="Grass"/>
   </properties>
   <animation>
    <frame tileid="990" duration="1000"/>
    <frame tileid="991" duration="1000"/>
   </animation>
  </tile>
  <tile id="991">
   <properties>
    <property name="NoSpawn" value="All"/>
    <property name="Type" value="Grass"/>
   </properties>
  </tile>
  <tile id="992">
   <properties>
    <property name="NoSpawn" value="All"/>
    <property name="Type" value="Dirt"/>
   </properties>
  </tile>
  <tile id="993">
   <properties>
    <property name="Buildable" type="bool" value="true"/>
    <property name="Diggable" type="bool" value="true"/>
    <property name="Type" value="Dirt"/>
   </properties>
  </tile>
  <tile id="994">
   <properties>
    <property name="NoSpawn" value="All"/>
    <property name="Type" value="Dirt"/>
   </properties>
  </tile>
  <tile id="995">
   <properties>
    <property name="NoSpawn" value="All"/>
    <property name="Type" value="Dirt"/>
   </properties>
  </tile>
  <tile id="996">
   <properties>
    <property name="NoSpawn" value="All"/>
    <property name="Type" value="Dirt"/>
   </properties>
  </tile>
  <tile id="997">
   <properties>
    <property name="Buildable" type="bool" value="true"/>
    <property name="Diggable" type="bool" value="true"/>
    <property name="Type" value="Dirt"/>
   </properties>
  </tile>
  <tile id="998">
   <properties>
    <property name="NoSpawn" value="All"/>
    <property name="Type" value="Dirt"/>
   </properties>
  </tile>
  <tile id="999">
   <properties>
    <property name="NoSpawn" value="All"/>
    <property name="Type" value="Dirt"/>
   </properties>
  </tile>
  <tile id="1000">
   <properties>
    <property name="NoSpawn" value="All"/>
    <property name="Type" value="Grass"/>
   </properties>
  </tile>
  <tile id="1001">
   <properties>
    <property name="Buildable" type="bool" value="true"/>
    <property name="Diggable" type="bool" value="true"/>
    <property name="Type" value="Grass"/>
   </properties>
  </tile>
  <tile id="1002">
   <properties>
    <property name="NoSpawn" value="All"/>
   </properties>
  </tile>
  <tile id="1003">
   <properties>
    <property name="NoSpawn" value="All"/>
   </properties>
  </tile>
  <tile id="1004">
   <properties>
    <property name="NoSpawn" value="All"/>
    <property name="Type" value="Grass"/>
   </properties>
  </tile>
  <tile id="1005">
   <properties>
    <property name="Buildable" type="bool" value="true"/>
    <property name="Diggable" type="bool" value="true"/>
    <property name="Type" value="Grass"/>
   </properties>
  </tile>
  <tile id="1006">
   <properties>
    <property name="NoSpawn" value="All"/>
   </properties>
  </tile>
  <tile id="1007">
   <properties>
    <property name="NoSpawn" value="All"/>
   </properties>
  </tile>
  <tile id="1008">
   <properties>
    <property name="NoSpawn" value="All"/>
    <property name="Type" value="Dirt"/>
   </properties>
  </tile>
  <tile id="1009">
   <properties>
    <property name="NoSpawn" value="All"/>
    <property name="Type" value="Dirt"/>
   </properties>
  </tile>
  <tile id="1010">
   <properties>
    <property name="NoSpawn" value="All"/>
    <property name="Type" value="Dirt"/>
   </properties>
  </tile>
  <tile id="1011">
   <properties>
    <property name="NoSpawn" value="All"/>
    <property name="Type" value="Dirt"/>
   </properties>
  </tile>
  <tile id="1012">
   <properties>
    <property name="NoSpawn" value="All"/>
    <property name="Type" value="Dirt"/>
   </properties>
  </tile>
  <tile id="1013">
   <properties>
    <property name="NoSpawn" value="All"/>
    <property name="Type" value="Dirt"/>
   </properties>
  </tile>
  <tile id="1014">
   <properties>
    <property name="NoSpawn" value="All"/>
    <property name="Type" value="Dirt"/>
   </properties>
  </tile>
  <tile id="1015">
   <properties>
    <property name="NoSpawn" value="All"/>
    <property name="Type" value="Dirt"/>
   </properties>
  </tile>
  <tile id="1016">
   <properties>
    <property name="NoSpawn" value="All"/>
    <property name="Type" value="Dirt"/>
   </properties>
  </tile>
  <tile id="1017">
   <properties>
    <property name="NoSpawn" value="All"/>
    <property name="Type" value="Grass"/>
   </properties>
  </tile>
  <tile id="1018">
   <properties>
    <property name="NoSpawn" value="All"/>
   </properties>
  </tile>
  <tile id="1019">
   <properties>
    <property name="NoSpawn" value="All"/>
   </properties>
  </tile>
  <tile id="1020">
   <properties>
    <property name="NoSpawn" value="All"/>
    <property name="Type" value="Dirt"/>
   </properties>
  </tile>
  <tile id="1021">
   <properties>
    <property name="NoSpawn" value="All"/>
    <property name="Type" value="Grass"/>
   </properties>
  </tile>
  <tile id="1022">
   <properties>
    <property name="NoSpawn" value="All"/>
   </properties>
  </tile>
  <tile id="1023">
   <properties>
    <property name="NoSpawn" value="All"/>
   </properties>
  </tile>
  <tile id="1024">
   <properties>
    <property name="NoSpawn" value="All"/>
    <property name="Type" value="Dirt"/>
   </properties>
  </tile>
  <tile id="1025">
   <properties>
    <property name="NoSpawn" value="All"/>
    <property name="Type" value="Dirt"/>
   </properties>
  </tile>
  <tile id="1026">
   <properties>
    <property name="NoSpawn" value="All"/>
    <property name="Type" value="Dirt"/>
   </properties>
  </tile>
  <tile id="1027">
   <properties>
    <property name="Type" value="Dirt"/>
   </properties>
  </tile>
  <tile id="1028">
   <properties>
    <property name="NoSpawn" value="All"/>
    <property name="Type" value="Dirt"/>
   </properties>
  </tile>
  <tile id="1029">
   <properties>
    <property name="NoSpawn" value="All"/>
    <property name="Type" value="Dirt"/>
   </properties>
  </tile>
  <tile id="1030">
   <properties>
    <property name="NoSpawn" value="All"/>
    <property name="Type" value="Dirt"/>
   </properties>
  </tile>
  <tile id="1031">
   <properties>
    <property name="Type" value="Dirt"/>
   </properties>
  </tile>
  <tile id="1032">
   <properties>
    <property name="NoSpawn" value="All"/>
    <property name="Type" value="Grass"/>
   </properties>
  </tile>
  <tile id="1033">
   <properties>
    <property name="NoSpawn" value="All"/>
    <property name="Type" value="Grass"/>
   </properties>
  </tile>
  <tile id="1034">
   <properties>
    <property name="NoSpawn" value="All"/>
    <property name="Type" value="Grass"/>
   </properties>
  </tile>
  <tile id="1036">
   <properties>
    <property name="NoSpawn" value="All"/>
    <property name="Type" value="Grass"/>
   </properties>
  </tile>
  <tile id="1037">
   <properties>
    <property name="NoSpawn" value="All"/>
    <property name="Type" value="Grass"/>
   </properties>
  </tile>
  <tile id="1038">
   <properties>
    <property name="NoSpawn" value="All"/>
    <property name="Type" value="Grass"/>
   </properties>
  </tile>
  <tile id="1040">
   <properties>
    <property name="Buildable" type="bool" value="true"/>
    <property name="Diggable" type="bool" value="true"/>
    <property name="Type" value="Dirt"/>
   </properties>
  </tile>
  <tile id="1041">
   <properties>
    <property name="Buildable" type="bool" value="true"/>
    <property name="Diggable" type="bool" value="true"/>
    <property name="Type" value="Dirt"/>
   </properties>
  </tile>
  <tile id="1042">
   <properties>
    <property name="Buildable" type="bool" value="true"/>
    <property name="Diggable" type="bool" value="true"/>
    <property name="Type" value="Dirt"/>
   </properties>
  </tile>
  <tile id="1043">
   <properties>
    <property name="Buildable" type="bool" value="true"/>
    <property name="Diggable" type="bool" value="true"/>
    <property name="Type" value="Dirt"/>
   </properties>
  </tile>
  <tile id="1044">
   <properties>
    <property name="Buildable" type="bool" value="true"/>
    <property name="Diggable" type="bool" value="true"/>
    <property name="Type" value="Dirt"/>
   </properties>
  </tile>
  <tile id="1045">
   <properties>
    <property name="Buildable" type="bool" value="true"/>
    <property name="Diggable" type="bool" value="true"/>
    <property name="Type" value="Dirt"/>
   </properties>
  </tile>
  <tile id="1046">
   <properties>
    <property name="Buildable" type="bool" value="true"/>
    <property name="Diggable" type="bool" value="true"/>
    <property name="Type" value="Dirt"/>
   </properties>
  </tile>
  <tile id="1047">
   <properties>
    <property name="Buildable" type="bool" value="true"/>
    <property name="Diggable" type="bool" value="true"/>
    <property name="Type" value="Dirt"/>
   </properties>
  </tile>
  <tile id="1048">
   <properties>
    <property name="Buildable" type="bool" value="true"/>
    <property name="Diggable" type="bool" value="true"/>
    <property name="Type" value="Grass"/>
   </properties>
  </tile>
  <tile id="1049">
   <properties>
    <property name="Buildable" type="bool" value="true"/>
    <property name="Diggable" type="bool" value="true"/>
    <property name="Type" value="Grass"/>
   </properties>
  </tile>
  <tile id="1050">
   <properties>
    <property name="Buildable" type="bool" value="true"/>
    <property name="Diggable" type="bool" value="true"/>
    <property name="Type" value="Grass"/>
   </properties>
  </tile>
  <tile id="1051">
   <properties>
    <property name="Buildable" type="bool" value="true"/>
    <property name="Diggable" type="bool" value="true"/>
    <property name="Type" value="Grass"/>
   </properties>
  </tile>
  <tile id="1052">
   <properties>
    <property name="Buildable" type="bool" value="true"/>
    <property name="Diggable" type="bool" value="true"/>
    <property name="Type" value="Grass"/>
   </properties>
  </tile>
  <tile id="1053">
   <properties>
    <property name="Buildable" type="bool" value="true"/>
    <property name="Diggable" type="bool" value="true"/>
    <property name="Type" value="Grass"/>
   </properties>
  </tile>
  <tile id="1054">
   <properties>
    <property name="Buildable" type="bool" value="true"/>
    <property name="Diggable" type="bool" value="true"/>
    <property name="Type" value="Grass"/>
   </properties>
  </tile>
  <tile id="1055">
   <properties>
    <property name="Buildable" type="bool" value="true"/>
    <property name="Diggable" type="bool" value="true"/>
    <property name="Type" value="Grass"/>
   </properties>
  </tile>
  <tile id="1056">
   <properties>
    <property name="NoSpawn" value="All"/>
    <property name="Type" value="Dirt"/>
   </properties>
   <animation>
    <frame tileid="1056" duration="1000"/>
    <frame tileid="1057" duration="1000"/>
   </animation>
  </tile>
  <tile id="1057">
   <properties>
    <property name="NoSpawn" value="All"/>
    <property name="Type" value="Dirt"/>
   </properties>
  </tile>
  <tile id="1058">
   <properties>
    <property name="NoSpawn" value="All"/>
    <property name="Type" value="Dirt"/>
   </properties>
   <animation>
    <frame tileid="1058" duration="1000"/>
    <frame tileid="1059" duration="1000"/>
   </animation>
  </tile>
  <tile id="1059">
   <properties>
    <property name="NoSpawn" value="All"/>
    <property name="Type" value="Dirt"/>
   </properties>
  </tile>
  <tile id="1060">
   <properties>
    <property name="NoSpawn" value="All"/>
    <property name="Type" value="Dirt"/>
   </properties>
   <animation>
    <frame tileid="1060" duration="1000"/>
    <frame tileid="1061" duration="1000"/>
   </animation>
  </tile>
  <tile id="1061">
   <properties>
    <property name="NoSpawn" value="All"/>
    <property name="Type" value="Dirt"/>
   </properties>
  </tile>
  <tile id="1062">
   <properties>
    <property name="NoSpawn" value="All"/>
    <property name="Type" value="Dirt"/>
   </properties>
   <animation>
    <frame tileid="1062" duration="1000"/>
    <frame tileid="1063" duration="1000"/>
   </animation>
  </tile>
  <tile id="1063">
   <properties>
    <property name="NoSpawn" value="All"/>
    <property name="Type" value="Dirt"/>
   </properties>
  </tile>
  <tile id="1064">
   <properties>
    <property name="NoSpawn" value="All"/>
    <property name="Type" value="Dirt"/>
   </properties>
   <animation>
    <frame tileid="1064" duration="1000"/>
    <frame tileid="1065" duration="1000"/>
   </animation>
  </tile>
  <tile id="1065">
   <properties>
    <property name="NoSpawn" value="All"/>
    <property name="Type" value="Dirt"/>
   </properties>
  </tile>
  <tile id="1066">
   <properties>
    <property name="NoSpawn" value="All"/>
    <property name="Type" value="Dirt"/>
   </properties>
   <animation>
    <frame tileid="1066" duration="1000"/>
    <frame tileid="1067" duration="1000"/>
   </animation>
  </tile>
  <tile id="1067">
   <properties>
    <property name="NoSpawn" value="All"/>
    <property name="Type" value="Dirt"/>
   </properties>
  </tile>
  <tile id="1068">
   <properties>
    <property name="NoSpawn" value="All"/>
    <property name="Type" value="Dirt"/>
   </properties>
   <animation>
    <frame tileid="1068" duration="1000"/>
    <frame tileid="1069" duration="1000"/>
   </animation>
  </tile>
  <tile id="1069">
   <properties>
    <property name="NoSpawn" value="All"/>
    <property name="Type" value="Dirt"/>
   </properties>
  </tile>
  <tile id="1070">
   <properties>
    <property name="NoSpawn" value="All"/>
    <property name="Type" value="Dirt"/>
   </properties>
   <animation>
    <frame tileid="1070" duration="1000"/>
    <frame tileid="1071" duration="1000"/>
   </animation>
  </tile>
  <tile id="1071">
   <properties>
    <property name="NoSpawn" value="All"/>
    <property name="Type" value="Dirt"/>
   </properties>
  </tile>
  <tile id="1072">
   <properties>
    <property name="NoSpawn" value="All"/>
    <property name="Type" value="Dirt"/>
   </properties>
  </tile>
  <tile id="1073">
   <properties>
    <property name="NoSpawn" value="All"/>
    <property name="Type" value="Dirt"/>
   </properties>
  </tile>
  <tile id="1074">
   <properties>
    <property name="NoSpawn" value="All"/>
    <property name="Type" value="Dirt"/>
   </properties>
  </tile>
  <tile id="1075">
   <properties>
    <property name="NoSpawn" value="All"/>
    <property name="Type" value="Dirt"/>
   </properties>
  </tile>
  <tile id="1077">
   <properties>
    <property name="Passable" type="bool" value="false"/>
    <property name="Water" type="bool" value="true"/>
   </properties>
  </tile>
  <tile id="1078">
   <properties>
    <property name="Passable" type="bool" value="false"/>
    <property name="Water" type="bool" value="true"/>
   </properties>
  </tile>
  <tile id="1079">
   <properties>
    <property name="Passable" type="bool" value="false"/>
    <property name="Water" type="bool" value="true"/>
   </properties>
  </tile>
  <tile id="1088">
   <properties>
    <property name="NoSpawn" value="All"/>
    <property name="Type" value="Dirt"/>
   </properties>
   <animation>
    <frame tileid="1088" duration="1000"/>
    <frame tileid="1089" duration="1000"/>
   </animation>
  </tile>
  <tile id="1089">
   <properties>
    <property name="NoSpawn" value="All"/>
    <property name="Type" value="Dirt"/>
   </properties>
  </tile>
  <tile id="1090">
   <properties>
    <property name="NoSpawn" value="All"/>
    <property name="Type" value="Dirt"/>
   </properties>
   <animation>
    <frame tileid="1090" duration="1000"/>
    <frame tileid="1091" duration="1000"/>
   </animation>
  </tile>
  <tile id="1091">
   <properties>
    <property name="NoSpawn" value="All"/>
    <property name="Type" value="Dirt"/>
   </properties>
  </tile>
  <tile id="1092">
   <properties>
    <property name="Passable" type="bool" value="false"/>
    <property name="Water" type="bool" value="true"/>
   </properties>
  </tile>
  <tile id="1093">
   <properties>
    <property name="Passable" type="bool" value="false"/>
    <property name="Water" type="bool" value="true"/>
   </properties>
  </tile>
  <tile id="1094">
   <properties>
    <property name="Passable" type="bool" value="false"/>
    <property name="Water" type="bool" value="true"/>
   </properties>
  </tile>
  <tile id="1104">
   <properties>
    <property name="NoSpawn" value="All"/>
    <property name="Type" value="Dirt"/>
   </properties>
   <animation>
    <frame tileid="1104" duration="1000"/>
    <frame tileid="1105" duration="1000"/>
   </animation>
  </tile>
  <tile id="1105">
   <properties>
    <property name="NoSpawn" value="All"/>
    <property name="Type" value="Dirt"/>
   </properties>
  </tile>
  <tile id="1106">
   <properties>
    <property name="NoSpawn" value="All"/>
    <property name="Type" value="Dirt"/>
   </properties>
   <animation>
    <frame tileid="1106" duration="1000"/>
    <frame tileid="1107" duration="1000"/>
   </animation>
  </tile>
  <tile id="1107">
   <properties>
    <property name="NoSpawn" value="All"/>
    <property name="Type" value="Dirt"/>
   </properties>
  </tile>
 </tileset>
 <tileset firstgid="9876" name="x10 - spring_ATK_AToMS_EXground" tilewidth="16" tileheight="16" tilecount="1377" columns="27">
  <image source="spring_ATK_AToMS_EXground.png" width="432" height="816"/>
  <tile id="0">
   <properties>
    <property name="Buildable" type="bool" value="true"/>
   </properties>
  </tile>
  <tile id="1">
   <properties>
    <property name="Buildable" type="bool" value="true"/>
   </properties>
  </tile>
  <tile id="2">
   <properties>
    <property name="Buildable" type="bool" value="true"/>
   </properties>
  </tile>
  <tile id="3">
   <properties>
    <property name="Buildable" type="bool" value="true"/>
   </properties>
  </tile>
  <tile id="4">
   <properties>
    <property name="Buildable" type="bool" value="true"/>
   </properties>
  </tile>
  <tile id="5">
   <properties>
    <property name="Buildable" type="bool" value="true"/>
   </properties>
  </tile>
  <tile id="6">
   <properties>
    <property name="Buildable" type="bool" value="true"/>
   </properties>
  </tile>
  <tile id="7">
   <properties>
    <property name="Buildable" type="bool" value="true"/>
   </properties>
  </tile>
  <tile id="8">
   <properties>
    <property name="Buildable" type="bool" value="true"/>
   </properties>
  </tile>
  <tile id="9">
   <properties>
    <property name="Buildable" type="bool" value="true"/>
   </properties>
  </tile>
  <tile id="10">
   <properties>
    <property name="Buildable" type="bool" value="true"/>
   </properties>
  </tile>
  <tile id="11">
   <properties>
    <property name="Buildable" type="bool" value="true"/>
   </properties>
  </tile>
  <tile id="12">
   <properties>
    <property name="Buildable" type="bool" value="true"/>
   </properties>
  </tile>
  <tile id="13">
   <properties>
    <property name="Buildable" type="bool" value="true"/>
   </properties>
  </tile>
  <tile id="14">
   <properties>
    <property name="Buildable" type="bool" value="true"/>
   </properties>
  </tile>
  <tile id="15">
   <properties>
    <property name="Buildable" type="bool" value="true"/>
    <property name="NoSpawn" value="All"/>
    <property name="Type" value="Stone"/>
   </properties>
  </tile>
  <tile id="16">
   <properties>
    <property name="Buildable" type="bool" value="true"/>
    <property name="NoSpawn" value="All"/>
    <property name="Type" value="Stone"/>
   </properties>
  </tile>
  <tile id="17">
   <properties>
    <property name="Buildable" type="bool" value="true"/>
    <property name="NoSpawn" value="All"/>
    <property name="Type" value="Stone"/>
   </properties>
  </tile>
  <tile id="18">
   <properties>
    <property name="Buildable" type="bool" value="true"/>
    <property name="NoSpawn" value="All"/>
    <property name="Type" value="Stone"/>
   </properties>
  </tile>
  <tile id="19">
   <properties>
    <property name="Buildable" type="bool" value="true"/>
    <property name="NoSpawn" value="All"/>
    <property name="Type" value="Stone"/>
   </properties>
  </tile>
  <tile id="20">
   <properties>
    <property name="Buildable" type="bool" value="true"/>
    <property name="NoSpawn" value="All"/>
    <property name="Type" value="Stone"/>
   </properties>
  </tile>
  <tile id="21">
   <properties>
    <property name="Buildable" type="bool" value="true"/>
    <property name="NoSpawn" value="All"/>
    <property name="Type" value="Stone"/>
   </properties>
  </tile>
  <tile id="22">
   <properties>
    <property name="Buildable" type="bool" value="true"/>
    <property name="NoSpawn" value="All"/>
    <property name="Type" value="Stone"/>
   </properties>
  </tile>
  <tile id="23">
   <properties>
    <property name="Buildable" type="bool" value="true"/>
    <property name="NoSpawn" value="All"/>
    <property name="Type" value="Stone"/>
   </properties>
  </tile>
  <tile id="24">
   <properties>
    <property name="Buildable" type="bool" value="true"/>
    <property name="NoSpawn" value="All"/>
    <property name="Type" value="Stone"/>
   </properties>
  </tile>
  <tile id="25">
   <properties>
    <property name="Buildable" type="bool" value="true"/>
    <property name="NoSpawn" value="All"/>
    <property name="Type" value="Stone"/>
   </properties>
  </tile>
  <tile id="26">
   <properties>
    <property name="Buildable" type="bool" value="true"/>
    <property name="NoSpawn" value="All"/>
    <property name="Type" value="Stone"/>
   </properties>
  </tile>
  <tile id="27">
   <properties>
    <property name="Buildable" type="bool" value="true"/>
   </properties>
  </tile>
  <tile id="28">
   <properties>
    <property name="Buildable" type="bool" value="true"/>
    <property name="Type" value="Grass"/>
   </properties>
  </tile>
  <tile id="29">
   <properties>
    <property name="Buildable" type="bool" value="true"/>
    <property name="Type" value="Grass"/>
   </properties>
  </tile>
  <tile id="30">
   <properties>
    <property name="Buildable" type="bool" value="true"/>
    <property name="Type" value="Grass"/>
   </properties>
  </tile>
  <tile id="31">
   <properties>
    <property name="Buildable" type="bool" value="true"/>
    <property name="Type" value="Grass"/>
   </properties>
  </tile>
  <tile id="32">
   <properties>
    <property name="Buildable" type="bool" value="true"/>
    <property name="Type" value="Grass"/>
   </properties>
  </tile>
  <tile id="33">
   <properties>
    <property name="Buildable" type="bool" value="true"/>
    <property name="Type" value="Grass"/>
   </properties>
  </tile>
  <tile id="34">
   <properties>
    <property name="Buildable" type="bool" value="true"/>
    <property name="Type" value="Grass"/>
   </properties>
  </tile>
  <tile id="35">
   <properties>
    <property name="Buildable" type="bool" value="true"/>
    <property name="Type" value="Grass"/>
   </properties>
  </tile>
  <tile id="36">
   <properties>
    <property name="Buildable" type="bool" value="true"/>
    <property name="Type" value="Grass"/>
   </properties>
  </tile>
  <tile id="37">
   <properties>
    <property name="Buildable" type="bool" value="true"/>
    <property name="Type" value="Grass"/>
   </properties>
  </tile>
  <tile id="38">
   <properties>
    <property name="Buildable" type="bool" value="true"/>
    <property name="Type" value="Grass"/>
   </properties>
  </tile>
  <tile id="39">
   <properties>
    <property name="Buildable" type="bool" value="true"/>
    <property name="Type" value="Grass"/>
   </properties>
  </tile>
  <tile id="40">
   <properties>
    <property name="Buildable" type="bool" value="true"/>
    <property name="Type" value="Grass"/>
   </properties>
  </tile>
  <tile id="41">
   <properties>
    <property name="Buildable" type="bool" value="true"/>
    <property name="Type" value="Grass"/>
   </properties>
  </tile>
  <tile id="42">
   <properties>
    <property name="Buildable" type="bool" value="true"/>
    <property name="NoSpawn" value="All"/>
    <property name="Type" value="Stone"/>
   </properties>
  </tile>
  <tile id="43">
   <properties>
    <property name="Buildable" type="bool" value="true"/>
    <property name="NoSpawn" value="All"/>
    <property name="Type" value="Stone"/>
   </properties>
  </tile>
  <tile id="44">
   <properties>
    <property name="Buildable" type="bool" value="true"/>
    <property name="NoSpawn" value="All"/>
    <property name="Type" value="Stone"/>
   </properties>
  </tile>
  <tile id="45">
   <properties>
    <property name="Buildable" type="bool" value="true"/>
    <property name="NoSpawn" value="All"/>
    <property name="Type" value="Stone"/>
   </properties>
  </tile>
  <tile id="46">
   <properties>
    <property name="Buildable" type="bool" value="true"/>
    <property name="NoSpawn" value="All"/>
    <property name="Type" value="Stone"/>
   </properties>
  </tile>
  <tile id="47">
   <properties>
    <property name="Buildable" type="bool" value="true"/>
    <property name="NoSpawn" value="All"/>
    <property name="Type" value="Stone"/>
   </properties>
  </tile>
  <tile id="48">
   <properties>
    <property name="Buildable" type="bool" value="true"/>
    <property name="NoSpawn" value="All"/>
    <property name="Type" value="Stone"/>
   </properties>
  </tile>
  <tile id="49">
   <properties>
    <property name="Buildable" type="bool" value="true"/>
    <property name="NoSpawn" value="All"/>
    <property name="Type" value="Stone"/>
   </properties>
  </tile>
  <tile id="50">
   <properties>
    <property name="Buildable" type="bool" value="true"/>
    <property name="NoSpawn" value="All"/>
    <property name="Type" value="Stone"/>
   </properties>
  </tile>
  <tile id="51">
   <properties>
    <property name="Buildable" type="bool" value="true"/>
    <property name="NoSpawn" value="All"/>
    <property name="Type" value="Stone"/>
   </properties>
  </tile>
  <tile id="52">
   <properties>
    <property name="Buildable" type="bool" value="true"/>
    <property name="NoSpawn" value="All"/>
    <property name="Type" value="Stone"/>
   </properties>
  </tile>
  <tile id="53">
   <properties>
    <property name="Buildable" type="bool" value="true"/>
    <property name="NoSpawn" value="All"/>
    <property name="Type" value="Stone"/>
   </properties>
  </tile>
  <tile id="54">
   <properties>
    <property name="Buildable" type="bool" value="true"/>
   </properties>
  </tile>
  <tile id="55">
   <properties>
    <property name="Buildable" type="bool" value="true"/>
    <property name="Type" value="Grass"/>
   </properties>
  </tile>
  <tile id="56">
   <properties>
    <property name="Buildable" type="bool" value="true"/>
    <property name="Type" value="Grass"/>
   </properties>
  </tile>
  <tile id="57">
   <properties>
    <property name="Buildable" type="bool" value="true"/>
    <property name="Type" value="Grass"/>
   </properties>
  </tile>
  <tile id="58">
   <properties>
    <property name="Buildable" type="bool" value="true"/>
    <property name="Type" value="Grass"/>
   </properties>
  </tile>
  <tile id="59">
   <properties>
    <property name="Buildable" type="bool" value="true"/>
    <property name="Type" value="Grass"/>
   </properties>
  </tile>
  <tile id="60">
   <properties>
    <property name="Buildable" type="bool" value="true"/>
    <property name="Type" value="Grass"/>
   </properties>
  </tile>
  <tile id="61">
   <properties>
    <property name="Buildable" type="bool" value="true"/>
    <property name="Type" value="Grass"/>
   </properties>
  </tile>
  <tile id="62">
   <properties>
    <property name="Buildable" type="bool" value="true"/>
    <property name="Type" value="Grass"/>
   </properties>
  </tile>
  <tile id="63">
   <properties>
    <property name="Buildable" type="bool" value="true"/>
    <property name="Type" value="Grass"/>
   </properties>
  </tile>
  <tile id="64">
   <properties>
    <property name="Buildable" type="bool" value="true"/>
    <property name="Type" value="Grass"/>
   </properties>
  </tile>
  <tile id="65">
   <properties>
    <property name="Buildable" type="bool" value="true"/>
    <property name="Type" value="Grass"/>
   </properties>
  </tile>
  <tile id="66">
   <properties>
    <property name="Buildable" type="bool" value="true"/>
    <property name="Type" value="Grass"/>
   </properties>
  </tile>
  <tile id="67">
   <properties>
    <property name="Buildable" type="bool" value="true"/>
    <property name="Type" value="Grass"/>
   </properties>
  </tile>
  <tile id="68">
   <properties>
    <property name="Buildable" type="bool" value="true"/>
    <property name="Type" value="Grass"/>
   </properties>
  </tile>
  <tile id="69">
   <properties>
    <property name="Buildable" type="bool" value="true"/>
    <property name="NoSpawn" value="All"/>
    <property name="Type" value="Stone"/>
   </properties>
  </tile>
  <tile id="70">
   <properties>
    <property name="Buildable" type="bool" value="true"/>
    <property name="NoSpawn" value="All"/>
    <property name="Type" value="Stone"/>
   </properties>
  </tile>
  <tile id="71">
   <properties>
    <property name="Buildable" type="bool" value="true"/>
    <property name="NoSpawn" value="All"/>
    <property name="Type" value="Stone"/>
   </properties>
  </tile>
  <tile id="72">
   <properties>
    <property name="Buildable" type="bool" value="true"/>
    <property name="NoSpawn" value="All"/>
    <property name="Type" value="Stone"/>
   </properties>
  </tile>
  <tile id="73">
   <properties>
    <property name="Buildable" type="bool" value="true"/>
    <property name="NoSpawn" value="All"/>
    <property name="Type" value="Stone"/>
   </properties>
  </tile>
  <tile id="74">
   <properties>
    <property name="Buildable" type="bool" value="true"/>
    <property name="NoSpawn" value="All"/>
    <property name="Type" value="Stone"/>
   </properties>
  </tile>
  <tile id="75">
   <properties>
    <property name="Buildable" type="bool" value="true"/>
    <property name="NoSpawn" value="All"/>
    <property name="Type" value="Stone"/>
   </properties>
  </tile>
  <tile id="76">
   <properties>
    <property name="Buildable" type="bool" value="true"/>
    <property name="NoSpawn" value="All"/>
    <property name="Type" value="Stone"/>
   </properties>
  </tile>
  <tile id="77">
   <properties>
    <property name="Buildable" type="bool" value="true"/>
    <property name="NoSpawn" value="All"/>
    <property name="Type" value="Stone"/>
   </properties>
  </tile>
  <tile id="78">
   <properties>
    <property name="Buildable" type="bool" value="true"/>
    <property name="NoSpawn" value="All"/>
    <property name="Type" value="Stone"/>
   </properties>
  </tile>
  <tile id="79">
   <properties>
    <property name="Buildable" type="bool" value="true"/>
    <property name="NoSpawn" value="All"/>
    <property name="Type" value="Stone"/>
   </properties>
  </tile>
  <tile id="80">
   <properties>
    <property name="Buildable" type="bool" value="true"/>
    <property name="NoSpawn" value="All"/>
    <property name="Type" value="Stone"/>
   </properties>
  </tile>
  <tile id="81">
   <properties>
    <property name="Buildable" type="bool" value="true"/>
   </properties>
  </tile>
  <tile id="82">
   <properties>
    <property name="Buildable" type="bool" value="true"/>
    <property name="Type" value="Grass"/>
   </properties>
  </tile>
  <tile id="83">
   <properties>
    <property name="Buildable" type="bool" value="true"/>
    <property name="Type" value="Grass"/>
   </properties>
  </tile>
  <tile id="84">
   <properties>
    <property name="Buildable" type="bool" value="true"/>
    <property name="Type" value="Grass"/>
   </properties>
  </tile>
  <tile id="85">
   <properties>
    <property name="Buildable" type="bool" value="true"/>
    <property name="Type" value="Grass"/>
   </properties>
  </tile>
  <tile id="86">
   <properties>
    <property name="Buildable" type="bool" value="true"/>
    <property name="Type" value="Grass"/>
   </properties>
  </tile>
  <tile id="87">
   <properties>
    <property name="Buildable" type="bool" value="true"/>
    <property name="Type" value="Grass"/>
   </properties>
  </tile>
  <tile id="88">
   <properties>
    <property name="Buildable" type="bool" value="true"/>
    <property name="Type" value="Grass"/>
   </properties>
  </tile>
  <tile id="89">
   <properties>
    <property name="Buildable" type="bool" value="true"/>
    <property name="Type" value="Grass"/>
   </properties>
  </tile>
  <tile id="90">
   <properties>
    <property name="Buildable" type="bool" value="true"/>
    <property name="Type" value="Grass"/>
   </properties>
  </tile>
  <tile id="91">
   <properties>
    <property name="Buildable" type="bool" value="true"/>
    <property name="Type" value="Grass"/>
   </properties>
  </tile>
  <tile id="92">
   <properties>
    <property name="Buildable" type="bool" value="true"/>
    <property name="Type" value="Grass"/>
   </properties>
  </tile>
  <tile id="93">
   <properties>
    <property name="Buildable" type="bool" value="true"/>
    <property name="Type" value="Grass"/>
   </properties>
  </tile>
  <tile id="94">
   <properties>
    <property name="Buildable" type="bool" value="true"/>
    <property name="Type" value="Grass"/>
   </properties>
  </tile>
  <tile id="95">
   <properties>
    <property name="Buildable" type="bool" value="true"/>
    <property name="Type" value="Grass"/>
   </properties>
  </tile>
  <tile id="96">
   <properties>
    <property name="Buildable" type="bool" value="true"/>
    <property name="NoSpawn" value="All"/>
    <property name="Type" value="Stone"/>
   </properties>
  </tile>
  <tile id="97">
   <properties>
    <property name="Buildable" type="bool" value="true"/>
    <property name="NoSpawn" value="All"/>
    <property name="Type" value="Stone"/>
   </properties>
  </tile>
  <tile id="98">
   <properties>
    <property name="Buildable" type="bool" value="true"/>
    <property name="NoSpawn" value="All"/>
    <property name="Type" value="Stone"/>
   </properties>
  </tile>
  <tile id="99">
   <properties>
    <property name="Buildable" type="bool" value="true"/>
    <property name="NoSpawn" value="All"/>
    <property name="Type" value="Stone"/>
   </properties>
  </tile>
  <tile id="100">
   <properties>
    <property name="Buildable" type="bool" value="true"/>
    <property name="NoSpawn" value="All"/>
    <property name="Type" value="Stone"/>
   </properties>
  </tile>
  <tile id="101">
   <properties>
    <property name="Buildable" type="bool" value="true"/>
    <property name="NoSpawn" value="All"/>
    <property name="Type" value="Stone"/>
   </properties>
  </tile>
  <tile id="102">
   <properties>
    <property name="Buildable" type="bool" value="true"/>
    <property name="NoSpawn" value="All"/>
    <property name="Type" value="Stone"/>
   </properties>
  </tile>
  <tile id="103">
   <properties>
    <property name="Buildable" type="bool" value="true"/>
    <property name="NoSpawn" value="All"/>
    <property name="Type" value="Stone"/>
   </properties>
  </tile>
  <tile id="104">
   <properties>
    <property name="Buildable" type="bool" value="true"/>
    <property name="NoSpawn" value="All"/>
    <property name="Type" value="Stone"/>
   </properties>
  </tile>
  <tile id="105">
   <properties>
    <property name="Buildable" type="bool" value="true"/>
    <property name="NoSpawn" value="All"/>
    <property name="Type" value="Stone"/>
   </properties>
  </tile>
  <tile id="106">
   <properties>
    <property name="Buildable" type="bool" value="true"/>
    <property name="NoSpawn" value="All"/>
    <property name="Type" value="Stone"/>
   </properties>
  </tile>
  <tile id="107">
   <properties>
    <property name="Buildable" type="bool" value="true"/>
    <property name="NoSpawn" value="All"/>
    <property name="Type" value="Stone"/>
   </properties>
  </tile>
  <tile id="108">
   <properties>
    <property name="Buildable" type="bool" value="true"/>
   </properties>
  </tile>
  <tile id="109">
   <properties>
    <property name="Buildable" type="bool" value="true"/>
    <property name="Type" value="Grass"/>
   </properties>
  </tile>
  <tile id="110">
   <properties>
    <property name="Buildable" type="bool" value="true"/>
    <property name="Type" value="Grass"/>
   </properties>
  </tile>
  <tile id="111">
   <properties>
    <property name="Buildable" type="bool" value="true"/>
    <property name="Type" value="Grass"/>
   </properties>
  </tile>
  <tile id="112">
   <properties>
    <property name="Buildable" type="bool" value="true"/>
    <property name="Type" value="Grass"/>
   </properties>
  </tile>
  <tile id="113">
   <properties>
    <property name="Buildable" type="bool" value="true"/>
    <property name="Type" value="Grass"/>
   </properties>
  </tile>
  <tile id="114">
   <properties>
    <property name="Buildable" type="bool" value="true"/>
    <property name="Type" value="Grass"/>
   </properties>
  </tile>
  <tile id="115">
   <properties>
    <property name="Buildable" type="bool" value="true"/>
    <property name="Type" value="Grass"/>
   </properties>
  </tile>
  <tile id="116">
   <properties>
    <property name="Buildable" type="bool" value="true"/>
    <property name="Type" value="Grass"/>
   </properties>
  </tile>
  <tile id="117">
   <properties>
    <property name="Buildable" type="bool" value="true"/>
    <property name="Type" value="Grass"/>
   </properties>
  </tile>
  <tile id="118">
   <properties>
    <property name="Buildable" type="bool" value="true"/>
    <property name="Type" value="Grass"/>
   </properties>
  </tile>
  <tile id="119">
   <properties>
    <property name="Buildable" type="bool" value="true"/>
    <property name="Type" value="Grass"/>
   </properties>
  </tile>
  <tile id="120">
   <properties>
    <property name="Buildable" type="bool" value="true"/>
    <property name="Type" value="Grass"/>
   </properties>
  </tile>
  <tile id="121">
   <properties>
    <property name="Buildable" type="bool" value="true"/>
    <property name="Type" value="Grass"/>
   </properties>
  </tile>
  <tile id="122">
   <properties>
    <property name="Buildable" type="bool" value="true"/>
    <property name="Type" value="Grass"/>
   </properties>
  </tile>
  <tile id="123">
   <properties>
    <property name="Buildable" type="bool" value="true"/>
    <property name="NoSpawn" value="All"/>
    <property name="Type" value="Stone"/>
   </properties>
  </tile>
  <tile id="124">
   <properties>
    <property name="Buildable" type="bool" value="true"/>
    <property name="NoSpawn" value="All"/>
    <property name="Type" value="Stone"/>
   </properties>
  </tile>
  <tile id="125">
   <properties>
    <property name="Buildable" type="bool" value="true"/>
    <property name="NoSpawn" value="All"/>
    <property name="Type" value="Stone"/>
   </properties>
  </tile>
  <tile id="126">
   <properties>
    <property name="Buildable" type="bool" value="true"/>
    <property name="NoSpawn" value="All"/>
    <property name="Type" value="Stone"/>
   </properties>
  </tile>
  <tile id="127">
   <properties>
    <property name="Buildable" type="bool" value="true"/>
    <property name="NoSpawn" value="All"/>
    <property name="Type" value="Stone"/>
   </properties>
  </tile>
  <tile id="128">
   <properties>
    <property name="Buildable" type="bool" value="true"/>
    <property name="NoSpawn" value="All"/>
    <property name="Type" value="Stone"/>
   </properties>
  </tile>
  <tile id="129">
   <properties>
    <property name="Buildable" type="bool" value="true"/>
    <property name="NoSpawn" value="All"/>
    <property name="Type" value="Stone"/>
   </properties>
  </tile>
  <tile id="130">
   <properties>
    <property name="Buildable" type="bool" value="true"/>
    <property name="NoSpawn" value="All"/>
    <property name="Type" value="Stone"/>
   </properties>
  </tile>
  <tile id="131">
   <properties>
    <property name="Buildable" type="bool" value="true"/>
    <property name="NoSpawn" value="All"/>
    <property name="Type" value="Stone"/>
   </properties>
  </tile>
  <tile id="132">
   <properties>
    <property name="Buildable" type="bool" value="true"/>
    <property name="NoSpawn" value="All"/>
    <property name="Type" value="Stone"/>
   </properties>
  </tile>
  <tile id="133">
   <properties>
    <property name="Buildable" type="bool" value="true"/>
    <property name="NoSpawn" value="All"/>
    <property name="Type" value="Stone"/>
   </properties>
  </tile>
  <tile id="134">
   <properties>
    <property name="Buildable" type="bool" value="true"/>
    <property name="NoSpawn" value="All"/>
    <property name="Type" value="Stone"/>
   </properties>
  </tile>
  <tile id="135">
   <properties>
    <property name="Buildable" type="bool" value="true"/>
    <property name="Diggable" type="bool" value="true"/>
   </properties>
  </tile>
  <tile id="136">
   <properties>
    <property name="Buildable" type="bool" value="true"/>
    <property name="Diggable" type="bool" value="true"/>
    <property name="Type" value="Grass"/>
   </properties>
  </tile>
  <tile id="137">
   <properties>
    <property name="Buildable" type="bool" value="true"/>
    <property name="Diggable" type="bool" value="true"/>
    <property name="Type" value="Grass"/>
   </properties>
  </tile>
  <tile id="138">
   <properties>
    <property name="Buildable" type="bool" value="true"/>
    <property name="Diggable" type="bool" value="true"/>
    <property name="Type" value="Grass"/>
   </properties>
  </tile>
  <tile id="139">
   <properties>
    <property name="Buildable" type="bool" value="true"/>
    <property name="Diggable" type="bool" value="true"/>
    <property name="Type" value="Grass"/>
   </properties>
  </tile>
  <tile id="140">
   <properties>
    <property name="Buildable" type="bool" value="true"/>
    <property name="Diggable" type="bool" value="true"/>
    <property name="Type" value="Grass"/>
   </properties>
  </tile>
  <tile id="141">
   <properties>
    <property name="Buildable" type="bool" value="true"/>
    <property name="Diggable" type="bool" value="true"/>
    <property name="Type" value="Grass"/>
   </properties>
  </tile>
  <tile id="142">
   <properties>
    <property name="Buildable" type="bool" value="true"/>
    <property name="Diggable" type="bool" value="true"/>
    <property name="Type" value="Grass"/>
   </properties>
  </tile>
  <tile id="143">
   <properties>
    <property name="Buildable" type="bool" value="true"/>
    <property name="Diggable" type="bool" value="true"/>
    <property name="Type" value="Grass"/>
   </properties>
  </tile>
  <tile id="144">
   <properties>
    <property name="Buildable" type="bool" value="true"/>
    <property name="Diggable" type="bool" value="true"/>
    <property name="Type" value="Grass"/>
   </properties>
  </tile>
  <tile id="145">
   <properties>
    <property name="Buildable" type="bool" value="true"/>
    <property name="Diggable" type="bool" value="true"/>
    <property name="Type" value="Grass"/>
   </properties>
  </tile>
  <tile id="146">
   <properties>
    <property name="Buildable" type="bool" value="true"/>
    <property name="Diggable" type="bool" value="true"/>
    <property name="Type" value="Grass"/>
   </properties>
  </tile>
  <tile id="147">
   <properties>
    <property name="Buildable" type="bool" value="true"/>
    <property name="Diggable" type="bool" value="true"/>
    <property name="Type" value="Grass"/>
   </properties>
  </tile>
  <tile id="148">
   <properties>
    <property name="Buildable" type="bool" value="true"/>
    <property name="Diggable" type="bool" value="true"/>
    <property name="Type" value="Grass"/>
   </properties>
  </tile>
  <tile id="149">
   <properties>
    <property name="Buildable" type="bool" value="true"/>
    <property name="Diggable" type="bool" value="true"/>
    <property name="Type" value="Grass"/>
   </properties>
  </tile>
  <tile id="150">
   <properties>
    <property name="Buildable" type="bool" value="true"/>
    <property name="NoSpawn" value="All"/>
    <property name="Type" value="Stone"/>
   </properties>
  </tile>
  <tile id="151">
   <properties>
    <property name="Buildable" type="bool" value="true"/>
    <property name="NoSpawn" value="All"/>
    <property name="Type" value="Stone"/>
   </properties>
  </tile>
  <tile id="152">
   <properties>
    <property name="Buildable" type="bool" value="true"/>
    <property name="NoSpawn" value="All"/>
    <property name="Type" value="Stone"/>
   </properties>
  </tile>
  <tile id="153">
   <properties>
    <property name="Buildable" type="bool" value="true"/>
    <property name="NoSpawn" value="All"/>
    <property name="Type" value="Stone"/>
   </properties>
  </tile>
  <tile id="154">
   <properties>
    <property name="Buildable" type="bool" value="true"/>
    <property name="NoSpawn" value="All"/>
    <property name="Type" value="Stone"/>
   </properties>
  </tile>
  <tile id="155">
   <properties>
    <property name="Buildable" type="bool" value="true"/>
    <property name="NoSpawn" value="All"/>
    <property name="Type" value="Stone"/>
   </properties>
  </tile>
  <tile id="156">
   <properties>
    <property name="Buildable" type="bool" value="true"/>
    <property name="NoSpawn" value="All"/>
    <property name="Type" value="Stone"/>
   </properties>
  </tile>
  <tile id="157">
   <properties>
    <property name="Buildable" type="bool" value="true"/>
    <property name="NoSpawn" value="All"/>
    <property name="Type" value="Stone"/>
   </properties>
  </tile>
  <tile id="158">
   <properties>
    <property name="Buildable" type="bool" value="true"/>
    <property name="NoSpawn" value="All"/>
    <property name="Type" value="Stone"/>
   </properties>
  </tile>
  <tile id="159">
   <properties>
    <property name="Buildable" type="bool" value="true"/>
    <property name="NoSpawn" value="All"/>
    <property name="Type" value="Stone"/>
   </properties>
  </tile>
  <tile id="160">
   <properties>
    <property name="Buildable" type="bool" value="true"/>
    <property name="NoSpawn" value="All"/>
    <property name="Type" value="Stone"/>
   </properties>
  </tile>
  <tile id="161">
   <properties>
    <property name="Buildable" type="bool" value="true"/>
    <property name="NoSpawn" value="All"/>
    <property name="Type" value="Stone"/>
   </properties>
  </tile>
  <tile id="162">
   <properties>
    <property name="Buildable" type="bool" value="true"/>
    <property name="Diggable" type="bool" value="true"/>
   </properties>
  </tile>
  <tile id="163">
   <properties>
    <property name="Buildable" type="bool" value="true"/>
    <property name="Diggable" type="bool" value="true"/>
    <property name="Type" value="Grass"/>
   </properties>
  </tile>
  <tile id="164">
   <properties>
    <property name="Buildable" type="bool" value="true"/>
    <property name="Diggable" type="bool" value="true"/>
    <property name="Type" value="Grass"/>
   </properties>
  </tile>
  <tile id="165">
   <properties>
    <property name="Buildable" type="bool" value="true"/>
    <property name="Diggable" type="bool" value="true"/>
    <property name="Type" value="Grass"/>
   </properties>
  </tile>
  <tile id="166">
   <properties>
    <property name="Buildable" type="bool" value="true"/>
    <property name="Diggable" type="bool" value="true"/>
    <property name="Type" value="Grass"/>
   </properties>
  </tile>
  <tile id="167">
   <properties>
    <property name="Buildable" type="bool" value="true"/>
    <property name="Diggable" type="bool" value="true"/>
    <property name="Type" value="Grass"/>
   </properties>
  </tile>
  <tile id="168">
   <properties>
    <property name="Buildable" type="bool" value="true"/>
    <property name="Diggable" type="bool" value="true"/>
    <property name="Type" value="Grass"/>
   </properties>
  </tile>
  <tile id="169">
   <properties>
    <property name="Buildable" type="bool" value="true"/>
    <property name="Diggable" type="bool" value="true"/>
    <property name="Type" value="Grass"/>
   </properties>
  </tile>
  <tile id="170">
   <properties>
    <property name="Buildable" type="bool" value="true"/>
    <property name="Diggable" type="bool" value="true"/>
    <property name="Type" value="Grass"/>
   </properties>
  </tile>
  <tile id="171">
   <properties>
    <property name="Buildable" type="bool" value="true"/>
    <property name="Diggable" type="bool" value="true"/>
    <property name="Type" value="Grass"/>
   </properties>
  </tile>
  <tile id="172">
   <properties>
    <property name="Buildable" type="bool" value="true"/>
    <property name="Diggable" type="bool" value="true"/>
    <property name="Type" value="Grass"/>
   </properties>
  </tile>
  <tile id="173">
   <properties>
    <property name="Buildable" type="bool" value="true"/>
    <property name="Diggable" type="bool" value="true"/>
    <property name="Type" value="Grass"/>
   </properties>
  </tile>
  <tile id="174">
   <properties>
    <property name="Buildable" type="bool" value="true"/>
    <property name="Diggable" type="bool" value="true"/>
    <property name="Type" value="Grass"/>
   </properties>
  </tile>
  <tile id="175">
   <properties>
    <property name="Buildable" type="bool" value="true"/>
    <property name="Diggable" type="bool" value="true"/>
    <property name="Type" value="Grass"/>
   </properties>
  </tile>
  <tile id="176">
   <properties>
    <property name="Buildable" type="bool" value="true"/>
    <property name="Diggable" type="bool" value="true"/>
    <property name="Type" value="Grass"/>
   </properties>
  </tile>
  <tile id="177">
   <properties>
    <property name="Buildable" type="bool" value="true"/>
    <property name="NoSpawn" value="All"/>
    <property name="Type" value="Stone"/>
   </properties>
  </tile>
  <tile id="178">
   <properties>
    <property name="Buildable" type="bool" value="true"/>
    <property name="NoSpawn" value="All"/>
    <property name="Type" value="Stone"/>
   </properties>
  </tile>
  <tile id="179">
   <properties>
    <property name="Buildable" type="bool" value="true"/>
    <property name="NoSpawn" value="All"/>
    <property name="Type" value="Stone"/>
   </properties>
  </tile>
  <tile id="180">
   <properties>
    <property name="Buildable" type="bool" value="true"/>
    <property name="NoSpawn" value="All"/>
    <property name="Type" value="Stone"/>
   </properties>
  </tile>
  <tile id="181">
   <properties>
    <property name="Buildable" type="bool" value="true"/>
    <property name="NoSpawn" value="All"/>
    <property name="Type" value="Stone"/>
   </properties>
  </tile>
  <tile id="182">
   <properties>
    <property name="Buildable" type="bool" value="true"/>
    <property name="NoSpawn" value="All"/>
    <property name="Type" value="Stone"/>
   </properties>
  </tile>
  <tile id="183">
   <properties>
    <property name="Buildable" type="bool" value="true"/>
    <property name="NoSpawn" value="All"/>
    <property name="Type" value="Stone"/>
   </properties>
  </tile>
  <tile id="184">
   <properties>
    <property name="Buildable" type="bool" value="true"/>
    <property name="NoSpawn" value="All"/>
    <property name="Type" value="Stone"/>
   </properties>
  </tile>
  <tile id="185">
   <properties>
    <property name="Buildable" type="bool" value="true"/>
    <property name="NoSpawn" value="All"/>
    <property name="Type" value="Stone"/>
   </properties>
  </tile>
  <tile id="186">
   <properties>
    <property name="Buildable" type="bool" value="true"/>
    <property name="NoSpawn" value="All"/>
    <property name="Type" value="Stone"/>
   </properties>
  </tile>
  <tile id="187">
   <properties>
    <property name="Buildable" type="bool" value="true"/>
    <property name="NoSpawn" value="All"/>
    <property name="Type" value="Stone"/>
   </properties>
  </tile>
  <tile id="188">
   <properties>
    <property name="Buildable" type="bool" value="true"/>
    <property name="NoSpawn" value="All"/>
    <property name="Type" value="Stone"/>
   </properties>
  </tile>
  <tile id="189">
   <properties>
    <property name="Buildable" type="bool" value="true"/>
    <property name="Diggable" type="bool" value="true"/>
   </properties>
  </tile>
  <tile id="190">
   <properties>
    <property name="Buildable" type="bool" value="true"/>
    <property name="Diggable" type="bool" value="true"/>
    <property name="Type" value="Grass"/>
   </properties>
  </tile>
  <tile id="191">
   <properties>
    <property name="Buildable" type="bool" value="true"/>
    <property name="Diggable" type="bool" value="true"/>
    <property name="Type" value="Grass"/>
   </properties>
  </tile>
  <tile id="192">
   <properties>
    <property name="Buildable" type="bool" value="true"/>
    <property name="Diggable" type="bool" value="true"/>
    <property name="Type" value="Grass"/>
   </properties>
  </tile>
  <tile id="193">
   <properties>
    <property name="Buildable" type="bool" value="true"/>
    <property name="Diggable" type="bool" value="true"/>
    <property name="Type" value="Grass"/>
   </properties>
  </tile>
  <tile id="194">
   <properties>
    <property name="Buildable" type="bool" value="true"/>
    <property name="Diggable" type="bool" value="true"/>
    <property name="Type" value="Grass"/>
   </properties>
  </tile>
  <tile id="195">
   <properties>
    <property name="Buildable" type="bool" value="true"/>
    <property name="Diggable" type="bool" value="true"/>
    <property name="Type" value="Grass"/>
   </properties>
  </tile>
  <tile id="196">
   <properties>
    <property name="Buildable" type="bool" value="true"/>
    <property name="Diggable" type="bool" value="true"/>
    <property name="Type" value="Grass"/>
   </properties>
  </tile>
  <tile id="197">
   <properties>
    <property name="Buildable" type="bool" value="true"/>
    <property name="Diggable" type="bool" value="true"/>
    <property name="Type" value="Grass"/>
   </properties>
  </tile>
  <tile id="198">
   <properties>
    <property name="Buildable" type="bool" value="true"/>
    <property name="Diggable" type="bool" value="true"/>
    <property name="Type" value="Grass"/>
   </properties>
  </tile>
  <tile id="199">
   <properties>
    <property name="Buildable" type="bool" value="true"/>
    <property name="Diggable" type="bool" value="true"/>
    <property name="Type" value="Grass"/>
   </properties>
  </tile>
  <tile id="200">
   <properties>
    <property name="Buildable" type="bool" value="true"/>
    <property name="Diggable" type="bool" value="true"/>
    <property name="Type" value="Grass"/>
   </properties>
  </tile>
  <tile id="201">
   <properties>
    <property name="Buildable" type="bool" value="true"/>
    <property name="Diggable" type="bool" value="true"/>
    <property name="Type" value="Grass"/>
   </properties>
  </tile>
  <tile id="202">
   <properties>
    <property name="Buildable" type="bool" value="true"/>
    <property name="Diggable" type="bool" value="true"/>
    <property name="Type" value="Grass"/>
   </properties>
  </tile>
  <tile id="203">
   <properties>
    <property name="Buildable" type="bool" value="true"/>
    <property name="Diggable" type="bool" value="true"/>
    <property name="Type" value="Grass"/>
   </properties>
  </tile>
  <tile id="204">
   <properties>
    <property name="Buildable" type="bool" value="true"/>
    <property name="NoSpawn" value="All"/>
    <property name="Type" value="Stone"/>
   </properties>
  </tile>
  <tile id="205">
   <properties>
    <property name="Buildable" type="bool" value="true"/>
    <property name="NoSpawn" value="All"/>
    <property name="Type" value="Stone"/>
   </properties>
  </tile>
  <tile id="206">
   <properties>
    <property name="Buildable" type="bool" value="true"/>
    <property name="NoSpawn" value="All"/>
    <property name="Type" value="Stone"/>
   </properties>
  </tile>
  <tile id="207">
   <properties>
    <property name="Buildable" type="bool" value="true"/>
    <property name="NoSpawn" value="All"/>
    <property name="Type" value="Stone"/>
   </properties>
  </tile>
  <tile id="208">
   <properties>
    <property name="Buildable" type="bool" value="true"/>
    <property name="NoSpawn" value="All"/>
    <property name="Type" value="Stone"/>
   </properties>
  </tile>
  <tile id="209">
   <properties>
    <property name="Buildable" type="bool" value="true"/>
    <property name="NoSpawn" value="All"/>
    <property name="Type" value="Stone"/>
   </properties>
  </tile>
  <tile id="210">
   <properties>
    <property name="Buildable" type="bool" value="true"/>
    <property name="NoSpawn" value="All"/>
    <property name="Type" value="Stone"/>
   </properties>
  </tile>
  <tile id="211">
   <properties>
    <property name="Buildable" type="bool" value="true"/>
    <property name="NoSpawn" value="All"/>
    <property name="Type" value="Stone"/>
   </properties>
  </tile>
  <tile id="212">
   <properties>
    <property name="Buildable" type="bool" value="true"/>
    <property name="NoSpawn" value="All"/>
    <property name="Type" value="Stone"/>
   </properties>
  </tile>
  <tile id="213">
   <properties>
    <property name="Buildable" type="bool" value="true"/>
    <property name="NoSpawn" value="All"/>
    <property name="Type" value="Stone"/>
   </properties>
  </tile>
  <tile id="214">
   <properties>
    <property name="Buildable" type="bool" value="true"/>
    <property name="NoSpawn" value="All"/>
    <property name="Type" value="Stone"/>
   </properties>
  </tile>
  <tile id="215">
   <properties>
    <property name="Buildable" type="bool" value="true"/>
    <property name="NoSpawn" value="All"/>
    <property name="Type" value="Stone"/>
   </properties>
  </tile>
  <tile id="216">
   <properties>
    <property name="Buildable" type="bool" value="true"/>
    <property name="Diggable" type="bool" value="true"/>
   </properties>
  </tile>
  <tile id="217">
   <properties>
    <property name="Buildable" type="bool" value="true"/>
    <property name="Diggable" type="bool" value="true"/>
    <property name="Type" value="Grass"/>
   </properties>
  </tile>
  <tile id="218">
   <properties>
    <property name="Buildable" type="bool" value="true"/>
    <property name="Diggable" type="bool" value="true"/>
    <property name="Type" value="Grass"/>
   </properties>
  </tile>
  <tile id="219">
   <properties>
    <property name="Buildable" type="bool" value="true"/>
    <property name="Diggable" type="bool" value="true"/>
    <property name="Type" value="Grass"/>
   </properties>
  </tile>
  <tile id="220">
   <properties>
    <property name="Buildable" type="bool" value="true"/>
    <property name="Diggable" type="bool" value="true"/>
    <property name="Type" value="Grass"/>
   </properties>
  </tile>
  <tile id="221">
   <properties>
    <property name="Buildable" type="bool" value="true"/>
    <property name="Diggable" type="bool" value="true"/>
    <property name="Type" value="Grass"/>
   </properties>
  </tile>
  <tile id="222">
   <properties>
    <property name="Buildable" type="bool" value="true"/>
    <property name="Diggable" type="bool" value="true"/>
    <property name="Type" value="Grass"/>
   </properties>
  </tile>
  <tile id="223">
   <properties>
    <property name="Buildable" type="bool" value="true"/>
    <property name="Diggable" type="bool" value="true"/>
    <property name="Type" value="Grass"/>
   </properties>
  </tile>
  <tile id="224">
   <properties>
    <property name="Buildable" type="bool" value="true"/>
    <property name="Diggable" type="bool" value="true"/>
    <property name="Type" value="Grass"/>
   </properties>
  </tile>
  <tile id="225">
   <properties>
    <property name="Buildable" type="bool" value="true"/>
    <property name="Diggable" type="bool" value="true"/>
    <property name="Type" value="Grass"/>
   </properties>
  </tile>
  <tile id="226">
   <properties>
    <property name="Buildable" type="bool" value="true"/>
    <property name="Diggable" type="bool" value="true"/>
    <property name="Type" value="Grass"/>
   </properties>
  </tile>
  <tile id="227">
   <properties>
    <property name="Buildable" type="bool" value="true"/>
    <property name="Diggable" type="bool" value="true"/>
    <property name="Type" value="Grass"/>
   </properties>
  </tile>
  <tile id="228">
   <properties>
    <property name="Buildable" type="bool" value="true"/>
    <property name="Diggable" type="bool" value="true"/>
    <property name="Type" value="Grass"/>
   </properties>
  </tile>
  <tile id="229">
   <properties>
    <property name="Buildable" type="bool" value="true"/>
    <property name="Diggable" type="bool" value="true"/>
    <property name="Type" value="Grass"/>
   </properties>
  </tile>
  <tile id="230">
   <properties>
    <property name="Buildable" type="bool" value="true"/>
    <property name="Diggable" type="bool" value="true"/>
    <property name="Type" value="Grass"/>
   </properties>
  </tile>
  <tile id="231">
   <properties>
    <property name="Buildable" type="bool" value="true"/>
    <property name="NoSpawn" value="All"/>
    <property name="Type" value="Stone"/>
   </properties>
  </tile>
  <tile id="232">
   <properties>
    <property name="Buildable" type="bool" value="true"/>
    <property name="NoSpawn" value="All"/>
    <property name="Type" value="Stone"/>
   </properties>
  </tile>
  <tile id="233">
   <properties>
    <property name="Buildable" type="bool" value="true"/>
    <property name="NoSpawn" value="All"/>
    <property name="Type" value="Stone"/>
   </properties>
  </tile>
  <tile id="234">
   <properties>
    <property name="Buildable" type="bool" value="true"/>
    <property name="NoSpawn" value="All"/>
    <property name="Type" value="Stone"/>
   </properties>
  </tile>
  <tile id="235">
   <properties>
    <property name="Buildable" type="bool" value="true"/>
    <property name="NoSpawn" value="All"/>
    <property name="Type" value="Stone"/>
   </properties>
  </tile>
  <tile id="236">
   <properties>
    <property name="Buildable" type="bool" value="true"/>
    <property name="NoSpawn" value="All"/>
    <property name="Type" value="Stone"/>
   </properties>
  </tile>
  <tile id="237">
   <properties>
    <property name="Buildable" type="bool" value="true"/>
    <property name="NoSpawn" value="All"/>
    <property name="Type" value="Stone"/>
   </properties>
  </tile>
  <tile id="238">
   <properties>
    <property name="Buildable" type="bool" value="true"/>
    <property name="NoSpawn" value="All"/>
    <property name="Type" value="Stone"/>
   </properties>
  </tile>
  <tile id="239">
   <properties>
    <property name="Buildable" type="bool" value="true"/>
    <property name="NoSpawn" value="All"/>
    <property name="Type" value="Stone"/>
   </properties>
  </tile>
  <tile id="240">
   <properties>
    <property name="Buildable" type="bool" value="true"/>
    <property name="NoSpawn" value="All"/>
    <property name="Type" value="Stone"/>
   </properties>
  </tile>
  <tile id="241">
   <properties>
    <property name="Buildable" type="bool" value="true"/>
    <property name="NoSpawn" value="All"/>
    <property name="Type" value="Stone"/>
   </properties>
  </tile>
  <tile id="242">
   <properties>
    <property name="Buildable" type="bool" value="true"/>
    <property name="NoSpawn" value="All"/>
    <property name="Type" value="Stone"/>
   </properties>
  </tile>
  <tile id="243">
   <properties>
    <property name="Buildable" type="bool" value="true"/>
    <property name="Diggable" type="bool" value="true"/>
   </properties>
  </tile>
  <tile id="244">
   <properties>
    <property name="Buildable" type="bool" value="true"/>
    <property name="Diggable" type="bool" value="true"/>
    <property name="Type" value="Grass"/>
   </properties>
  </tile>
  <tile id="245">
   <properties>
    <property name="Buildable" type="bool" value="true"/>
    <property name="Diggable" type="bool" value="true"/>
    <property name="Type" value="Grass"/>
   </properties>
  </tile>
  <tile id="246">
   <properties>
    <property name="Buildable" type="bool" value="true"/>
    <property name="Diggable" type="bool" value="true"/>
    <property name="Type" value="Grass"/>
   </properties>
  </tile>
  <tile id="247">
   <properties>
    <property name="Buildable" type="bool" value="true"/>
    <property name="Diggable" type="bool" value="true"/>
    <property name="Type" value="Grass"/>
   </properties>
  </tile>
  <tile id="248">
   <properties>
    <property name="Buildable" type="bool" value="true"/>
    <property name="Diggable" type="bool" value="true"/>
    <property name="Type" value="Grass"/>
   </properties>
  </tile>
  <tile id="249">
   <properties>
    <property name="Buildable" type="bool" value="true"/>
    <property name="Diggable" type="bool" value="true"/>
    <property name="Type" value="Grass"/>
   </properties>
  </tile>
  <tile id="250">
   <properties>
    <property name="Buildable" type="bool" value="true"/>
    <property name="Diggable" type="bool" value="true"/>
    <property name="Type" value="Grass"/>
   </properties>
  </tile>
  <tile id="251">
   <properties>
    <property name="Buildable" type="bool" value="true"/>
    <property name="Diggable" type="bool" value="true"/>
    <property name="Type" value="Grass"/>
   </properties>
  </tile>
  <tile id="252">
   <properties>
    <property name="Buildable" type="bool" value="true"/>
    <property name="Diggable" type="bool" value="true"/>
    <property name="Type" value="Grass"/>
   </properties>
  </tile>
  <tile id="253">
   <properties>
    <property name="Buildable" type="bool" value="true"/>
    <property name="Diggable" type="bool" value="true"/>
    <property name="Type" value="Grass"/>
   </properties>
  </tile>
  <tile id="254">
   <properties>
    <property name="Buildable" type="bool" value="true"/>
    <property name="Diggable" type="bool" value="true"/>
    <property name="Type" value="Grass"/>
   </properties>
  </tile>
  <tile id="255">
   <properties>
    <property name="Buildable" type="bool" value="true"/>
    <property name="Diggable" type="bool" value="true"/>
    <property name="Type" value="Grass"/>
   </properties>
  </tile>
  <tile id="256">
   <properties>
    <property name="Buildable" type="bool" value="true"/>
    <property name="Diggable" type="bool" value="true"/>
    <property name="Type" value="Grass"/>
   </properties>
  </tile>
  <tile id="257">
   <properties>
    <property name="Buildable" type="bool" value="true"/>
    <property name="Diggable" type="bool" value="true"/>
    <property name="Type" value="Grass"/>
   </properties>
  </tile>
  <tile id="258">
   <properties>
    <property name="Buildable" type="bool" value="true"/>
    <property name="NoSpawn" value="All"/>
    <property name="Type" value="Stone"/>
   </properties>
  </tile>
  <tile id="259">
   <properties>
    <property name="Buildable" type="bool" value="true"/>
    <property name="NoSpawn" value="All"/>
    <property name="Type" value="Stone"/>
   </properties>
  </tile>
  <tile id="260">
   <properties>
    <property name="Buildable" type="bool" value="true"/>
    <property name="NoSpawn" value="All"/>
    <property name="Type" value="Stone"/>
   </properties>
  </tile>
  <tile id="261">
   <properties>
    <property name="Buildable" type="bool" value="true"/>
    <property name="NoSpawn" value="All"/>
    <property name="Type" value="Stone"/>
   </properties>
  </tile>
  <tile id="262">
   <properties>
    <property name="Buildable" type="bool" value="true"/>
    <property name="NoSpawn" value="All"/>
    <property name="Type" value="Stone"/>
   </properties>
  </tile>
  <tile id="263">
   <properties>
    <property name="Buildable" type="bool" value="true"/>
    <property name="NoSpawn" value="All"/>
    <property name="Type" value="Stone"/>
   </properties>
  </tile>
  <tile id="264">
   <properties>
    <property name="Buildable" type="bool" value="true"/>
    <property name="NoSpawn" value="All"/>
    <property name="Type" value="Stone"/>
   </properties>
  </tile>
  <tile id="265">
   <properties>
    <property name="Buildable" type="bool" value="true"/>
    <property name="NoSpawn" value="All"/>
    <property name="Type" value="Stone"/>
   </properties>
  </tile>
  <tile id="266">
   <properties>
    <property name="Buildable" type="bool" value="true"/>
    <property name="NoSpawn" value="All"/>
    <property name="Type" value="Stone"/>
   </properties>
  </tile>
  <tile id="267">
   <properties>
    <property name="Buildable" type="bool" value="true"/>
    <property name="NoSpawn" value="All"/>
    <property name="Type" value="Stone"/>
   </properties>
  </tile>
  <tile id="268">
   <properties>
    <property name="Buildable" type="bool" value="true"/>
    <property name="NoSpawn" value="All"/>
    <property name="Type" value="Stone"/>
   </properties>
  </tile>
  <tile id="269">
   <properties>
    <property name="Buildable" type="bool" value="true"/>
    <property name="NoSpawn" value="All"/>
    <property name="Type" value="Stone"/>
   </properties>
  </tile>
  <tile id="270">
   <properties>
    <property name="Buildable" type="bool" value="true"/>
    <property name="Diggable" type="bool" value="true"/>
    <property name="Type" value="Dirt"/>
   </properties>
  </tile>
  <tile id="271">
   <properties>
    <property name="Buildable" type="bool" value="true"/>
    <property name="Diggable" type="bool" value="true"/>
    <property name="Type" value="Dirt"/>
   </properties>
  </tile>
  <tile id="272">
   <properties>
    <property name="Buildable" type="bool" value="true"/>
    <property name="Diggable" type="bool" value="true"/>
    <property name="Type" value="Dirt"/>
   </properties>
  </tile>
  <tile id="273">
   <properties>
    <property name="Buildable" type="bool" value="true"/>
    <property name="Diggable" type="bool" value="true"/>
    <property name="Type" value="Dirt"/>
   </properties>
  </tile>
  <tile id="274">
   <properties>
    <property name="Buildable" type="bool" value="true"/>
    <property name="Diggable" type="bool" value="true"/>
    <property name="Type" value="Dirt"/>
   </properties>
  </tile>
  <tile id="275">
   <properties>
    <property name="Buildable" type="bool" value="true"/>
    <property name="Diggable" type="bool" value="true"/>
    <property name="Type" value="Grass"/>
   </properties>
  </tile>
  <tile id="276">
   <properties>
    <property name="Buildable" type="bool" value="true"/>
    <property name="Diggable" type="bool" value="true"/>
    <property name="Type" value="Grass"/>
   </properties>
  </tile>
  <tile id="277">
   <properties>
    <property name="Buildable" type="bool" value="true"/>
    <property name="Diggable" type="bool" value="true"/>
    <property name="Type" value="Grass"/>
   </properties>
  </tile>
  <tile id="278">
   <properties>
    <property name="Buildable" type="bool" value="true"/>
    <property name="Diggable" type="bool" value="true"/>
    <property name="Type" value="Grass"/>
   </properties>
  </tile>
  <tile id="279">
   <properties>
    <property name="Buildable" type="bool" value="true"/>
    <property name="Diggable" type="bool" value="true"/>
    <property name="Type" value="Grass"/>
   </properties>
  </tile>
  <tile id="280">
   <properties>
    <property name="Buildable" type="bool" value="true"/>
    <property name="Diggable" type="bool" value="true"/>
    <property name="Type" value="Grass"/>
   </properties>
  </tile>
  <tile id="281">
   <properties>
    <property name="Buildable" type="bool" value="true"/>
    <property name="Diggable" type="bool" value="true"/>
    <property name="Type" value="Grass"/>
   </properties>
  </tile>
  <tile id="282">
   <properties>
    <property name="Buildable" type="bool" value="true"/>
    <property name="Diggable" type="bool" value="true"/>
    <property name="Type" value="Grass"/>
   </properties>
  </tile>
  <tile id="283">
   <properties>
    <property name="Buildable" type="bool" value="true"/>
    <property name="Diggable" type="bool" value="true"/>
    <property name="Type" value="Grass"/>
   </properties>
  </tile>
  <tile id="284">
   <properties>
    <property name="Buildable" type="bool" value="true"/>
    <property name="Diggable" type="bool" value="true"/>
    <property name="Type" value="Grass"/>
   </properties>
  </tile>
  <tile id="285">
   <properties>
    <property name="Buildable" type="bool" value="true"/>
    <property name="NoSpawn" value="All"/>
    <property name="Type" value="Stone"/>
   </properties>
  </tile>
  <tile id="286">
   <properties>
    <property name="Buildable" type="bool" value="true"/>
    <property name="NoSpawn" value="All"/>
    <property name="Type" value="Stone"/>
   </properties>
  </tile>
  <tile id="287">
   <properties>
    <property name="Buildable" type="bool" value="true"/>
    <property name="NoSpawn" value="All"/>
    <property name="Type" value="Stone"/>
   </properties>
  </tile>
  <tile id="288">
   <properties>
    <property name="Buildable" type="bool" value="true"/>
    <property name="NoSpawn" value="All"/>
    <property name="Type" value="Stone"/>
   </properties>
  </tile>
  <tile id="289">
   <properties>
    <property name="Buildable" type="bool" value="true"/>
    <property name="NoSpawn" value="All"/>
    <property name="Type" value="Stone"/>
   </properties>
  </tile>
  <tile id="290">
   <properties>
    <property name="Buildable" type="bool" value="true"/>
    <property name="NoSpawn" value="All"/>
    <property name="Type" value="Stone"/>
   </properties>
  </tile>
  <tile id="291">
   <properties>
    <property name="Buildable" type="bool" value="true"/>
    <property name="NoSpawn" value="All"/>
    <property name="Type" value="Stone"/>
   </properties>
  </tile>
  <tile id="292">
   <properties>
    <property name="Buildable" type="bool" value="true"/>
    <property name="NoSpawn" value="All"/>
    <property name="Type" value="Stone"/>
   </properties>
  </tile>
  <tile id="293">
   <properties>
    <property name="Buildable" type="bool" value="true"/>
    <property name="NoSpawn" value="All"/>
    <property name="Type" value="Stone"/>
   </properties>
  </tile>
  <tile id="294">
   <properties>
    <property name="Buildable" type="bool" value="true"/>
    <property name="NoSpawn" value="All"/>
    <property name="Type" value="Stone"/>
   </properties>
  </tile>
  <tile id="295">
   <properties>
    <property name="Buildable" type="bool" value="true"/>
    <property name="NoSpawn" value="All"/>
    <property name="Type" value="Stone"/>
   </properties>
  </tile>
  <tile id="296">
   <properties>
    <property name="Buildable" type="bool" value="true"/>
    <property name="NoSpawn" value="All"/>
    <property name="Type" value="Stone"/>
   </properties>
  </tile>
  <tile id="297">
   <properties>
    <property name="Buildable" type="bool" value="true"/>
    <property name="Diggable" type="bool" value="true"/>
    <property name="Type" value="Dirt"/>
   </properties>
  </tile>
  <tile id="298">
   <properties>
    <property name="Buildable" type="bool" value="true"/>
    <property name="Diggable" type="bool" value="true"/>
    <property name="Type" value="Dirt"/>
   </properties>
  </tile>
  <tile id="299">
   <properties>
    <property name="Buildable" type="bool" value="true"/>
    <property name="Diggable" type="bool" value="true"/>
    <property name="Type" value="Dirt"/>
   </properties>
  </tile>
  <tile id="300">
   <properties>
    <property name="Buildable" type="bool" value="true"/>
    <property name="Diggable" type="bool" value="true"/>
    <property name="Type" value="Dirt"/>
   </properties>
  </tile>
  <tile id="301">
   <properties>
    <property name="Buildable" type="bool" value="true"/>
    <property name="Diggable" type="bool" value="true"/>
    <property name="Type" value="Dirt"/>
   </properties>
  </tile>
  <tile id="302">
   <properties>
    <property name="Buildable" type="bool" value="true"/>
    <property name="Diggable" type="bool" value="true"/>
    <property name="Type" value="Grass"/>
   </properties>
  </tile>
  <tile id="303">
   <properties>
    <property name="Buildable" type="bool" value="true"/>
    <property name="Diggable" type="bool" value="true"/>
    <property name="Type" value="Grass"/>
   </properties>
  </tile>
  <tile id="304">
   <properties>
    <property name="Buildable" type="bool" value="true"/>
    <property name="Diggable" type="bool" value="true"/>
    <property name="Type" value="Grass"/>
   </properties>
  </tile>
  <tile id="305">
   <properties>
    <property name="Buildable" type="bool" value="true"/>
    <property name="Diggable" type="bool" value="true"/>
    <property name="Type" value="Grass"/>
   </properties>
  </tile>
  <tile id="306">
   <properties>
    <property name="Buildable" type="bool" value="true"/>
    <property name="Diggable" type="bool" value="true"/>
    <property name="Type" value="Grass"/>
   </properties>
  </tile>
  <tile id="307">
   <properties>
    <property name="Buildable" type="bool" value="true"/>
    <property name="Diggable" type="bool" value="true"/>
    <property name="Type" value="Grass"/>
   </properties>
  </tile>
  <tile id="308">
   <properties>
    <property name="Buildable" type="bool" value="true"/>
    <property name="Diggable" type="bool" value="true"/>
    <property name="Type" value="Grass"/>
   </properties>
  </tile>
  <tile id="309">
   <properties>
    <property name="Buildable" type="bool" value="true"/>
    <property name="Diggable" type="bool" value="true"/>
    <property name="Type" value="Grass"/>
   </properties>
  </tile>
  <tile id="310">
   <properties>
    <property name="Buildable" type="bool" value="true"/>
    <property name="Diggable" type="bool" value="true"/>
    <property name="Type" value="Grass"/>
   </properties>
  </tile>
  <tile id="311">
   <properties>
    <property name="Buildable" type="bool" value="true"/>
    <property name="Diggable" type="bool" value="true"/>
    <property name="Type" value="Grass"/>
   </properties>
  </tile>
  <tile id="312">
   <properties>
    <property name="Buildable" type="bool" value="true"/>
    <property name="NoSpawn" value="All"/>
    <property name="Type" value="Stone"/>
   </properties>
  </tile>
  <tile id="313">
   <properties>
    <property name="Buildable" type="bool" value="true"/>
    <property name="NoSpawn" value="All"/>
    <property name="Type" value="Stone"/>
   </properties>
  </tile>
  <tile id="314">
   <properties>
    <property name="Buildable" type="bool" value="true"/>
    <property name="NoSpawn" value="All"/>
    <property name="Type" value="Stone"/>
   </properties>
  </tile>
  <tile id="315">
   <properties>
    <property name="Buildable" type="bool" value="true"/>
    <property name="NoSpawn" value="All"/>
    <property name="Type" value="Stone"/>
   </properties>
  </tile>
  <tile id="316">
   <properties>
    <property name="Buildable" type="bool" value="true"/>
    <property name="NoSpawn" value="All"/>
    <property name="Type" value="Stone"/>
   </properties>
  </tile>
  <tile id="317">
   <properties>
    <property name="Buildable" type="bool" value="true"/>
    <property name="NoSpawn" value="All"/>
    <property name="Type" value="Stone"/>
   </properties>
  </tile>
  <tile id="318">
   <properties>
    <property name="Buildable" type="bool" value="true"/>
    <property name="NoSpawn" value="All"/>
    <property name="Type" value="Stone"/>
   </properties>
  </tile>
  <tile id="319">
   <properties>
    <property name="Buildable" type="bool" value="true"/>
    <property name="NoSpawn" value="All"/>
    <property name="Type" value="Stone"/>
   </properties>
  </tile>
  <tile id="320">
   <properties>
    <property name="Buildable" type="bool" value="true"/>
    <property name="NoSpawn" value="All"/>
    <property name="Type" value="Stone"/>
   </properties>
  </tile>
  <tile id="321">
   <properties>
    <property name="Buildable" type="bool" value="true"/>
    <property name="NoSpawn" value="All"/>
    <property name="Type" value="Stone"/>
   </properties>
  </tile>
  <tile id="322">
   <properties>
    <property name="Buildable" type="bool" value="true"/>
    <property name="NoSpawn" value="All"/>
    <property name="Type" value="Stone"/>
   </properties>
  </tile>
  <tile id="323">
   <properties>
    <property name="Buildable" type="bool" value="true"/>
    <property name="NoSpawn" value="All"/>
    <property name="Type" value="Stone"/>
   </properties>
  </tile>
  <tile id="324">
   <properties>
    <property name="Buildable" type="bool" value="true"/>
    <property name="Diggable" type="bool" value="true"/>
    <property name="Type" value="Dirt"/>
   </properties>
  </tile>
  <tile id="325">
   <properties>
    <property name="Buildable" type="bool" value="true"/>
    <property name="Diggable" type="bool" value="true"/>
    <property name="Type" value="Dirt"/>
   </properties>
  </tile>
  <tile id="326">
   <properties>
    <property name="Buildable" type="bool" value="true"/>
    <property name="Diggable" type="bool" value="true"/>
    <property name="Type" value="Dirt"/>
   </properties>
  </tile>
  <tile id="327">
   <properties>
    <property name="Buildable" type="bool" value="true"/>
    <property name="Diggable" type="bool" value="true"/>
    <property name="Type" value="Dirt"/>
   </properties>
  </tile>
  <tile id="328">
   <properties>
    <property name="Buildable" type="bool" value="true"/>
    <property name="Diggable" type="bool" value="true"/>
    <property name="Type" value="Dirt"/>
   </properties>
  </tile>
  <tile id="329">
   <properties>
    <property name="Buildable" type="bool" value="true"/>
    <property name="Diggable" type="bool" value="true"/>
    <property name="Type" value="Grass"/>
   </properties>
  </tile>
  <tile id="330">
   <properties>
    <property name="Buildable" type="bool" value="true"/>
    <property name="Diggable" type="bool" value="true"/>
    <property name="Type" value="Grass"/>
   </properties>
  </tile>
  <tile id="331">
   <properties>
    <property name="Buildable" type="bool" value="true"/>
    <property name="Diggable" type="bool" value="true"/>
    <property name="Type" value="Grass"/>
   </properties>
  </tile>
  <tile id="332">
   <properties>
    <property name="Buildable" type="bool" value="true"/>
    <property name="Diggable" type="bool" value="true"/>
    <property name="Type" value="Grass"/>
   </properties>
  </tile>
  <tile id="333">
   <properties>
    <property name="Buildable" type="bool" value="true"/>
    <property name="Diggable" type="bool" value="true"/>
    <property name="Type" value="Grass"/>
   </properties>
  </tile>
  <tile id="334">
   <properties>
    <property name="Buildable" type="bool" value="true"/>
    <property name="Diggable" type="bool" value="true"/>
    <property name="Type" value="Grass"/>
   </properties>
  </tile>
  <tile id="335">
   <properties>
    <property name="Buildable" type="bool" value="true"/>
    <property name="Diggable" type="bool" value="true"/>
    <property name="Type" value="Grass"/>
   </properties>
  </tile>
  <tile id="336">
   <properties>
    <property name="Buildable" type="bool" value="true"/>
    <property name="Diggable" type="bool" value="true"/>
    <property name="Type" value="Grass"/>
   </properties>
  </tile>
  <tile id="337">
   <properties>
    <property name="Buildable" type="bool" value="true"/>
    <property name="Diggable" type="bool" value="true"/>
    <property name="Type" value="Grass"/>
   </properties>
  </tile>
  <tile id="338">
   <properties>
    <property name="Buildable" type="bool" value="true"/>
    <property name="Diggable" type="bool" value="true"/>
    <property name="Type" value="Grass"/>
   </properties>
  </tile>
  <tile id="339">
   <properties>
    <property name="Buildable" type="bool" value="true"/>
    <property name="NoSpawn" value="All"/>
    <property name="Type" value="Stone"/>
   </properties>
  </tile>
  <tile id="340">
   <properties>
    <property name="Buildable" type="bool" value="true"/>
    <property name="NoSpawn" value="All"/>
    <property name="Type" value="Stone"/>
   </properties>
  </tile>
  <tile id="341">
   <properties>
    <property name="Buildable" type="bool" value="true"/>
    <property name="NoSpawn" value="All"/>
    <property name="Type" value="Stone"/>
   </properties>
  </tile>
  <tile id="342">
   <properties>
    <property name="Buildable" type="bool" value="true"/>
    <property name="NoSpawn" value="All"/>
    <property name="Type" value="Stone"/>
   </properties>
  </tile>
  <tile id="343">
   <properties>
    <property name="Buildable" type="bool" value="true"/>
    <property name="NoSpawn" value="All"/>
    <property name="Type" value="Stone"/>
   </properties>
  </tile>
  <tile id="344">
   <properties>
    <property name="Buildable" type="bool" value="true"/>
    <property name="NoSpawn" value="All"/>
    <property name="Type" value="Stone"/>
   </properties>
  </tile>
  <tile id="345">
   <properties>
    <property name="Buildable" type="bool" value="true"/>
    <property name="NoSpawn" value="All"/>
    <property name="Type" value="Stone"/>
   </properties>
  </tile>
  <tile id="346">
   <properties>
    <property name="Buildable" type="bool" value="true"/>
    <property name="NoSpawn" value="All"/>
    <property name="Type" value="Stone"/>
   </properties>
  </tile>
  <tile id="347">
   <properties>
    <property name="Buildable" type="bool" value="true"/>
    <property name="NoSpawn" value="All"/>
    <property name="Type" value="Stone"/>
   </properties>
  </tile>
  <tile id="348">
   <properties>
    <property name="Buildable" type="bool" value="true"/>
    <property name="NoSpawn" value="All"/>
    <property name="Type" value="Stone"/>
   </properties>
  </tile>
  <tile id="349">
   <properties>
    <property name="Buildable" type="bool" value="true"/>
    <property name="NoSpawn" value="All"/>
    <property name="Type" value="Stone"/>
   </properties>
  </tile>
  <tile id="350">
   <properties>
    <property name="Buildable" type="bool" value="true"/>
    <property name="NoSpawn" value="All"/>
    <property name="Type" value="Stone"/>
   </properties>
  </tile>
  <tile id="351">
   <properties>
    <property name="Buildable" type="bool" value="true"/>
    <property name="Diggable" type="bool" value="true"/>
    <property name="Type" value="Dirt"/>
   </properties>
  </tile>
  <tile id="352">
   <properties>
    <property name="Buildable" type="bool" value="true"/>
    <property name="Diggable" type="bool" value="true"/>
    <property name="Type" value="Dirt"/>
   </properties>
  </tile>
  <tile id="353">
   <properties>
    <property name="Buildable" type="bool" value="true"/>
    <property name="Diggable" type="bool" value="true"/>
    <property name="Type" value="Dirt"/>
   </properties>
  </tile>
  <tile id="354">
   <properties>
    <property name="Buildable" type="bool" value="true"/>
    <property name="Diggable" type="bool" value="true"/>
    <property name="Type" value="Dirt"/>
   </properties>
  </tile>
  <tile id="355">
   <properties>
    <property name="Buildable" type="bool" value="true"/>
    <property name="Diggable" type="bool" value="true"/>
    <property name="Type" value="Dirt"/>
   </properties>
  </tile>
  <tile id="356">
   <properties>
    <property name="Buildable" type="bool" value="true"/>
    <property name="Diggable" type="bool" value="true"/>
    <property name="Type" value="Grass"/>
   </properties>
  </tile>
  <tile id="357">
   <properties>
    <property name="Buildable" type="bool" value="true"/>
    <property name="Diggable" type="bool" value="true"/>
    <property name="Type" value="Grass"/>
   </properties>
  </tile>
  <tile id="358">
   <properties>
    <property name="Buildable" type="bool" value="true"/>
    <property name="Diggable" type="bool" value="true"/>
    <property name="Type" value="Grass"/>
   </properties>
  </tile>
  <tile id="359">
   <properties>
    <property name="Buildable" type="bool" value="true"/>
    <property name="Diggable" type="bool" value="true"/>
    <property name="Type" value="Grass"/>
   </properties>
  </tile>
  <tile id="360">
   <properties>
    <property name="Buildable" type="bool" value="true"/>
    <property name="Diggable" type="bool" value="true"/>
    <property name="Type" value="Grass"/>
   </properties>
  </tile>
  <tile id="361">
   <properties>
    <property name="Buildable" type="bool" value="true"/>
    <property name="Diggable" type="bool" value="true"/>
    <property name="Type" value="Grass"/>
   </properties>
  </tile>
  <tile id="362">
   <properties>
    <property name="Buildable" type="bool" value="true"/>
    <property name="Diggable" type="bool" value="true"/>
    <property name="Type" value="Grass"/>
   </properties>
  </tile>
  <tile id="363">
   <properties>
    <property name="Buildable" type="bool" value="true"/>
    <property name="Diggable" type="bool" value="true"/>
    <property name="Type" value="Grass"/>
   </properties>
  </tile>
  <tile id="364">
   <properties>
    <property name="Buildable" type="bool" value="true"/>
    <property name="Diggable" type="bool" value="true"/>
    <property name="Type" value="Grass"/>
   </properties>
  </tile>
  <tile id="365">
   <properties>
    <property name="Buildable" type="bool" value="true"/>
    <property name="Diggable" type="bool" value="true"/>
    <property name="Type" value="Grass"/>
   </properties>
  </tile>
  <tile id="366">
   <properties>
    <property name="Buildable" type="bool" value="true"/>
    <property name="NoSpawn" value="All"/>
    <property name="Type" value="Stone"/>
   </properties>
  </tile>
  <tile id="367">
   <properties>
    <property name="Buildable" type="bool" value="true"/>
    <property name="NoSpawn" value="All"/>
    <property name="Type" value="Stone"/>
   </properties>
  </tile>
  <tile id="368">
   <properties>
    <property name="Buildable" type="bool" value="true"/>
    <property name="NoSpawn" value="All"/>
    <property name="Type" value="Stone"/>
   </properties>
  </tile>
  <tile id="369">
   <properties>
    <property name="Buildable" type="bool" value="true"/>
    <property name="NoSpawn" value="All"/>
    <property name="Type" value="Stone"/>
   </properties>
  </tile>
  <tile id="370">
   <properties>
    <property name="Buildable" type="bool" value="true"/>
    <property name="NoSpawn" value="All"/>
    <property name="Type" value="Stone"/>
   </properties>
  </tile>
  <tile id="371">
   <properties>
    <property name="Buildable" type="bool" value="true"/>
    <property name="NoSpawn" value="All"/>
    <property name="Type" value="Stone"/>
   </properties>
  </tile>
  <tile id="372">
   <properties>
    <property name="Buildable" type="bool" value="true"/>
    <property name="NoSpawn" value="All"/>
    <property name="Type" value="Stone"/>
   </properties>
  </tile>
  <tile id="373">
   <properties>
    <property name="Buildable" type="bool" value="true"/>
    <property name="NoSpawn" value="All"/>
    <property name="Type" value="Stone"/>
   </properties>
  </tile>
  <tile id="374">
   <properties>
    <property name="Buildable" type="bool" value="true"/>
    <property name="NoSpawn" value="All"/>
    <property name="Type" value="Stone"/>
   </properties>
  </tile>
  <tile id="375">
   <properties>
    <property name="Buildable" type="bool" value="true"/>
    <property name="NoSpawn" value="All"/>
    <property name="Type" value="Stone"/>
   </properties>
  </tile>
  <tile id="376">
   <properties>
    <property name="Buildable" type="bool" value="true"/>
    <property name="NoSpawn" value="All"/>
    <property name="Type" value="Stone"/>
   </properties>
  </tile>
  <tile id="377">
   <properties>
    <property name="Buildable" type="bool" value="true"/>
    <property name="NoSpawn" value="All"/>
    <property name="Type" value="Stone"/>
   </properties>
  </tile>
  <tile id="378">
   <properties>
    <property name="Buildable" type="bool" value="true"/>
    <property name="Diggable" type="bool" value="true"/>
    <property name="Type" value="Dirt"/>
   </properties>
  </tile>
  <tile id="379">
   <properties>
    <property name="Buildable" type="bool" value="true"/>
    <property name="Diggable" type="bool" value="true"/>
    <property name="Type" value="Dirt"/>
   </properties>
  </tile>
  <tile id="380">
   <properties>
    <property name="Buildable" type="bool" value="true"/>
    <property name="Diggable" type="bool" value="true"/>
    <property name="Type" value="Dirt"/>
   </properties>
  </tile>
  <tile id="381">
   <properties>
    <property name="Buildable" type="bool" value="true"/>
    <property name="Diggable" type="bool" value="true"/>
    <property name="Type" value="Dirt"/>
   </properties>
  </tile>
  <tile id="382">
   <properties>
    <property name="Buildable" type="bool" value="true"/>
    <property name="Diggable" type="bool" value="true"/>
    <property name="Type" value="Dirt"/>
   </properties>
  </tile>
  <tile id="383">
   <properties>
    <property name="Buildable" type="bool" value="true"/>
    <property name="Diggable" type="bool" value="true"/>
    <property name="Type" value="Grass"/>
   </properties>
  </tile>
  <tile id="384">
   <properties>
    <property name="Buildable" type="bool" value="true"/>
    <property name="Diggable" type="bool" value="true"/>
    <property name="Type" value="Grass"/>
   </properties>
  </tile>
  <tile id="385">
   <properties>
    <property name="Buildable" type="bool" value="true"/>
    <property name="Diggable" type="bool" value="true"/>
    <property name="Type" value="Grass"/>
   </properties>
  </tile>
  <tile id="386">
   <properties>
    <property name="Buildable" type="bool" value="true"/>
    <property name="Diggable" type="bool" value="true"/>
    <property name="Type" value="Grass"/>
   </properties>
  </tile>
  <tile id="387">
   <properties>
    <property name="Buildable" type="bool" value="true"/>
    <property name="Diggable" type="bool" value="true"/>
    <property name="Type" value="Grass"/>
   </properties>
  </tile>
  <tile id="388">
   <properties>
    <property name="Buildable" type="bool" value="true"/>
    <property name="Diggable" type="bool" value="true"/>
    <property name="Type" value="Grass"/>
   </properties>
  </tile>
  <tile id="389">
   <properties>
    <property name="Buildable" type="bool" value="true"/>
    <property name="Diggable" type="bool" value="true"/>
    <property name="Type" value="Grass"/>
   </properties>
  </tile>
  <tile id="390">
   <properties>
    <property name="Buildable" type="bool" value="true"/>
    <property name="Diggable" type="bool" value="true"/>
    <property name="Type" value="Grass"/>
   </properties>
  </tile>
  <tile id="391">
   <properties>
    <property name="Buildable" type="bool" value="true"/>
    <property name="Diggable" type="bool" value="true"/>
    <property name="Type" value="Grass"/>
   </properties>
  </tile>
  <tile id="392">
   <properties>
    <property name="Buildable" type="bool" value="true"/>
    <property name="Diggable" type="bool" value="true"/>
    <property name="Type" value="Grass"/>
   </properties>
  </tile>
  <tile id="393">
   <properties>
    <property name="Buildable" type="bool" value="true"/>
    <property name="NoSpawn" value="All"/>
    <property name="Type" value="Stone"/>
   </properties>
  </tile>
  <tile id="394">
   <properties>
    <property name="Buildable" type="bool" value="true"/>
    <property name="NoSpawn" value="All"/>
    <property name="Type" value="Stone"/>
   </properties>
  </tile>
  <tile id="395">
   <properties>
    <property name="Buildable" type="bool" value="true"/>
    <property name="NoSpawn" value="All"/>
    <property name="Type" value="Stone"/>
   </properties>
  </tile>
  <tile id="396">
   <properties>
    <property name="Buildable" type="bool" value="true"/>
    <property name="NoSpawn" value="All"/>
    <property name="Type" value="Stone"/>
   </properties>
  </tile>
  <tile id="397">
   <properties>
    <property name="Buildable" type="bool" value="true"/>
    <property name="NoSpawn" value="All"/>
    <property name="Type" value="Stone"/>
   </properties>
  </tile>
  <tile id="398">
   <properties>
    <property name="Buildable" type="bool" value="true"/>
    <property name="NoSpawn" value="All"/>
    <property name="Type" value="Stone"/>
   </properties>
  </tile>
  <tile id="399">
   <properties>
    <property name="Buildable" type="bool" value="true"/>
    <property name="NoSpawn" value="All"/>
    <property name="Type" value="Stone"/>
   </properties>
  </tile>
  <tile id="400">
   <properties>
    <property name="Buildable" type="bool" value="true"/>
    <property name="NoSpawn" value="All"/>
    <property name="Type" value="Stone"/>
   </properties>
  </tile>
  <tile id="401">
   <properties>
    <property name="Buildable" type="bool" value="true"/>
    <property name="NoSpawn" value="All"/>
    <property name="Type" value="Stone"/>
   </properties>
  </tile>
  <tile id="402">
   <properties>
    <property name="Buildable" type="bool" value="true"/>
    <property name="NoSpawn" value="All"/>
    <property name="Type" value="Stone"/>
   </properties>
  </tile>
  <tile id="403">
   <properties>
    <property name="Buildable" type="bool" value="true"/>
    <property name="NoSpawn" value="All"/>
    <property name="Type" value="Stone"/>
   </properties>
  </tile>
  <tile id="404">
   <properties>
    <property name="Buildable" type="bool" value="true"/>
    <property name="NoSpawn" value="All"/>
    <property name="Type" value="Stone"/>
   </properties>
  </tile>
  <tile id="405">
   <properties>
    <property name="Buildable" type="bool" value="true"/>
    <property name="NoSpawn" value="All"/>
    <property name="Type" value="Wood"/>
   </properties>
  </tile>
  <tile id="406">
   <properties>
    <property name="Buildable" type="bool" value="true"/>
    <property name="NoSpawn" value="All"/>
    <property name="Type" value="Wood"/>
   </properties>
  </tile>
  <tile id="407">
   <properties>
    <property name="Buildable" type="bool" value="true"/>
    <property name="NoSpawn" value="All"/>
    <property name="Type" value="Wood"/>
   </properties>
  </tile>
  <tile id="408">
   <properties>
    <property name="Buildable" type="bool" value="true"/>
    <property name="NoSpawn" value="All"/>
    <property name="Type" value="Wood"/>
   </properties>
  </tile>
  <tile id="409">
   <properties>
    <property name="Buildable" type="bool" value="true"/>
    <property name="NoSpawn" value="All"/>
    <property name="Type" value="Wood"/>
   </properties>
  </tile>
  <tile id="410">
   <properties>
    <property name="Buildable" type="bool" value="true"/>
    <property name="NoSpawn" value="All"/>
    <property name="Type" value="Wood"/>
   </properties>
  </tile>
  <tile id="411">
   <properties>
    <property name="Buildable" type="bool" value="true"/>
    <property name="NoSpawn" value="All"/>
    <property name="Type" value="Wood"/>
   </properties>
  </tile>
  <tile id="412">
   <properties>
    <property name="Buildable" type="bool" value="true"/>
    <property name="NoSpawn" value="All"/>
    <property name="Type" value="Wood"/>
   </properties>
  </tile>
  <tile id="413">
   <properties>
    <property name="Buildable" type="bool" value="true"/>
    <property name="NoSpawn" value="All"/>
    <property name="Type" value="Wood"/>
   </properties>
  </tile>
  <tile id="414">
   <properties>
    <property name="Buildable" type="bool" value="true"/>
    <property name="NoSpawn" value="All"/>
    <property name="Type" value="Wood"/>
   </properties>
  </tile>
  <tile id="415">
   <properties>
    <property name="Buildable" type="bool" value="true"/>
    <property name="NoSpawn" value="All"/>
    <property name="Type" value="Wood"/>
   </properties>
  </tile>
  <tile id="416">
   <properties>
    <property name="Buildable" type="bool" value="true"/>
    <property name="NoSpawn" value="All"/>
    <property name="Type" value="Wood"/>
   </properties>
  </tile>
  <tile id="417">
   <properties>
    <property name="Buildable" type="bool" value="true"/>
    <property name="NoSpawn" value="All"/>
    <property name="Type" value="Wood"/>
   </properties>
  </tile>
  <tile id="418">
   <properties>
    <property name="Buildable" type="bool" value="true"/>
    <property name="NoSpawn" value="All"/>
    <property name="Type" value="Wood"/>
   </properties>
  </tile>
  <tile id="419">
   <properties>
    <property name="Buildable" type="bool" value="true"/>
    <property name="NoSpawn" value="All"/>
    <property name="Type" value="Wood"/>
   </properties>
  </tile>
  <tile id="420">
   <properties>
    <property name="Buildable" type="bool" value="true"/>
    <property name="NoSpawn" value="All"/>
    <property name="Type" value="Wood"/>
   </properties>
  </tile>
  <tile id="422">
   <properties>
    <property name="Buildable" type="bool" value="true"/>
    <property name="NoSpawn" value="All"/>
    <property name="Type" value="Stone"/>
   </properties>
  </tile>
  <tile id="423">
   <properties>
    <property name="Buildable" type="bool" value="true"/>
    <property name="NoSpawn" value="All"/>
    <property name="Type" value="Stone"/>
   </properties>
  </tile>
  <tile id="424">
   <properties>
    <property name="Buildable" type="bool" value="true"/>
    <property name="NoSpawn" value="All"/>
    <property name="Type" value="Stone"/>
   </properties>
  </tile>
  <tile id="425">
   <properties>
    <property name="Buildable" type="bool" value="true"/>
    <property name="NoSpawn" value="All"/>
    <property name="Type" value="Stone"/>
   </properties>
  </tile>
  <tile id="426">
   <properties>
    <property name="Buildable" type="bool" value="true"/>
    <property name="NoSpawn" value="All"/>
    <property name="Type" value="Stone"/>
   </properties>
  </tile>
  <tile id="427">
   <properties>
    <property name="Buildable" type="bool" value="true"/>
    <property name="NoSpawn" value="All"/>
    <property name="Type" value="Stone"/>
   </properties>
  </tile>
  <tile id="428">
   <properties>
    <property name="Buildable" type="bool" value="true"/>
    <property name="NoSpawn" value="All"/>
    <property name="Type" value="Stone"/>
   </properties>
  </tile>
  <tile id="429">
   <properties>
    <property name="Buildable" type="bool" value="true"/>
    <property name="NoSpawn" value="All"/>
    <property name="Type" value="Stone"/>
   </properties>
  </tile>
  <tile id="430">
   <properties>
    <property name="Buildable" type="bool" value="true"/>
    <property name="NoSpawn" value="All"/>
    <property name="Type" value="Stone"/>
   </properties>
  </tile>
  <tile id="431">
   <properties>
    <property name="Buildable" type="bool" value="true"/>
    <property name="NoSpawn" value="All"/>
    <property name="Type" value="Stone"/>
   </properties>
  </tile>
  <tile id="432">
   <properties>
    <property name="Buildable" type="bool" value="true"/>
    <property name="NoSpawn" value="All"/>
    <property name="Type" value="Wood"/>
   </properties>
  </tile>
  <tile id="433">
   <properties>
    <property name="Buildable" type="bool" value="true"/>
    <property name="NoSpawn" value="All"/>
    <property name="Type" value="Wood"/>
   </properties>
  </tile>
  <tile id="434">
   <properties>
    <property name="Buildable" type="bool" value="true"/>
    <property name="NoSpawn" value="All"/>
    <property name="Type" value="Wood"/>
   </properties>
  </tile>
  <tile id="435">
   <properties>
    <property name="Buildable" type="bool" value="true"/>
    <property name="NoSpawn" value="All"/>
    <property name="Type" value="Wood"/>
   </properties>
  </tile>
  <tile id="436">
   <properties>
    <property name="Buildable" type="bool" value="true"/>
    <property name="NoSpawn" value="All"/>
    <property name="Type" value="Wood"/>
   </properties>
  </tile>
  <tile id="437">
   <properties>
    <property name="Buildable" type="bool" value="true"/>
    <property name="NoSpawn" value="All"/>
    <property name="Type" value="Wood"/>
   </properties>
  </tile>
  <tile id="438">
   <properties>
    <property name="Buildable" type="bool" value="true"/>
    <property name="NoSpawn" value="All"/>
    <property name="Type" value="Wood"/>
   </properties>
  </tile>
  <tile id="439">
   <properties>
    <property name="Buildable" type="bool" value="true"/>
    <property name="NoSpawn" value="All"/>
    <property name="Type" value="Wood"/>
   </properties>
  </tile>
  <tile id="440">
   <properties>
    <property name="Buildable" type="bool" value="true"/>
    <property name="NoSpawn" value="All"/>
    <property name="Type" value="Wood"/>
   </properties>
  </tile>
  <tile id="441">
   <properties>
    <property name="Buildable" type="bool" value="true"/>
    <property name="NoSpawn" value="All"/>
    <property name="Type" value="Wood"/>
   </properties>
  </tile>
  <tile id="442">
   <properties>
    <property name="Buildable" type="bool" value="true"/>
    <property name="NoSpawn" value="All"/>
    <property name="Type" value="Wood"/>
   </properties>
  </tile>
  <tile id="443">
   <properties>
    <property name="Buildable" type="bool" value="true"/>
    <property name="NoSpawn" value="All"/>
    <property name="Type" value="Wood"/>
   </properties>
  </tile>
  <tile id="444">
   <properties>
    <property name="Buildable" type="bool" value="true"/>
    <property name="NoSpawn" value="All"/>
    <property name="Type" value="Wood"/>
   </properties>
  </tile>
  <tile id="445">
   <properties>
    <property name="Buildable" type="bool" value="true"/>
    <property name="NoSpawn" value="All"/>
    <property name="Type" value="Wood"/>
   </properties>
  </tile>
  <tile id="446">
   <properties>
    <property name="Buildable" type="bool" value="true"/>
    <property name="NoSpawn" value="All"/>
    <property name="Type" value="Wood"/>
   </properties>
  </tile>
  <tile id="447">
   <properties>
    <property name="Buildable" type="bool" value="true"/>
    <property name="NoSpawn" value="All"/>
    <property name="Type" value="Wood"/>
   </properties>
  </tile>
  <tile id="449">
   <properties>
    <property name="Buildable" type="bool" value="true"/>
    <property name="NoSpawn" value="All"/>
    <property name="Type" value="Stone"/>
   </properties>
  </tile>
  <tile id="450">
   <properties>
    <property name="Buildable" type="bool" value="true"/>
    <property name="NoSpawn" value="All"/>
    <property name="Type" value="Stone"/>
   </properties>
  </tile>
  <tile id="451">
   <properties>
    <property name="Buildable" type="bool" value="true"/>
    <property name="NoSpawn" value="All"/>
    <property name="Type" value="Stone"/>
   </properties>
  </tile>
  <tile id="452">
   <properties>
    <property name="Buildable" type="bool" value="true"/>
    <property name="NoSpawn" value="All"/>
    <property name="Type" value="Stone"/>
   </properties>
  </tile>
  <tile id="453">
   <properties>
    <property name="Buildable" type="bool" value="true"/>
    <property name="NoSpawn" value="All"/>
    <property name="Type" value="Stone"/>
   </properties>
  </tile>
  <tile id="454">
   <properties>
    <property name="Buildable" type="bool" value="true"/>
    <property name="NoSpawn" value="All"/>
    <property name="Type" value="Stone"/>
   </properties>
  </tile>
  <tile id="455">
   <properties>
    <property name="Buildable" type="bool" value="true"/>
    <property name="NoSpawn" value="All"/>
    <property name="Type" value="Stone"/>
   </properties>
  </tile>
  <tile id="456">
   <properties>
    <property name="Buildable" type="bool" value="true"/>
    <property name="NoSpawn" value="All"/>
    <property name="Type" value="Stone"/>
   </properties>
  </tile>
  <tile id="457">
   <properties>
    <property name="Buildable" type="bool" value="true"/>
    <property name="NoSpawn" value="All"/>
    <property name="Type" value="Stone"/>
   </properties>
  </tile>
  <tile id="458">
   <properties>
    <property name="Buildable" type="bool" value="true"/>
    <property name="NoSpawn" value="All"/>
    <property name="Type" value="Stone"/>
   </properties>
  </tile>
  <tile id="459">
   <properties>
    <property name="Buildable" type="bool" value="true"/>
    <property name="NoSpawn" value="All"/>
    <property name="Type" value="Wood"/>
   </properties>
  </tile>
  <tile id="460">
   <properties>
    <property name="Buildable" type="bool" value="true"/>
    <property name="NoSpawn" value="All"/>
    <property name="Type" value="Wood"/>
   </properties>
  </tile>
  <tile id="461">
   <properties>
    <property name="Buildable" type="bool" value="true"/>
    <property name="NoSpawn" value="All"/>
    <property name="Type" value="Wood"/>
   </properties>
  </tile>
  <tile id="462">
   <properties>
    <property name="Buildable" type="bool" value="true"/>
    <property name="NoSpawn" value="All"/>
    <property name="Type" value="Wood"/>
   </properties>
  </tile>
  <tile id="463">
   <properties>
    <property name="Buildable" type="bool" value="true"/>
    <property name="NoSpawn" value="All"/>
    <property name="Type" value="Wood"/>
   </properties>
  </tile>
  <tile id="464">
   <properties>
    <property name="Buildable" type="bool" value="true"/>
    <property name="NoSpawn" value="All"/>
    <property name="Type" value="Wood"/>
   </properties>
  </tile>
  <tile id="465">
   <properties>
    <property name="Buildable" type="bool" value="true"/>
    <property name="NoSpawn" value="All"/>
    <property name="Type" value="Wood"/>
   </properties>
  </tile>
  <tile id="466">
   <properties>
    <property name="Buildable" type="bool" value="true"/>
    <property name="NoSpawn" value="All"/>
    <property name="Type" value="Wood"/>
   </properties>
  </tile>
  <tile id="467">
   <properties>
    <property name="Buildable" type="bool" value="true"/>
    <property name="NoSpawn" value="All"/>
    <property name="Type" value="Wood"/>
   </properties>
  </tile>
  <tile id="468">
   <properties>
    <property name="Buildable" type="bool" value="true"/>
    <property name="NoSpawn" value="All"/>
    <property name="Type" value="Wood"/>
   </properties>
  </tile>
  <tile id="469">
   <properties>
    <property name="Buildable" type="bool" value="true"/>
    <property name="NoSpawn" value="All"/>
    <property name="Type" value="Wood"/>
   </properties>
  </tile>
  <tile id="470">
   <properties>
    <property name="Buildable" type="bool" value="true"/>
    <property name="NoSpawn" value="All"/>
    <property name="Type" value="Wood"/>
   </properties>
  </tile>
  <tile id="471">
   <properties>
    <property name="Buildable" type="bool" value="true"/>
    <property name="NoSpawn" value="All"/>
    <property name="Type" value="Wood"/>
   </properties>
  </tile>
  <tile id="472">
   <properties>
    <property name="Buildable" type="bool" value="true"/>
    <property name="NoSpawn" value="All"/>
    <property name="Type" value="Wood"/>
   </properties>
  </tile>
  <tile id="473">
   <properties>
    <property name="Buildable" type="bool" value="true"/>
    <property name="NoSpawn" value="All"/>
    <property name="Type" value="Wood"/>
   </properties>
  </tile>
  <tile id="474">
   <properties>
    <property name="Buildable" type="bool" value="true"/>
    <property name="NoSpawn" value="All"/>
    <property name="Type" value="Wood"/>
   </properties>
  </tile>
  <tile id="476">
   <properties>
    <property name="Buildable" type="bool" value="true"/>
    <property name="NoSpawn" value="All"/>
    <property name="Type" value="Stone"/>
   </properties>
  </tile>
  <tile id="477">
   <properties>
    <property name="Buildable" type="bool" value="true"/>
    <property name="NoSpawn" value="All"/>
    <property name="Type" value="Stone"/>
   </properties>
  </tile>
  <tile id="478">
   <properties>
    <property name="Buildable" type="bool" value="true"/>
    <property name="NoSpawn" value="All"/>
    <property name="Type" value="Stone"/>
   </properties>
  </tile>
  <tile id="479">
   <properties>
    <property name="Buildable" type="bool" value="true"/>
    <property name="NoSpawn" value="All"/>
    <property name="Type" value="Stone"/>
   </properties>
  </tile>
  <tile id="480">
   <properties>
    <property name="Buildable" type="bool" value="true"/>
    <property name="NoSpawn" value="All"/>
    <property name="Type" value="Stone"/>
   </properties>
  </tile>
  <tile id="481">
   <properties>
    <property name="Buildable" type="bool" value="true"/>
    <property name="NoSpawn" value="All"/>
    <property name="Type" value="Stone"/>
   </properties>
  </tile>
  <tile id="482">
   <properties>
    <property name="Buildable" type="bool" value="true"/>
    <property name="NoSpawn" value="All"/>
    <property name="Type" value="Stone"/>
   </properties>
  </tile>
  <tile id="483">
   <properties>
    <property name="Buildable" type="bool" value="true"/>
    <property name="NoSpawn" value="All"/>
    <property name="Type" value="Stone"/>
   </properties>
  </tile>
  <tile id="484">
   <properties>
    <property name="Buildable" type="bool" value="true"/>
    <property name="NoSpawn" value="All"/>
    <property name="Type" value="Stone"/>
   </properties>
  </tile>
  <tile id="485">
   <properties>
    <property name="Buildable" type="bool" value="true"/>
    <property name="NoSpawn" value="All"/>
    <property name="Type" value="Stone"/>
   </properties>
  </tile>
  <tile id="486">
   <properties>
    <property name="Buildable" type="bool" value="true"/>
    <property name="NoSpawn" value="All"/>
    <property name="Type" value="Wood"/>
   </properties>
  </tile>
  <tile id="487">
   <properties>
    <property name="Buildable" type="bool" value="true"/>
    <property name="NoSpawn" value="All"/>
    <property name="Type" value="Wood"/>
   </properties>
  </tile>
  <tile id="488">
   <properties>
    <property name="Buildable" type="bool" value="true"/>
    <property name="NoSpawn" value="All"/>
    <property name="Type" value="Wood"/>
   </properties>
  </tile>
  <tile id="489">
   <properties>
    <property name="Buildable" type="bool" value="true"/>
    <property name="NoSpawn" value="All"/>
    <property name="Type" value="Wood"/>
   </properties>
  </tile>
  <tile id="490">
   <properties>
    <property name="Buildable" type="bool" value="true"/>
    <property name="NoSpawn" value="All"/>
    <property name="Type" value="Wood"/>
   </properties>
  </tile>
  <tile id="491">
   <properties>
    <property name="Buildable" type="bool" value="true"/>
    <property name="NoSpawn" value="All"/>
    <property name="Type" value="Wood"/>
   </properties>
  </tile>
  <tile id="492">
   <properties>
    <property name="Buildable" type="bool" value="true"/>
    <property name="NoSpawn" value="All"/>
    <property name="Type" value="Wood"/>
   </properties>
  </tile>
  <tile id="493">
   <properties>
    <property name="Buildable" type="bool" value="true"/>
    <property name="NoSpawn" value="All"/>
    <property name="Type" value="Wood"/>
   </properties>
  </tile>
  <tile id="494">
   <properties>
    <property name="Buildable" type="bool" value="true"/>
    <property name="NoSpawn" value="All"/>
    <property name="Type" value="Wood"/>
   </properties>
  </tile>
  <tile id="495">
   <properties>
    <property name="Buildable" type="bool" value="true"/>
    <property name="NoSpawn" value="All"/>
    <property name="Type" value="Wood"/>
   </properties>
  </tile>
  <tile id="496">
   <properties>
    <property name="Buildable" type="bool" value="true"/>
    <property name="NoSpawn" value="All"/>
    <property name="Type" value="Wood"/>
   </properties>
  </tile>
  <tile id="497">
   <properties>
    <property name="Buildable" type="bool" value="true"/>
    <property name="NoSpawn" value="All"/>
    <property name="Type" value="Wood"/>
   </properties>
  </tile>
  <tile id="498">
   <properties>
    <property name="Buildable" type="bool" value="true"/>
    <property name="NoSpawn" value="All"/>
    <property name="Type" value="Wood"/>
   </properties>
  </tile>
  <tile id="499">
   <properties>
    <property name="Buildable" type="bool" value="true"/>
    <property name="NoSpawn" value="All"/>
    <property name="Type" value="Wood"/>
   </properties>
  </tile>
  <tile id="500">
   <properties>
    <property name="Buildable" type="bool" value="true"/>
    <property name="NoSpawn" value="All"/>
    <property name="Type" value="Wood"/>
   </properties>
  </tile>
  <tile id="501">
   <properties>
    <property name="Buildable" type="bool" value="true"/>
    <property name="NoSpawn" value="All"/>
    <property name="Type" value="Wood"/>
   </properties>
  </tile>
  <tile id="503">
   <properties>
    <property name="Buildable" type="bool" value="true"/>
    <property name="NoSpawn" value="All"/>
    <property name="Type" value="Stone"/>
   </properties>
  </tile>
  <tile id="504">
   <properties>
    <property name="Buildable" type="bool" value="true"/>
    <property name="NoSpawn" value="All"/>
    <property name="Type" value="Stone"/>
   </properties>
  </tile>
  <tile id="505">
   <properties>
    <property name="Buildable" type="bool" value="true"/>
    <property name="NoSpawn" value="All"/>
    <property name="Type" value="Stone"/>
   </properties>
  </tile>
  <tile id="506">
   <properties>
    <property name="Buildable" type="bool" value="true"/>
    <property name="NoSpawn" value="All"/>
    <property name="Type" value="Stone"/>
   </properties>
  </tile>
  <tile id="507">
   <properties>
    <property name="Buildable" type="bool" value="true"/>
    <property name="NoSpawn" value="All"/>
    <property name="Type" value="Stone"/>
   </properties>
  </tile>
  <tile id="508">
   <properties>
    <property name="Buildable" type="bool" value="true"/>
    <property name="NoSpawn" value="All"/>
    <property name="Type" value="Stone"/>
   </properties>
  </tile>
  <tile id="509">
   <properties>
    <property name="Buildable" type="bool" value="true"/>
    <property name="NoSpawn" value="All"/>
    <property name="Type" value="Stone"/>
   </properties>
  </tile>
  <tile id="510">
   <properties>
    <property name="Buildable" type="bool" value="true"/>
    <property name="NoSpawn" value="All"/>
    <property name="Type" value="Stone"/>
   </properties>
  </tile>
  <tile id="511">
   <properties>
    <property name="Buildable" type="bool" value="true"/>
    <property name="NoSpawn" value="All"/>
    <property name="Type" value="Stone"/>
   </properties>
  </tile>
  <tile id="512">
   <properties>
    <property name="Buildable" type="bool" value="true"/>
    <property name="NoSpawn" value="All"/>
    <property name="Type" value="Stone"/>
   </properties>
  </tile>
  <tile id="513">
   <properties>
    <property name="Buildable" type="bool" value="true"/>
    <property name="NoSpawn" value="All"/>
    <property name="Type" value="Wood"/>
   </properties>
  </tile>
  <tile id="514">
   <properties>
    <property name="Buildable" type="bool" value="true"/>
    <property name="NoSpawn" value="All"/>
    <property name="Type" value="Wood"/>
   </properties>
  </tile>
  <tile id="515">
   <properties>
    <property name="Buildable" type="bool" value="true"/>
    <property name="NoSpawn" value="All"/>
    <property name="Type" value="Wood"/>
   </properties>
  </tile>
  <tile id="516">
   <properties>
    <property name="Buildable" type="bool" value="true"/>
    <property name="NoSpawn" value="All"/>
    <property name="Type" value="Wood"/>
   </properties>
  </tile>
  <tile id="517">
   <properties>
    <property name="Buildable" type="bool" value="true"/>
    <property name="NoSpawn" value="All"/>
    <property name="Type" value="Wood"/>
   </properties>
  </tile>
  <tile id="518">
   <properties>
    <property name="Buildable" type="bool" value="true"/>
    <property name="NoSpawn" value="All"/>
    <property name="Type" value="Wood"/>
   </properties>
  </tile>
  <tile id="519">
   <properties>
    <property name="Buildable" type="bool" value="true"/>
    <property name="NoSpawn" value="All"/>
    <property name="Type" value="Wood"/>
   </properties>
  </tile>
  <tile id="520">
   <properties>
    <property name="Buildable" type="bool" value="true"/>
    <property name="NoSpawn" value="All"/>
    <property name="Type" value="Wood"/>
   </properties>
  </tile>
  <tile id="521">
   <properties>
    <property name="Buildable" type="bool" value="true"/>
    <property name="NoSpawn" value="All"/>
    <property name="Type" value="Wood"/>
   </properties>
  </tile>
  <tile id="522">
   <properties>
    <property name="Buildable" type="bool" value="true"/>
    <property name="NoSpawn" value="All"/>
    <property name="Type" value="Wood"/>
   </properties>
  </tile>
  <tile id="523">
   <properties>
    <property name="Buildable" type="bool" value="true"/>
    <property name="NoSpawn" value="All"/>
    <property name="Type" value="Wood"/>
   </properties>
  </tile>
  <tile id="524">
   <properties>
    <property name="Buildable" type="bool" value="true"/>
    <property name="NoSpawn" value="All"/>
    <property name="Type" value="Wood"/>
   </properties>
  </tile>
  <tile id="525">
   <properties>
    <property name="Buildable" type="bool" value="true"/>
    <property name="NoSpawn" value="All"/>
    <property name="Type" value="Wood"/>
   </properties>
  </tile>
  <tile id="526">
   <properties>
    <property name="Buildable" type="bool" value="true"/>
    <property name="NoSpawn" value="All"/>
    <property name="Type" value="Wood"/>
   </properties>
  </tile>
  <tile id="527">
   <properties>
    <property name="Buildable" type="bool" value="true"/>
    <property name="NoSpawn" value="All"/>
    <property name="Type" value="Wood"/>
   </properties>
  </tile>
  <tile id="528">
   <properties>
    <property name="Buildable" type="bool" value="true"/>
    <property name="NoSpawn" value="All"/>
    <property name="Type" value="Wood"/>
   </properties>
  </tile>
  <tile id="540">
   <properties>
    <property name="Buildable" type="bool" value="true"/>
    <property name="NoSpawn" value="All"/>
    <property name="Type" value="Wood"/>
   </properties>
  </tile>
  <tile id="541">
   <properties>
    <property name="Buildable" type="bool" value="true"/>
    <property name="NoSpawn" value="All"/>
    <property name="Type" value="Wood"/>
   </properties>
  </tile>
  <tile id="542">
   <properties>
    <property name="Buildable" type="bool" value="true"/>
    <property name="NoSpawn" value="All"/>
    <property name="Type" value="Wood"/>
   </properties>
  </tile>
  <tile id="543">
   <properties>
    <property name="Buildable" type="bool" value="true"/>
    <property name="NoSpawn" value="All"/>
    <property name="Type" value="Wood"/>
   </properties>
  </tile>
  <tile id="544">
   <properties>
    <property name="Buildable" type="bool" value="true"/>
    <property name="NoSpawn" value="All"/>
    <property name="Type" value="Wood"/>
   </properties>
  </tile>
  <tile id="545">
   <properties>
    <property name="Buildable" type="bool" value="true"/>
    <property name="NoSpawn" value="All"/>
    <property name="Type" value="Wood"/>
   </properties>
  </tile>
  <tile id="546">
   <properties>
    <property name="Buildable" type="bool" value="true"/>
    <property name="NoSpawn" value="All"/>
    <property name="Type" value="Wood"/>
   </properties>
  </tile>
  <tile id="547">
   <properties>
    <property name="Buildable" type="bool" value="true"/>
    <property name="NoSpawn" value="All"/>
    <property name="Type" value="Wood"/>
   </properties>
  </tile>
  <tile id="548">
   <properties>
    <property name="Buildable" type="bool" value="true"/>
    <property name="NoSpawn" value="All"/>
    <property name="Type" value="Wood"/>
   </properties>
  </tile>
  <tile id="549">
   <properties>
    <property name="Buildable" type="bool" value="true"/>
    <property name="NoSpawn" value="All"/>
    <property name="Type" value="Wood"/>
   </properties>
  </tile>
  <tile id="550">
   <properties>
    <property name="Buildable" type="bool" value="true"/>
    <property name="NoSpawn" value="All"/>
    <property name="Type" value="Wood"/>
   </properties>
  </tile>
  <tile id="551">
   <properties>
    <property name="Buildable" type="bool" value="true"/>
    <property name="NoSpawn" value="All"/>
    <property name="Type" value="Wood"/>
   </properties>
  </tile>
  <tile id="552">
   <properties>
    <property name="Buildable" type="bool" value="true"/>
    <property name="NoSpawn" value="All"/>
    <property name="Type" value="Wood"/>
   </properties>
  </tile>
  <tile id="553">
   <properties>
    <property name="Buildable" type="bool" value="true"/>
    <property name="NoSpawn" value="All"/>
    <property name="Type" value="Wood"/>
   </properties>
  </tile>
  <tile id="554">
   <properties>
    <property name="Buildable" type="bool" value="true"/>
    <property name="NoSpawn" value="All"/>
    <property name="Type" value="Wood"/>
   </properties>
  </tile>
  <tile id="555">
   <properties>
    <property name="Buildable" type="bool" value="true"/>
    <property name="NoSpawn" value="All"/>
    <property name="Type" value="Wood"/>
   </properties>
  </tile>
  <tile id="567">
   <properties>
    <property name="Buildable" type="bool" value="true"/>
    <property name="NoSpawn" value="All"/>
    <property name="Type" value="Stone"/>
   </properties>
  </tile>
  <tile id="568">
   <properties>
    <property name="Buildable" type="bool" value="true"/>
    <property name="NoSpawn" value="All"/>
    <property name="Type" value="Stone"/>
   </properties>
  </tile>
  <tile id="569">
   <properties>
    <property name="Buildable" type="bool" value="true"/>
    <property name="NoSpawn" value="All"/>
    <property name="Type" value="Stone"/>
   </properties>
  </tile>
  <tile id="570">
   <properties>
    <property name="Buildable" type="bool" value="true"/>
    <property name="NoSpawn" value="All"/>
    <property name="Type" value="Stone"/>
   </properties>
  </tile>
  <tile id="571">
   <properties>
    <property name="Buildable" type="bool" value="true"/>
    <property name="NoSpawn" value="All"/>
    <property name="Type" value="Stone"/>
   </properties>
  </tile>
  <tile id="572">
   <properties>
    <property name="Buildable" type="bool" value="true"/>
    <property name="NoSpawn" value="All"/>
    <property name="Type" value="Stone"/>
   </properties>
  </tile>
  <tile id="573">
   <properties>
    <property name="Buildable" type="bool" value="true"/>
    <property name="NoSpawn" value="All"/>
    <property name="Type" value="Stone"/>
   </properties>
  </tile>
  <tile id="574">
   <properties>
    <property name="Buildable" type="bool" value="true"/>
    <property name="NoSpawn" value="All"/>
    <property name="Type" value="Stone"/>
   </properties>
  </tile>
  <tile id="575">
   <properties>
    <property name="Buildable" type="bool" value="true"/>
    <property name="NoSpawn" value="All"/>
    <property name="Type" value="Stone"/>
   </properties>
  </tile>
  <tile id="576">
   <properties>
    <property name="Buildable" type="bool" value="true"/>
    <property name="NoSpawn" value="All"/>
    <property name="Type" value="Stone"/>
   </properties>
  </tile>
  <tile id="577">
   <properties>
    <property name="Buildable" type="bool" value="true"/>
    <property name="NoSpawn" value="All"/>
    <property name="Type" value="Stone"/>
   </properties>
  </tile>
  <tile id="578">
   <properties>
    <property name="Buildable" type="bool" value="true"/>
    <property name="NoSpawn" value="All"/>
    <property name="Type" value="Stone"/>
   </properties>
  </tile>
  <tile id="579">
   <properties>
    <property name="Buildable" type="bool" value="true"/>
    <property name="NoSpawn" value="All"/>
    <property name="Type" value="Stone"/>
   </properties>
  </tile>
  <tile id="580">
   <properties>
    <property name="Buildable" type="bool" value="true"/>
    <property name="NoSpawn" value="All"/>
    <property name="Type" value="Stone"/>
   </properties>
  </tile>
  <tile id="581">
   <properties>
    <property name="Buildable" type="bool" value="true"/>
    <property name="NoSpawn" value="All"/>
    <property name="Type" value="Stone"/>
   </properties>
  </tile>
  <tile id="594">
   <properties>
    <property name="Buildable" type="bool" value="true"/>
    <property name="NoSpawn" value="All"/>
    <property name="Type" value="Stone"/>
   </properties>
  </tile>
  <tile id="595">
   <properties>
    <property name="Buildable" type="bool" value="true"/>
    <property name="NoSpawn" value="All"/>
    <property name="Type" value="Stone"/>
   </properties>
  </tile>
  <tile id="596">
   <properties>
    <property name="Buildable" type="bool" value="true"/>
    <property name="NoSpawn" value="All"/>
    <property name="Type" value="Stone"/>
   </properties>
  </tile>
  <tile id="597">
   <properties>
    <property name="Buildable" type="bool" value="true"/>
    <property name="NoSpawn" value="All"/>
    <property name="Type" value="Stone"/>
   </properties>
  </tile>
  <tile id="598">
   <properties>
    <property name="Buildable" type="bool" value="true"/>
    <property name="NoSpawn" value="All"/>
    <property name="Type" value="Stone"/>
   </properties>
  </tile>
  <tile id="599">
   <properties>
    <property name="Buildable" type="bool" value="true"/>
    <property name="NoSpawn" value="All"/>
    <property name="Type" value="Stone"/>
   </properties>
  </tile>
  <tile id="600">
   <properties>
    <property name="Buildable" type="bool" value="true"/>
    <property name="NoSpawn" value="All"/>
    <property name="Type" value="Stone"/>
   </properties>
  </tile>
  <tile id="601">
   <properties>
    <property name="Buildable" type="bool" value="true"/>
    <property name="NoSpawn" value="All"/>
    <property name="Type" value="Stone"/>
   </properties>
  </tile>
  <tile id="602">
   <properties>
    <property name="Buildable" type="bool" value="true"/>
    <property name="NoSpawn" value="All"/>
    <property name="Type" value="Stone"/>
   </properties>
  </tile>
  <tile id="603">
   <properties>
    <property name="Buildable" type="bool" value="true"/>
    <property name="NoSpawn" value="All"/>
    <property name="Type" value="Stone"/>
   </properties>
  </tile>
  <tile id="604">
   <properties>
    <property name="Buildable" type="bool" value="true"/>
    <property name="NoSpawn" value="All"/>
    <property name="Type" value="Stone"/>
   </properties>
  </tile>
  <tile id="605">
   <properties>
    <property name="Buildable" type="bool" value="true"/>
    <property name="NoSpawn" value="All"/>
    <property name="Type" value="Stone"/>
   </properties>
  </tile>
  <tile id="606">
   <properties>
    <property name="Buildable" type="bool" value="true"/>
    <property name="NoSpawn" value="All"/>
    <property name="Type" value="Stone"/>
   </properties>
  </tile>
  <tile id="607">
   <properties>
    <property name="Buildable" type="bool" value="true"/>
    <property name="NoSpawn" value="All"/>
    <property name="Type" value="Stone"/>
   </properties>
  </tile>
  <tile id="608">
   <properties>
    <property name="Buildable" type="bool" value="true"/>
    <property name="NoSpawn" value="All"/>
    <property name="Type" value="Stone"/>
   </properties>
  </tile>
  <tile id="609">
   <properties>
    <property name="Buildable" type="bool" value="true"/>
    <property name="NoSpawn" value="All"/>
    <property name="Type" value="Stone"/>
   </properties>
  </tile>
  <tile id="610">
   <properties>
    <property name="Buildable" type="bool" value="true"/>
    <property name="NoSpawn" value="All"/>
    <property name="Type" value="Stone"/>
   </properties>
  </tile>
  <tile id="621">
   <properties>
    <property name="Buildable" type="bool" value="true"/>
    <property name="NoSpawn" value="All"/>
    <property name="Type" value="Stone"/>
   </properties>
  </tile>
  <tile id="622">
   <properties>
    <property name="Buildable" type="bool" value="true"/>
    <property name="NoSpawn" value="All"/>
    <property name="Type" value="Stone"/>
   </properties>
  </tile>
  <tile id="623">
   <properties>
    <property name="Buildable" type="bool" value="true"/>
    <property name="NoSpawn" value="All"/>
    <property name="Type" value="Stone"/>
   </properties>
  </tile>
  <tile id="624">
   <properties>
    <property name="Buildable" type="bool" value="true"/>
    <property name="NoSpawn" value="All"/>
    <property name="Type" value="Stone"/>
   </properties>
  </tile>
  <tile id="625">
   <properties>
    <property name="Buildable" type="bool" value="true"/>
    <property name="NoSpawn" value="All"/>
    <property name="Type" value="Stone"/>
   </properties>
  </tile>
  <tile id="626">
   <properties>
    <property name="Buildable" type="bool" value="true"/>
    <property name="NoSpawn" value="All"/>
    <property name="Type" value="Stone"/>
   </properties>
  </tile>
  <tile id="627">
   <properties>
    <property name="Buildable" type="bool" value="true"/>
    <property name="NoSpawn" value="All"/>
    <property name="Type" value="Stone"/>
   </properties>
  </tile>
  <tile id="628">
   <properties>
    <property name="Buildable" type="bool" value="true"/>
    <property name="NoSpawn" value="All"/>
    <property name="Type" value="Stone"/>
   </properties>
  </tile>
  <tile id="629">
   <properties>
    <property name="Buildable" type="bool" value="true"/>
    <property name="NoSpawn" value="All"/>
    <property name="Type" value="Stone"/>
   </properties>
  </tile>
  <tile id="630">
   <properties>
    <property name="Buildable" type="bool" value="true"/>
    <property name="NoSpawn" value="All"/>
    <property name="Type" value="Stone"/>
   </properties>
  </tile>
  <tile id="631">
   <properties>
    <property name="Buildable" type="bool" value="true"/>
    <property name="NoSpawn" value="All"/>
    <property name="Type" value="Stone"/>
   </properties>
  </tile>
  <tile id="632">
   <properties>
    <property name="Buildable" type="bool" value="true"/>
    <property name="NoSpawn" value="All"/>
    <property name="Type" value="Stone"/>
   </properties>
  </tile>
  <tile id="633">
   <properties>
    <property name="Buildable" type="bool" value="true"/>
    <property name="NoSpawn" value="All"/>
    <property name="Type" value="Stone"/>
   </properties>
  </tile>
  <tile id="634">
   <properties>
    <property name="Buildable" type="bool" value="true"/>
    <property name="NoSpawn" value="All"/>
    <property name="Type" value="Stone"/>
   </properties>
  </tile>
  <tile id="635">
   <properties>
    <property name="Buildable" type="bool" value="true"/>
    <property name="NoSpawn" value="All"/>
    <property name="Type" value="Stone"/>
   </properties>
  </tile>
  <tile id="636">
   <properties>
    <property name="Buildable" type="bool" value="true"/>
    <property name="NoSpawn" value="All"/>
    <property name="Type" value="Stone"/>
   </properties>
  </tile>
  <tile id="637">
   <properties>
    <property name="Buildable" type="bool" value="true"/>
    <property name="NoSpawn" value="All"/>
    <property name="Type" value="Stone"/>
   </properties>
  </tile>
  <tile id="648">
   <properties>
    <property name="Buildable" type="bool" value="true"/>
    <property name="NoSpawn" value="All"/>
    <property name="Type" value="Stone"/>
   </properties>
  </tile>
  <tile id="649">
   <properties>
    <property name="Buildable" type="bool" value="true"/>
    <property name="NoSpawn" value="All"/>
    <property name="Type" value="Stone"/>
   </properties>
  </tile>
  <tile id="650">
   <properties>
    <property name="Buildable" type="bool" value="true"/>
    <property name="NoSpawn" value="All"/>
    <property name="Type" value="Stone"/>
   </properties>
  </tile>
  <tile id="651">
   <properties>
    <property name="Buildable" type="bool" value="true"/>
    <property name="NoSpawn" value="All"/>
    <property name="Type" value="Stone"/>
   </properties>
  </tile>
  <tile id="652">
   <properties>
    <property name="Buildable" type="bool" value="true"/>
    <property name="NoSpawn" value="All"/>
    <property name="Type" value="Stone"/>
   </properties>
  </tile>
  <tile id="653">
   <properties>
    <property name="Buildable" type="bool" value="true"/>
    <property name="NoSpawn" value="All"/>
    <property name="Type" value="Stone"/>
   </properties>
  </tile>
  <tile id="654">
   <properties>
    <property name="Buildable" type="bool" value="true"/>
    <property name="NoSpawn" value="All"/>
    <property name="Type" value="Stone"/>
   </properties>
  </tile>
  <tile id="655">
   <properties>
    <property name="Buildable" type="bool" value="true"/>
    <property name="NoSpawn" value="All"/>
    <property name="Type" value="Stone"/>
   </properties>
  </tile>
  <tile id="656">
   <properties>
    <property name="Buildable" type="bool" value="true"/>
    <property name="NoSpawn" value="All"/>
    <property name="Type" value="Stone"/>
   </properties>
  </tile>
  <tile id="657">
   <properties>
    <property name="Buildable" type="bool" value="true"/>
    <property name="NoSpawn" value="All"/>
    <property name="Type" value="Stone"/>
   </properties>
  </tile>
  <tile id="658">
   <properties>
    <property name="Buildable" type="bool" value="true"/>
    <property name="NoSpawn" value="All"/>
    <property name="Type" value="Stone"/>
   </properties>
  </tile>
  <tile id="659">
   <properties>
    <property name="Buildable" type="bool" value="true"/>
    <property name="NoSpawn" value="All"/>
    <property name="Type" value="Stone"/>
   </properties>
  </tile>
  <tile id="660">
   <properties>
    <property name="Buildable" type="bool" value="true"/>
    <property name="NoSpawn" value="All"/>
    <property name="Type" value="Stone"/>
   </properties>
  </tile>
  <tile id="661">
   <properties>
    <property name="Buildable" type="bool" value="true"/>
    <property name="NoSpawn" value="All"/>
    <property name="Type" value="Stone"/>
   </properties>
  </tile>
  <tile id="662">
   <properties>
    <property name="Buildable" type="bool" value="true"/>
    <property name="NoSpawn" value="All"/>
    <property name="Type" value="Stone"/>
   </properties>
  </tile>
  <tile id="663">
   <properties>
    <property name="Buildable" type="bool" value="true"/>
    <property name="NoSpawn" value="All"/>
    <property name="Type" value="Stone"/>
   </properties>
  </tile>
  <tile id="664">
   <properties>
    <property name="Buildable" type="bool" value="true"/>
    <property name="NoSpawn" value="All"/>
    <property name="Type" value="Stone"/>
   </properties>
  </tile>
  <tile id="675">
   <properties>
    <property name="Buildable" type="bool" value="true"/>
    <property name="NoSpawn" value="All"/>
    <property name="Type" value="Stone"/>
   </properties>
  </tile>
  <tile id="676">
   <properties>
    <property name="Buildable" type="bool" value="true"/>
    <property name="NoSpawn" value="All"/>
    <property name="Type" value="Stone"/>
   </properties>
  </tile>
  <tile id="677">
   <properties>
    <property name="Buildable" type="bool" value="true"/>
    <property name="NoSpawn" value="All"/>
    <property name="Type" value="Stone"/>
   </properties>
  </tile>
  <tile id="678">
   <properties>
    <property name="Buildable" type="bool" value="true"/>
    <property name="NoSpawn" value="All"/>
    <property name="Type" value="Stone"/>
   </properties>
  </tile>
  <tile id="679">
   <properties>
    <property name="Buildable" type="bool" value="true"/>
    <property name="NoSpawn" value="All"/>
    <property name="Type" value="Stone"/>
   </properties>
  </tile>
  <tile id="680">
   <properties>
    <property name="Buildable" type="bool" value="true"/>
    <property name="NoSpawn" value="All"/>
    <property name="Type" value="Stone"/>
   </properties>
  </tile>
  <tile id="681">
   <properties>
    <property name="Buildable" type="bool" value="true"/>
    <property name="NoSpawn" value="All"/>
    <property name="Type" value="Stone"/>
   </properties>
  </tile>
  <tile id="682">
   <properties>
    <property name="Buildable" type="bool" value="true"/>
    <property name="NoSpawn" value="All"/>
    <property name="Type" value="Stone"/>
   </properties>
  </tile>
  <tile id="683">
   <properties>
    <property name="Buildable" type="bool" value="true"/>
    <property name="NoSpawn" value="All"/>
    <property name="Type" value="Stone"/>
   </properties>
  </tile>
  <tile id="684">
   <properties>
    <property name="Buildable" type="bool" value="true"/>
    <property name="NoSpawn" value="All"/>
    <property name="Type" value="Stone"/>
   </properties>
  </tile>
  <tile id="685">
   <properties>
    <property name="Buildable" type="bool" value="true"/>
    <property name="NoSpawn" value="All"/>
    <property name="Type" value="Stone"/>
   </properties>
  </tile>
  <tile id="686">
   <properties>
    <property name="Buildable" type="bool" value="true"/>
    <property name="NoSpawn" value="All"/>
    <property name="Type" value="Stone"/>
   </properties>
  </tile>
  <tile id="687">
   <properties>
    <property name="Buildable" type="bool" value="true"/>
    <property name="NoSpawn" value="All"/>
    <property name="Type" value="Stone"/>
   </properties>
  </tile>
  <tile id="688">
   <properties>
    <property name="Buildable" type="bool" value="true"/>
    <property name="NoSpawn" value="All"/>
    <property name="Type" value="Stone"/>
   </properties>
  </tile>
  <tile id="689">
   <properties>
    <property name="Buildable" type="bool" value="true"/>
    <property name="NoSpawn" value="All"/>
    <property name="Type" value="Stone"/>
   </properties>
  </tile>
  <tile id="690">
   <properties>
    <property name="Buildable" type="bool" value="true"/>
    <property name="NoSpawn" value="All"/>
    <property name="Type" value="Stone"/>
   </properties>
  </tile>
  <tile id="691">
   <properties>
    <property name="Buildable" type="bool" value="true"/>
    <property name="NoSpawn" value="All"/>
    <property name="Type" value="Stone"/>
   </properties>
  </tile>
  <tile id="702">
   <properties>
    <property name="Buildable" type="bool" value="true"/>
    <property name="NoSpawn" value="All"/>
    <property name="Type" value="Stone"/>
   </properties>
  </tile>
  <tile id="703">
   <properties>
    <property name="Buildable" type="bool" value="true"/>
    <property name="NoSpawn" value="All"/>
    <property name="Type" value="Stone"/>
   </properties>
  </tile>
  <tile id="704">
   <properties>
    <property name="Buildable" type="bool" value="true"/>
    <property name="NoSpawn" value="All"/>
    <property name="Type" value="Stone"/>
   </properties>
  </tile>
  <tile id="705">
   <properties>
    <property name="Buildable" type="bool" value="true"/>
    <property name="NoSpawn" value="All"/>
    <property name="Type" value="Stone"/>
   </properties>
  </tile>
  <tile id="706">
   <properties>
    <property name="Buildable" type="bool" value="true"/>
    <property name="NoSpawn" value="All"/>
    <property name="Type" value="Stone"/>
   </properties>
  </tile>
  <tile id="707">
   <properties>
    <property name="Buildable" type="bool" value="true"/>
    <property name="NoSpawn" value="All"/>
    <property name="Type" value="Stone"/>
   </properties>
  </tile>
  <tile id="708">
   <properties>
    <property name="Buildable" type="bool" value="true"/>
    <property name="NoSpawn" value="All"/>
    <property name="Type" value="Stone"/>
   </properties>
  </tile>
  <tile id="709">
   <properties>
    <property name="Buildable" type="bool" value="true"/>
    <property name="NoSpawn" value="All"/>
    <property name="Type" value="Stone"/>
   </properties>
  </tile>
  <tile id="710">
   <properties>
    <property name="Buildable" type="bool" value="true"/>
    <property name="NoSpawn" value="All"/>
    <property name="Type" value="Stone"/>
   </properties>
  </tile>
  <tile id="711">
   <properties>
    <property name="Buildable" type="bool" value="true"/>
    <property name="NoSpawn" value="All"/>
    <property name="Type" value="Stone"/>
   </properties>
  </tile>
  <tile id="712">
   <properties>
    <property name="Buildable" type="bool" value="true"/>
    <property name="NoSpawn" value="All"/>
    <property name="Type" value="Stone"/>
   </properties>
  </tile>
  <tile id="713">
   <properties>
    <property name="Buildable" type="bool" value="true"/>
    <property name="NoSpawn" value="All"/>
    <property name="Type" value="Stone"/>
   </properties>
  </tile>
  <tile id="714">
   <properties>
    <property name="Buildable" type="bool" value="true"/>
    <property name="NoSpawn" value="All"/>
    <property name="Type" value="Stone"/>
   </properties>
  </tile>
  <tile id="715">
   <properties>
    <property name="Buildable" type="bool" value="true"/>
    <property name="NoSpawn" value="All"/>
    <property name="Type" value="Stone"/>
   </properties>
  </tile>
  <tile id="716">
   <properties>
    <property name="Buildable" type="bool" value="true"/>
    <property name="NoSpawn" value="All"/>
    <property name="Type" value="Stone"/>
   </properties>
  </tile>
  <tile id="717">
   <properties>
    <property name="Buildable" type="bool" value="true"/>
    <property name="NoSpawn" value="All"/>
    <property name="Type" value="Stone"/>
   </properties>
  </tile>
  <tile id="718">
   <properties>
    <property name="Buildable" type="bool" value="true"/>
    <property name="NoSpawn" value="All"/>
    <property name="Type" value="Stone"/>
   </properties>
  </tile>
  <tile id="729">
   <properties>
    <property name="Buildable" type="bool" value="true"/>
    <property name="NoSpawn" value="All"/>
    <property name="Type" value="Stone"/>
   </properties>
  </tile>
  <tile id="730">
   <properties>
    <property name="Buildable" type="bool" value="true"/>
    <property name="NoSpawn" value="All"/>
    <property name="Type" value="Stone"/>
   </properties>
  </tile>
  <tile id="731">
   <properties>
    <property name="Buildable" type="bool" value="true"/>
    <property name="NoSpawn" value="All"/>
    <property name="Type" value="Stone"/>
   </properties>
  </tile>
  <tile id="732">
   <properties>
    <property name="Buildable" type="bool" value="true"/>
    <property name="NoSpawn" value="All"/>
    <property name="Type" value="Stone"/>
   </properties>
  </tile>
  <tile id="733">
   <properties>
    <property name="Buildable" type="bool" value="true"/>
    <property name="NoSpawn" value="All"/>
    <property name="Type" value="Stone"/>
   </properties>
  </tile>
  <tile id="734">
   <properties>
    <property name="Buildable" type="bool" value="true"/>
    <property name="NoSpawn" value="All"/>
    <property name="Type" value="Stone"/>
   </properties>
  </tile>
  <tile id="735">
   <properties>
    <property name="Buildable" type="bool" value="true"/>
    <property name="NoSpawn" value="All"/>
    <property name="Type" value="Stone"/>
   </properties>
  </tile>
  <tile id="736">
   <properties>
    <property name="Buildable" type="bool" value="true"/>
    <property name="NoSpawn" value="All"/>
    <property name="Type" value="Stone"/>
   </properties>
  </tile>
  <tile id="737">
   <properties>
    <property name="Buildable" type="bool" value="true"/>
    <property name="NoSpawn" value="All"/>
    <property name="Type" value="Stone"/>
   </properties>
  </tile>
  <tile id="738">
   <properties>
    <property name="Buildable" type="bool" value="true"/>
    <property name="NoSpawn" value="All"/>
    <property name="Type" value="Stone"/>
   </properties>
  </tile>
  <tile id="739">
   <properties>
    <property name="Buildable" type="bool" value="true"/>
    <property name="NoSpawn" value="All"/>
    <property name="Type" value="Stone"/>
   </properties>
  </tile>
  <tile id="740">
   <properties>
    <property name="Buildable" type="bool" value="true"/>
    <property name="NoSpawn" value="All"/>
    <property name="Type" value="Stone"/>
   </properties>
  </tile>
  <tile id="741">
   <properties>
    <property name="Buildable" type="bool" value="true"/>
    <property name="NoSpawn" value="All"/>
    <property name="Type" value="Stone"/>
   </properties>
  </tile>
  <tile id="742">
   <properties>
    <property name="Buildable" type="bool" value="true"/>
    <property name="NoSpawn" value="All"/>
    <property name="Type" value="Stone"/>
   </properties>
  </tile>
  <tile id="743">
   <properties>
    <property name="Buildable" type="bool" value="true"/>
    <property name="NoSpawn" value="All"/>
    <property name="Type" value="Stone"/>
   </properties>
  </tile>
  <tile id="744">
   <properties>
    <property name="Buildable" type="bool" value="true"/>
    <property name="NoSpawn" value="All"/>
    <property name="Type" value="Stone"/>
   </properties>
  </tile>
  <tile id="745">
   <properties>
    <property name="Buildable" type="bool" value="true"/>
    <property name="NoSpawn" value="All"/>
    <property name="Type" value="Stone"/>
   </properties>
  </tile>
  <tile id="756">
   <properties>
    <property name="Buildable" type="bool" value="true"/>
    <property name="NoSpawn" value="All"/>
    <property name="Type" value="Stone"/>
   </properties>
  </tile>
  <tile id="757">
   <properties>
    <property name="Buildable" type="bool" value="true"/>
    <property name="NoSpawn" value="All"/>
    <property name="Type" value="Stone"/>
   </properties>
  </tile>
  <tile id="758">
   <properties>
    <property name="Buildable" type="bool" value="true"/>
    <property name="NoSpawn" value="All"/>
    <property name="Type" value="Stone"/>
   </properties>
  </tile>
  <tile id="759">
   <properties>
    <property name="Buildable" type="bool" value="true"/>
    <property name="NoSpawn" value="All"/>
    <property name="Type" value="Stone"/>
   </properties>
  </tile>
  <tile id="760">
   <properties>
    <property name="Buildable" type="bool" value="true"/>
    <property name="NoSpawn" value="All"/>
    <property name="Type" value="Stone"/>
   </properties>
  </tile>
  <tile id="761">
   <properties>
    <property name="Buildable" type="bool" value="true"/>
    <property name="NoSpawn" value="All"/>
    <property name="Type" value="Stone"/>
   </properties>
  </tile>
  <tile id="762">
   <properties>
    <property name="Buildable" type="bool" value="true"/>
    <property name="NoSpawn" value="All"/>
    <property name="Type" value="Stone"/>
   </properties>
  </tile>
  <tile id="763">
   <properties>
    <property name="Buildable" type="bool" value="true"/>
    <property name="NoSpawn" value="All"/>
    <property name="Type" value="Stone"/>
   </properties>
  </tile>
  <tile id="764">
   <properties>
    <property name="Buildable" type="bool" value="true"/>
    <property name="NoSpawn" value="All"/>
    <property name="Type" value="Stone"/>
   </properties>
  </tile>
  <tile id="765">
   <properties>
    <property name="Buildable" type="bool" value="true"/>
    <property name="NoSpawn" value="All"/>
    <property name="Type" value="Stone"/>
   </properties>
  </tile>
  <tile id="767">
   <properties>
    <property name="Buildable" type="bool" value="true"/>
    <property name="NoSpawn" value="All"/>
    <property name="Type" value="Stone"/>
   </properties>
  </tile>
  <tile id="768">
   <properties>
    <property name="Buildable" type="bool" value="true"/>
    <property name="NoSpawn" value="All"/>
    <property name="Type" value="Stone"/>
   </properties>
  </tile>
  <tile id="769">
   <properties>
    <property name="Buildable" type="bool" value="true"/>
    <property name="NoSpawn" value="All"/>
    <property name="Type" value="Stone"/>
   </properties>
  </tile>
  <tile id="770">
   <properties>
    <property name="Buildable" type="bool" value="true"/>
    <property name="NoSpawn" value="All"/>
    <property name="Type" value="Stone"/>
   </properties>
  </tile>
  <tile id="771">
   <properties>
    <property name="Buildable" type="bool" value="true"/>
    <property name="NoSpawn" value="All"/>
    <property name="Type" value="Stone"/>
   </properties>
  </tile>
  <tile id="772">
   <properties>
    <property name="Buildable" type="bool" value="true"/>
    <property name="NoSpawn" value="All"/>
    <property name="Type" value="Stone"/>
   </properties>
  </tile>
  <tile id="783">
   <properties>
    <property name="Buildable" type="bool" value="true"/>
    <property name="NoSpawn" value="All"/>
    <property name="Type" value="Stone"/>
   </properties>
  </tile>
  <tile id="784">
   <properties>
    <property name="Buildable" type="bool" value="true"/>
    <property name="NoSpawn" value="All"/>
    <property name="Type" value="Stone"/>
   </properties>
  </tile>
  <tile id="785">
   <properties>
    <property name="Buildable" type="bool" value="true"/>
    <property name="NoSpawn" value="All"/>
    <property name="Type" value="Stone"/>
   </properties>
  </tile>
  <tile id="786">
   <properties>
    <property name="Buildable" type="bool" value="true"/>
    <property name="NoSpawn" value="All"/>
    <property name="Type" value="Stone"/>
   </properties>
  </tile>
  <tile id="787">
   <properties>
    <property name="Buildable" type="bool" value="true"/>
    <property name="NoSpawn" value="All"/>
    <property name="Type" value="Stone"/>
   </properties>
  </tile>
  <tile id="788">
   <properties>
    <property name="Buildable" type="bool" value="true"/>
    <property name="NoSpawn" value="All"/>
    <property name="Type" value="Stone"/>
   </properties>
  </tile>
  <tile id="789">
   <properties>
    <property name="Buildable" type="bool" value="true"/>
    <property name="NoSpawn" value="All"/>
    <property name="Type" value="Stone"/>
   </properties>
  </tile>
  <tile id="790">
   <properties>
    <property name="Buildable" type="bool" value="true"/>
    <property name="NoSpawn" value="All"/>
    <property name="Type" value="Stone"/>
   </properties>
  </tile>
  <tile id="791">
   <properties>
    <property name="Buildable" type="bool" value="true"/>
    <property name="NoSpawn" value="All"/>
    <property name="Type" value="Stone"/>
   </properties>
  </tile>
  <tile id="792">
   <properties>
    <property name="Buildable" type="bool" value="true"/>
    <property name="NoSpawn" value="All"/>
    <property name="Type" value="Stone"/>
   </properties>
  </tile>
  <tile id="793">
   <properties>
    <property name="Buildable" type="bool" value="true"/>
    <property name="NoSpawn" value="All"/>
    <property name="Type" value="Stone"/>
   </properties>
  </tile>
  <tile id="794">
   <properties>
    <property name="Buildable" type="bool" value="true"/>
    <property name="NoSpawn" value="All"/>
    <property name="Type" value="Stone"/>
   </properties>
  </tile>
  <tile id="795">
   <properties>
    <property name="Buildable" type="bool" value="true"/>
    <property name="NoSpawn" value="All"/>
    <property name="Type" value="Stone"/>
   </properties>
  </tile>
  <tile id="796">
   <properties>
    <property name="Buildable" type="bool" value="true"/>
    <property name="NoSpawn" value="All"/>
    <property name="Type" value="Stone"/>
   </properties>
  </tile>
  <tile id="797">
   <properties>
    <property name="Buildable" type="bool" value="true"/>
    <property name="NoSpawn" value="All"/>
    <property name="Type" value="Stone"/>
   </properties>
  </tile>
  <tile id="798">
   <properties>
    <property name="Buildable" type="bool" value="true"/>
    <property name="NoSpawn" value="All"/>
    <property name="Type" value="Stone"/>
   </properties>
  </tile>
  <tile id="799">
   <properties>
    <property name="Buildable" type="bool" value="true"/>
    <property name="NoSpawn" value="All"/>
    <property name="Type" value="Stone"/>
   </properties>
  </tile>
  <tile id="810">
   <properties>
    <property name="Buildable" type="bool" value="true"/>
    <property name="NoSpawn" value="All"/>
    <property name="Type" value="Stone"/>
   </properties>
  </tile>
  <tile id="811">
   <properties>
    <property name="Buildable" type="bool" value="true"/>
    <property name="NoSpawn" value="All"/>
    <property name="Type" value="Stone"/>
   </properties>
  </tile>
  <tile id="812">
   <properties>
    <property name="Buildable" type="bool" value="true"/>
    <property name="NoSpawn" value="All"/>
    <property name="Type" value="Stone"/>
   </properties>
  </tile>
  <tile id="813">
   <properties>
    <property name="Buildable" type="bool" value="true"/>
    <property name="NoSpawn" value="All"/>
    <property name="Type" value="Stone"/>
   </properties>
  </tile>
  <tile id="814">
   <properties>
    <property name="Buildable" type="bool" value="true"/>
    <property name="NoSpawn" value="All"/>
    <property name="Type" value="Stone"/>
   </properties>
  </tile>
  <tile id="815">
   <properties>
    <property name="Buildable" type="bool" value="true"/>
    <property name="NoSpawn" value="All"/>
    <property name="Type" value="Stone"/>
   </properties>
  </tile>
  <tile id="816">
   <properties>
    <property name="Buildable" type="bool" value="true"/>
    <property name="NoSpawn" value="All"/>
    <property name="Type" value="Stone"/>
   </properties>
  </tile>
  <tile id="817">
   <properties>
    <property name="Buildable" type="bool" value="true"/>
    <property name="NoSpawn" value="All"/>
    <property name="Type" value="Stone"/>
   </properties>
  </tile>
  <tile id="818">
   <properties>
    <property name="Buildable" type="bool" value="true"/>
    <property name="NoSpawn" value="All"/>
    <property name="Type" value="Stone"/>
   </properties>
  </tile>
  <tile id="819">
   <properties>
    <property name="Buildable" type="bool" value="true"/>
    <property name="NoSpawn" value="All"/>
    <property name="Type" value="Stone"/>
   </properties>
  </tile>
  <tile id="820">
   <properties>
    <property name="Buildable" type="bool" value="true"/>
    <property name="NoSpawn" value="All"/>
    <property name="Type" value="Stone"/>
   </properties>
  </tile>
  <tile id="821">
   <properties>
    <property name="Buildable" type="bool" value="true"/>
    <property name="NoSpawn" value="All"/>
    <property name="Type" value="Stone"/>
   </properties>
  </tile>
  <tile id="822">
   <properties>
    <property name="Buildable" type="bool" value="true"/>
    <property name="NoSpawn" value="All"/>
    <property name="Type" value="Stone"/>
   </properties>
  </tile>
  <tile id="823">
   <properties>
    <property name="Buildable" type="bool" value="true"/>
    <property name="NoSpawn" value="All"/>
    <property name="Type" value="Stone"/>
   </properties>
  </tile>
  <tile id="824">
   <properties>
    <property name="Buildable" type="bool" value="true"/>
    <property name="NoSpawn" value="All"/>
    <property name="Type" value="Stone"/>
   </properties>
  </tile>
  <tile id="825">
   <properties>
    <property name="Buildable" type="bool" value="true"/>
    <property name="NoSpawn" value="All"/>
    <property name="Type" value="Stone"/>
   </properties>
  </tile>
  <tile id="826">
   <properties>
    <property name="Buildable" type="bool" value="true"/>
    <property name="NoSpawn" value="All"/>
    <property name="Type" value="Stone"/>
   </properties>
  </tile>
  <tile id="837">
   <properties>
    <property name="Buildable" type="bool" value="true"/>
    <property name="NoSpawn" value="All"/>
    <property name="Type" value="Stone"/>
   </properties>
  </tile>
  <tile id="838">
   <properties>
    <property name="Buildable" type="bool" value="true"/>
    <property name="NoSpawn" value="All"/>
    <property name="Type" value="Stone"/>
   </properties>
  </tile>
  <tile id="839">
   <properties>
    <property name="Buildable" type="bool" value="true"/>
    <property name="NoSpawn" value="All"/>
    <property name="Type" value="Stone"/>
   </properties>
  </tile>
  <tile id="840">
   <properties>
    <property name="Buildable" type="bool" value="true"/>
    <property name="NoSpawn" value="All"/>
    <property name="Type" value="Stone"/>
   </properties>
  </tile>
  <tile id="841">
   <properties>
    <property name="Buildable" type="bool" value="true"/>
    <property name="NoSpawn" value="All"/>
    <property name="Type" value="Stone"/>
   </properties>
  </tile>
  <tile id="842">
   <properties>
    <property name="Buildable" type="bool" value="true"/>
    <property name="NoSpawn" value="All"/>
    <property name="Type" value="Stone"/>
   </properties>
  </tile>
  <tile id="843">
   <properties>
    <property name="Buildable" type="bool" value="true"/>
    <property name="NoSpawn" value="All"/>
    <property name="Type" value="Stone"/>
   </properties>
  </tile>
  <tile id="844">
   <properties>
    <property name="Buildable" type="bool" value="true"/>
    <property name="NoSpawn" value="All"/>
    <property name="Type" value="Stone"/>
   </properties>
  </tile>
  <tile id="845">
   <properties>
    <property name="Buildable" type="bool" value="true"/>
    <property name="NoSpawn" value="All"/>
    <property name="Type" value="Stone"/>
   </properties>
  </tile>
  <tile id="846">
   <properties>
    <property name="Buildable" type="bool" value="true"/>
    <property name="NoSpawn" value="All"/>
    <property name="Type" value="Stone"/>
   </properties>
  </tile>
  <tile id="847">
   <properties>
    <property name="Buildable" type="bool" value="true"/>
    <property name="NoSpawn" value="All"/>
    <property name="Type" value="Stone"/>
   </properties>
  </tile>
  <tile id="848">
   <properties>
    <property name="Buildable" type="bool" value="true"/>
    <property name="NoSpawn" value="All"/>
    <property name="Type" value="Stone"/>
   </properties>
  </tile>
  <tile id="850">
   <properties>
    <property name="Buildable" type="bool" value="true"/>
    <property name="NoSpawn" value="All"/>
    <property name="Type" value="Stone"/>
   </properties>
  </tile>
  <tile id="851">
   <properties>
    <property name="Buildable" type="bool" value="true"/>
    <property name="NoSpawn" value="All"/>
    <property name="Type" value="Stone"/>
   </properties>
  </tile>
  <tile id="852">
   <properties>
    <property name="Buildable" type="bool" value="true"/>
    <property name="NoSpawn" value="All"/>
    <property name="Type" value="Stone"/>
   </properties>
  </tile>
  <tile id="853">
   <properties>
    <property name="Buildable" type="bool" value="true"/>
    <property name="NoSpawn" value="All"/>
    <property name="Type" value="Stone"/>
   </properties>
  </tile>
  <tile id="864">
   <properties>
    <property name="Buildable" type="bool" value="true"/>
    <property name="NoSpawn" value="All"/>
    <property name="Type" value="Stone"/>
   </properties>
  </tile>
  <tile id="865">
   <properties>
    <property name="Buildable" type="bool" value="true"/>
    <property name="NoSpawn" value="All"/>
    <property name="Type" value="Stone"/>
   </properties>
  </tile>
  <tile id="866">
   <properties>
    <property name="Buildable" type="bool" value="true"/>
    <property name="NoSpawn" value="All"/>
    <property name="Type" value="Stone"/>
   </properties>
  </tile>
  <tile id="867">
   <properties>
    <property name="Buildable" type="bool" value="true"/>
    <property name="NoSpawn" value="All"/>
    <property name="Type" value="Stone"/>
   </properties>
  </tile>
  <tile id="868">
   <properties>
    <property name="Buildable" type="bool" value="true"/>
    <property name="NoSpawn" value="All"/>
    <property name="Type" value="Stone"/>
   </properties>
  </tile>
  <tile id="869">
   <properties>
    <property name="Buildable" type="bool" value="true"/>
    <property name="NoSpawn" value="All"/>
    <property name="Type" value="Stone"/>
   </properties>
  </tile>
  <tile id="870">
   <properties>
    <property name="Buildable" type="bool" value="true"/>
    <property name="NoSpawn" value="All"/>
    <property name="Type" value="Stone"/>
   </properties>
  </tile>
  <tile id="871">
   <properties>
    <property name="Buildable" type="bool" value="true"/>
    <property name="NoSpawn" value="All"/>
    <property name="Type" value="Stone"/>
   </properties>
  </tile>
  <tile id="872">
   <properties>
    <property name="Buildable" type="bool" value="true"/>
    <property name="NoSpawn" value="All"/>
    <property name="Type" value="Stone"/>
   </properties>
  </tile>
  <tile id="873">
   <properties>
    <property name="Buildable" type="bool" value="true"/>
    <property name="NoSpawn" value="All"/>
    <property name="Type" value="Stone"/>
   </properties>
  </tile>
  <tile id="874">
   <properties>
    <property name="Buildable" type="bool" value="true"/>
    <property name="NoSpawn" value="All"/>
    <property name="Type" value="Stone"/>
   </properties>
  </tile>
  <tile id="875">
   <properties>
    <property name="Buildable" type="bool" value="true"/>
    <property name="NoSpawn" value="All"/>
    <property name="Type" value="Stone"/>
   </properties>
  </tile>
  <tile id="876">
   <properties>
    <property name="Buildable" type="bool" value="true"/>
    <property name="NoSpawn" value="All"/>
    <property name="Type" value="Stone"/>
   </properties>
  </tile>
  <tile id="877">
   <properties>
    <property name="Buildable" type="bool" value="true"/>
    <property name="NoSpawn" value="All"/>
    <property name="Type" value="Stone"/>
   </properties>
  </tile>
  <tile id="878">
   <properties>
    <property name="Buildable" type="bool" value="true"/>
    <property name="NoSpawn" value="All"/>
    <property name="Type" value="Stone"/>
   </properties>
  </tile>
  <tile id="879">
   <properties>
    <property name="Buildable" type="bool" value="true"/>
    <property name="NoSpawn" value="All"/>
    <property name="Type" value="Stone"/>
   </properties>
  </tile>
  <tile id="880">
   <properties>
    <property name="Buildable" type="bool" value="true"/>
    <property name="NoSpawn" value="All"/>
    <property name="Type" value="Stone"/>
   </properties>
  </tile>
  <tile id="891">
   <properties>
    <property name="Buildable" type="bool" value="true"/>
    <property name="NoSpawn" value="All"/>
    <property name="Type" value="Stone"/>
   </properties>
  </tile>
  <tile id="892">
   <properties>
    <property name="Buildable" type="bool" value="true"/>
    <property name="NoSpawn" value="All"/>
    <property name="Type" value="Stone"/>
   </properties>
  </tile>
  <tile id="893">
   <properties>
    <property name="Buildable" type="bool" value="true"/>
    <property name="NoSpawn" value="All"/>
    <property name="Type" value="Stone"/>
   </properties>
  </tile>
  <tile id="894">
   <properties>
    <property name="Buildable" type="bool" value="true"/>
    <property name="NoSpawn" value="All"/>
    <property name="Type" value="Stone"/>
   </properties>
  </tile>
  <tile id="895">
   <properties>
    <property name="Buildable" type="bool" value="true"/>
    <property name="NoSpawn" value="All"/>
    <property name="Type" value="Stone"/>
   </properties>
  </tile>
  <tile id="896">
   <properties>
    <property name="Buildable" type="bool" value="true"/>
    <property name="NoSpawn" value="All"/>
    <property name="Type" value="Stone"/>
   </properties>
  </tile>
  <tile id="897">
   <properties>
    <property name="Buildable" type="bool" value="true"/>
    <property name="NoSpawn" value="All"/>
    <property name="Type" value="Stone"/>
   </properties>
  </tile>
  <tile id="898">
   <properties>
    <property name="Buildable" type="bool" value="true"/>
    <property name="NoSpawn" value="All"/>
    <property name="Type" value="Stone"/>
   </properties>
  </tile>
  <tile id="900">
   <properties>
    <property name="Buildable" type="bool" value="true"/>
    <property name="NoSpawn" value="All"/>
    <property name="Type" value="Stone"/>
   </properties>
  </tile>
  <tile id="901">
   <properties>
    <property name="Buildable" type="bool" value="true"/>
    <property name="NoSpawn" value="All"/>
    <property name="Type" value="Stone"/>
   </properties>
  </tile>
  <tile id="902">
   <properties>
    <property name="Buildable" type="bool" value="true"/>
    <property name="NoSpawn" value="All"/>
    <property name="Type" value="Stone"/>
   </properties>
  </tile>
  <tile id="903">
   <properties>
    <property name="Buildable" type="bool" value="true"/>
    <property name="NoSpawn" value="All"/>
    <property name="Type" value="Stone"/>
   </properties>
  </tile>
  <tile id="904">
   <properties>
    <property name="Buildable" type="bool" value="true"/>
    <property name="NoSpawn" value="All"/>
    <property name="Type" value="Stone"/>
   </properties>
  </tile>
  <tile id="905">
   <properties>
    <property name="Buildable" type="bool" value="true"/>
    <property name="NoSpawn" value="All"/>
    <property name="Type" value="Stone"/>
   </properties>
  </tile>
  <tile id="906">
   <properties>
    <property name="Buildable" type="bool" value="true"/>
    <property name="NoSpawn" value="All"/>
    <property name="Type" value="Stone"/>
   </properties>
  </tile>
  <tile id="907">
   <properties>
    <property name="Buildable" type="bool" value="true"/>
    <property name="NoSpawn" value="All"/>
    <property name="Type" value="Stone"/>
   </properties>
  </tile>
  <tile id="918">
   <properties>
    <property name="Buildable" type="bool" value="true"/>
    <property name="NoSpawn" value="All"/>
    <property name="Type" value="Stone"/>
   </properties>
  </tile>
  <tile id="919">
   <properties>
    <property name="Buildable" type="bool" value="true"/>
    <property name="NoSpawn" value="All"/>
    <property name="Type" value="Stone"/>
   </properties>
  </tile>
  <tile id="920">
   <properties>
    <property name="Buildable" type="bool" value="true"/>
    <property name="NoSpawn" value="All"/>
    <property name="Type" value="Stone"/>
   </properties>
  </tile>
  <tile id="921">
   <properties>
    <property name="Buildable" type="bool" value="true"/>
    <property name="NoSpawn" value="All"/>
    <property name="Type" value="Stone"/>
   </properties>
  </tile>
  <tile id="922">
   <properties>
    <property name="Buildable" type="bool" value="true"/>
    <property name="NoSpawn" value="All"/>
    <property name="Type" value="Stone"/>
   </properties>
  </tile>
  <tile id="923">
   <properties>
    <property name="Buildable" type="bool" value="true"/>
    <property name="NoSpawn" value="All"/>
    <property name="Type" value="Stone"/>
   </properties>
  </tile>
  <tile id="924">
   <properties>
    <property name="Buildable" type="bool" value="true"/>
    <property name="NoSpawn" value="All"/>
    <property name="Type" value="Stone"/>
   </properties>
  </tile>
  <tile id="925">
   <properties>
    <property name="Buildable" type="bool" value="true"/>
    <property name="NoSpawn" value="All"/>
    <property name="Type" value="Stone"/>
   </properties>
  </tile>
  <tile id="926">
   <properties>
    <property name="Buildable" type="bool" value="true"/>
    <property name="NoSpawn" value="All"/>
    <property name="Type" value="Stone"/>
   </properties>
  </tile>
  <tile id="927">
   <properties>
    <property name="Buildable" type="bool" value="true"/>
    <property name="NoSpawn" value="All"/>
    <property name="Type" value="Stone"/>
   </properties>
  </tile>
  <tile id="928">
   <properties>
    <property name="Buildable" type="bool" value="true"/>
    <property name="NoSpawn" value="All"/>
    <property name="Type" value="Stone"/>
   </properties>
  </tile>
  <tile id="929">
   <properties>
    <property name="Buildable" type="bool" value="true"/>
    <property name="NoSpawn" value="All"/>
    <property name="Type" value="Stone"/>
   </properties>
  </tile>
  <tile id="930">
   <properties>
    <property name="Buildable" type="bool" value="true"/>
    <property name="NoSpawn" value="All"/>
    <property name="Type" value="Stone"/>
   </properties>
  </tile>
  <tile id="931">
   <properties>
    <property name="Buildable" type="bool" value="true"/>
    <property name="NoSpawn" value="All"/>
    <property name="Type" value="Stone"/>
   </properties>
  </tile>
  <tile id="932">
   <properties>
    <property name="Buildable" type="bool" value="true"/>
    <property name="NoSpawn" value="All"/>
    <property name="Type" value="Stone"/>
   </properties>
  </tile>
  <tile id="933">
   <properties>
    <property name="Buildable" type="bool" value="true"/>
    <property name="NoSpawn" value="All"/>
    <property name="Type" value="Stone"/>
   </properties>
  </tile>
  <tile id="934">
   <properties>
    <property name="Buildable" type="bool" value="true"/>
    <property name="NoSpawn" value="All"/>
    <property name="Type" value="Stone"/>
   </properties>
  </tile>
  <tile id="935">
   <properties>
    <property name="Buildable" type="bool" value="true"/>
    <property name="NoSpawn" value="All"/>
    <property name="Type" value="Stone"/>
   </properties>
  </tile>
  <tile id="936">
   <properties>
    <property name="Buildable" type="bool" value="true"/>
    <property name="NoSpawn" value="All"/>
    <property name="Type" value="Stone"/>
   </properties>
  </tile>
  <tile id="937">
   <properties>
    <property name="Buildable" type="bool" value="true"/>
    <property name="NoSpawn" value="All"/>
    <property name="Type" value="Stone"/>
   </properties>
  </tile>
  <tile id="938">
   <properties>
    <property name="Buildable" type="bool" value="true"/>
    <property name="NoSpawn" value="All"/>
    <property name="Type" value="Stone"/>
   </properties>
  </tile>
  <tile id="939">
   <properties>
    <property name="Buildable" type="bool" value="true"/>
    <property name="NoSpawn" value="All"/>
    <property name="Type" value="Stone"/>
   </properties>
  </tile>
  <tile id="940">
   <properties>
    <property name="Buildable" type="bool" value="true"/>
    <property name="NoSpawn" value="All"/>
    <property name="Type" value="Stone"/>
   </properties>
  </tile>
  <tile id="941">
   <properties>
    <property name="Buildable" type="bool" value="true"/>
    <property name="NoSpawn" value="All"/>
    <property name="Type" value="Stone"/>
   </properties>
  </tile>
  <tile id="942">
   <properties>
    <property name="Buildable" type="bool" value="true"/>
    <property name="NoSpawn" value="All"/>
    <property name="Type" value="Stone"/>
   </properties>
  </tile>
  <tile id="943">
   <properties>
    <property name="Buildable" type="bool" value="true"/>
    <property name="NoSpawn" value="All"/>
    <property name="Type" value="Stone"/>
   </properties>
  </tile>
  <tile id="944">
   <properties>
    <property name="Buildable" type="bool" value="true"/>
    <property name="NoSpawn" value="All"/>
    <property name="Type" value="Stone"/>
   </properties>
  </tile>
  <tile id="945">
   <properties>
    <property name="Buildable" type="bool" value="true"/>
    <property name="NoSpawn" value="All"/>
    <property name="Type" value="Stone"/>
   </properties>
  </tile>
  <tile id="946">
   <properties>
    <property name="Buildable" type="bool" value="true"/>
    <property name="NoSpawn" value="All"/>
    <property name="Type" value="Stone"/>
   </properties>
  </tile>
  <tile id="947">
   <properties>
    <property name="Buildable" type="bool" value="true"/>
    <property name="NoSpawn" value="All"/>
    <property name="Type" value="Stone"/>
   </properties>
  </tile>
  <tile id="948">
   <properties>
    <property name="Buildable" type="bool" value="true"/>
    <property name="NoSpawn" value="All"/>
    <property name="Type" value="Stone"/>
   </properties>
  </tile>
  <tile id="949">
   <properties>
    <property name="Buildable" type="bool" value="true"/>
    <property name="NoSpawn" value="All"/>
    <property name="Type" value="Stone"/>
   </properties>
  </tile>
  <tile id="950">
   <properties>
    <property name="Buildable" type="bool" value="true"/>
    <property name="NoSpawn" value="All"/>
    <property name="Type" value="Stone"/>
   </properties>
  </tile>
  <tile id="951">
   <properties>
    <property name="Buildable" type="bool" value="true"/>
    <property name="NoSpawn" value="All"/>
    <property name="Type" value="Stone"/>
   </properties>
  </tile>
  <tile id="952">
   <properties>
    <property name="Buildable" type="bool" value="true"/>
    <property name="NoSpawn" value="All"/>
    <property name="Type" value="Stone"/>
   </properties>
  </tile>
  <tile id="953">
   <properties>
    <property name="Buildable" type="bool" value="true"/>
    <property name="NoSpawn" value="All"/>
    <property name="Type" value="Stone"/>
   </properties>
  </tile>
  <tile id="954">
   <properties>
    <property name="Buildable" type="bool" value="true"/>
    <property name="NoSpawn" value="All"/>
    <property name="Type" value="Stone"/>
   </properties>
  </tile>
  <tile id="955">
   <properties>
    <property name="Buildable" type="bool" value="true"/>
    <property name="NoSpawn" value="All"/>
    <property name="Type" value="Stone"/>
   </properties>
  </tile>
  <tile id="956">
   <properties>
    <property name="Buildable" type="bool" value="true"/>
    <property name="NoSpawn" value="All"/>
    <property name="Type" value="Stone"/>
   </properties>
  </tile>
  <tile id="957">
   <properties>
    <property name="Buildable" type="bool" value="true"/>
    <property name="NoSpawn" value="All"/>
    <property name="Type" value="Stone"/>
   </properties>
  </tile>
  <tile id="958">
   <properties>
    <property name="Buildable" type="bool" value="true"/>
    <property name="NoSpawn" value="All"/>
    <property name="Type" value="Stone"/>
   </properties>
  </tile>
  <tile id="959">
   <properties>
    <property name="Buildable" type="bool" value="true"/>
    <property name="NoSpawn" value="All"/>
    <property name="Type" value="Stone"/>
   </properties>
  </tile>
  <tile id="960">
   <properties>
    <property name="Buildable" type="bool" value="true"/>
    <property name="NoSpawn" value="All"/>
    <property name="Type" value="Stone"/>
   </properties>
  </tile>
  <tile id="961">
   <properties>
    <property name="Buildable" type="bool" value="true"/>
    <property name="NoSpawn" value="All"/>
    <property name="Type" value="Stone"/>
   </properties>
  </tile>
  <tile id="962">
   <properties>
    <property name="Buildable" type="bool" value="true"/>
    <property name="NoSpawn" value="All"/>
    <property name="Type" value="Stone"/>
   </properties>
  </tile>
  <tile id="963">
   <properties>
    <property name="Buildable" type="bool" value="true"/>
    <property name="NoSpawn" value="All"/>
    <property name="Type" value="Stone"/>
   </properties>
  </tile>
  <tile id="964">
   <properties>
    <property name="Buildable" type="bool" value="true"/>
    <property name="NoSpawn" value="All"/>
    <property name="Type" value="Stone"/>
   </properties>
  </tile>
  <tile id="965">
   <properties>
    <property name="Buildable" type="bool" value="true"/>
    <property name="NoSpawn" value="All"/>
    <property name="Type" value="Stone"/>
   </properties>
  </tile>
  <tile id="966">
   <properties>
    <property name="Buildable" type="bool" value="true"/>
    <property name="NoSpawn" value="All"/>
    <property name="Type" value="Stone"/>
   </properties>
  </tile>
  <tile id="967">
   <properties>
    <property name="Buildable" type="bool" value="true"/>
    <property name="NoSpawn" value="All"/>
    <property name="Type" value="Stone"/>
   </properties>
  </tile>
  <tile id="968">
   <properties>
    <property name="Buildable" type="bool" value="true"/>
    <property name="NoSpawn" value="All"/>
    <property name="Type" value="Stone"/>
   </properties>
  </tile>
  <tile id="969">
   <properties>
    <property name="Buildable" type="bool" value="true"/>
    <property name="NoSpawn" value="All"/>
    <property name="Type" value="Stone"/>
   </properties>
  </tile>
  <tile id="970">
   <properties>
    <property name="Buildable" type="bool" value="true"/>
    <property name="NoSpawn" value="All"/>
    <property name="Type" value="Stone"/>
   </properties>
  </tile>
  <tile id="971">
   <properties>
    <property name="Buildable" type="bool" value="true"/>
    <property name="NoSpawn" value="All"/>
    <property name="Type" value="Stone"/>
   </properties>
  </tile>
  <tile id="972">
   <properties>
    <property name="Buildable" type="bool" value="true"/>
    <property name="NoSpawn" value="All"/>
    <property name="Type" value="Stone"/>
   </properties>
  </tile>
  <tile id="973">
   <properties>
    <property name="Buildable" type="bool" value="true"/>
    <property name="NoSpawn" value="All"/>
    <property name="Type" value="Stone"/>
   </properties>
  </tile>
  <tile id="974">
   <properties>
    <property name="Buildable" type="bool" value="true"/>
    <property name="NoSpawn" value="All"/>
    <property name="Type" value="Stone"/>
   </properties>
  </tile>
  <tile id="975">
   <properties>
    <property name="Buildable" type="bool" value="true"/>
    <property name="NoSpawn" value="All"/>
    <property name="Type" value="Stone"/>
   </properties>
  </tile>
  <tile id="976">
   <properties>
    <property name="Buildable" type="bool" value="true"/>
    <property name="NoSpawn" value="All"/>
    <property name="Type" value="Stone"/>
   </properties>
  </tile>
  <tile id="977">
   <properties>
    <property name="Buildable" type="bool" value="true"/>
    <property name="NoSpawn" value="All"/>
    <property name="Type" value="Stone"/>
   </properties>
  </tile>
  <tile id="978">
   <properties>
    <property name="Buildable" type="bool" value="true"/>
    <property name="NoSpawn" value="All"/>
    <property name="Type" value="Stone"/>
   </properties>
  </tile>
  <tile id="979">
   <properties>
    <property name="Buildable" type="bool" value="true"/>
    <property name="NoSpawn" value="All"/>
    <property name="Type" value="Stone"/>
   </properties>
  </tile>
  <tile id="980">
   <properties>
    <property name="Buildable" type="bool" value="true"/>
    <property name="NoSpawn" value="All"/>
    <property name="Type" value="Stone"/>
   </properties>
  </tile>
  <tile id="981">
   <properties>
    <property name="Buildable" type="bool" value="true"/>
    <property name="NoSpawn" value="All"/>
    <property name="Type" value="Stone"/>
   </properties>
  </tile>
  <tile id="982">
   <properties>
    <property name="Buildable" type="bool" value="true"/>
    <property name="NoSpawn" value="All"/>
    <property name="Type" value="Stone"/>
   </properties>
  </tile>
  <tile id="983">
   <properties>
    <property name="Buildable" type="bool" value="true"/>
    <property name="NoSpawn" value="All"/>
    <property name="Type" value="Stone"/>
   </properties>
  </tile>
  <tile id="984">
   <properties>
    <property name="Buildable" type="bool" value="true"/>
    <property name="NoSpawn" value="All"/>
    <property name="Type" value="Stone"/>
   </properties>
  </tile>
  <tile id="985">
   <properties>
    <property name="Buildable" type="bool" value="true"/>
    <property name="NoSpawn" value="All"/>
    <property name="Type" value="Stone"/>
   </properties>
  </tile>
  <tile id="986">
   <properties>
    <property name="Buildable" type="bool" value="true"/>
    <property name="NoSpawn" value="All"/>
    <property name="Type" value="Stone"/>
   </properties>
  </tile>
  <tile id="987">
   <properties>
    <property name="Buildable" type="bool" value="true"/>
    <property name="NoSpawn" value="All"/>
    <property name="Type" value="Stone"/>
   </properties>
  </tile>
  <tile id="988">
   <properties>
    <property name="Buildable" type="bool" value="true"/>
    <property name="NoSpawn" value="All"/>
    <property name="Type" value="Stone"/>
   </properties>
  </tile>
  <tile id="989">
   <properties>
    <property name="Buildable" type="bool" value="true"/>
    <property name="NoSpawn" value="All"/>
    <property name="Type" value="Stone"/>
   </properties>
  </tile>
  <tile id="990">
   <properties>
    <property name="Buildable" type="bool" value="true"/>
    <property name="NoSpawn" value="All"/>
    <property name="Type" value="Stone"/>
   </properties>
  </tile>
  <tile id="991">
   <properties>
    <property name="Buildable" type="bool" value="true"/>
    <property name="NoSpawn" value="All"/>
    <property name="Type" value="Stone"/>
   </properties>
  </tile>
  <tile id="992">
   <properties>
    <property name="Buildable" type="bool" value="true"/>
    <property name="NoSpawn" value="All"/>
    <property name="Type" value="Stone"/>
   </properties>
  </tile>
  <tile id="993">
   <properties>
    <property name="Buildable" type="bool" value="true"/>
    <property name="NoSpawn" value="All"/>
    <property name="Type" value="Stone"/>
   </properties>
  </tile>
  <tile id="994">
   <properties>
    <property name="Buildable" type="bool" value="true"/>
    <property name="NoSpawn" value="All"/>
    <property name="Type" value="Stone"/>
   </properties>
  </tile>
  <tile id="995">
   <properties>
    <property name="Buildable" type="bool" value="true"/>
    <property name="NoSpawn" value="All"/>
    <property name="Type" value="Stone"/>
   </properties>
  </tile>
  <tile id="996">
   <properties>
    <property name="Buildable" type="bool" value="true"/>
    <property name="NoSpawn" value="All"/>
    <property name="Type" value="Stone"/>
   </properties>
  </tile>
  <tile id="997">
   <properties>
    <property name="Buildable" type="bool" value="true"/>
    <property name="NoSpawn" value="All"/>
    <property name="Type" value="Stone"/>
   </properties>
  </tile>
  <tile id="998">
   <properties>
    <property name="Buildable" type="bool" value="true"/>
    <property name="NoSpawn" value="All"/>
    <property name="Type" value="Stone"/>
   </properties>
  </tile>
  <tile id="999">
   <properties>
    <property name="Buildable" type="bool" value="true"/>
    <property name="NoSpawn" value="All"/>
    <property name="Type" value="Stone"/>
   </properties>
  </tile>
  <tile id="1000">
   <properties>
    <property name="Buildable" type="bool" value="true"/>
    <property name="NoSpawn" value="All"/>
    <property name="Type" value="Stone"/>
   </properties>
  </tile>
  <tile id="1001">
   <properties>
    <property name="Buildable" type="bool" value="true"/>
    <property name="NoSpawn" value="All"/>
    <property name="Type" value="Stone"/>
   </properties>
  </tile>
  <tile id="1002">
   <properties>
    <property name="Buildable" type="bool" value="true"/>
    <property name="NoSpawn" value="All"/>
    <property name="Type" value="Stone"/>
   </properties>
  </tile>
  <tile id="1003">
   <properties>
    <property name="Buildable" type="bool" value="true"/>
    <property name="NoSpawn" value="All"/>
    <property name="Type" value="Stone"/>
   </properties>
  </tile>
  <tile id="1004">
   <properties>
    <property name="Buildable" type="bool" value="true"/>
    <property name="NoSpawn" value="All"/>
    <property name="Type" value="Stone"/>
   </properties>
  </tile>
  <tile id="1005">
   <properties>
    <property name="Buildable" type="bool" value="true"/>
    <property name="NoSpawn" value="All"/>
    <property name="Type" value="Stone"/>
   </properties>
  </tile>
  <tile id="1006">
   <properties>
    <property name="Buildable" type="bool" value="true"/>
    <property name="NoSpawn" value="All"/>
    <property name="Type" value="Stone"/>
   </properties>
  </tile>
  <tile id="1007">
   <properties>
    <property name="Buildable" type="bool" value="true"/>
    <property name="NoSpawn" value="All"/>
    <property name="Type" value="Stone"/>
   </properties>
  </tile>
  <tile id="1008">
   <properties>
    <property name="Buildable" type="bool" value="true"/>
    <property name="NoSpawn" value="All"/>
    <property name="Type" value="Stone"/>
   </properties>
  </tile>
  <tile id="1009">
   <properties>
    <property name="Buildable" type="bool" value="true"/>
    <property name="NoSpawn" value="All"/>
    <property name="Type" value="Stone"/>
   </properties>
  </tile>
  <tile id="1011">
   <properties>
    <property name="Buildable" type="bool" value="true"/>
    <property name="NoSpawn" value="All"/>
    <property name="Type" value="Stone"/>
   </properties>
  </tile>
  <tile id="1012">
   <properties>
    <property name="Buildable" type="bool" value="true"/>
    <property name="NoSpawn" value="All"/>
    <property name="Type" value="Stone"/>
   </properties>
  </tile>
  <tile id="1013">
   <properties>
    <property name="Buildable" type="bool" value="true"/>
    <property name="NoSpawn" value="All"/>
    <property name="Type" value="Stone"/>
   </properties>
  </tile>
  <tile id="1014">
   <properties>
    <property name="Buildable" type="bool" value="true"/>
    <property name="NoSpawn" value="All"/>
    <property name="Type" value="Stone"/>
   </properties>
  </tile>
  <tile id="1016">
   <properties>
    <property name="Buildable" type="bool" value="true"/>
    <property name="NoSpawn" value="All"/>
    <property name="Type" value="Stone"/>
   </properties>
  </tile>
  <tile id="1017">
   <properties>
    <property name="Buildable" type="bool" value="true"/>
    <property name="NoSpawn" value="All"/>
    <property name="Type" value="Stone"/>
   </properties>
  </tile>
  <tile id="1018">
   <properties>
    <property name="Buildable" type="bool" value="true"/>
    <property name="NoSpawn" value="All"/>
    <property name="Type" value="Stone"/>
   </properties>
  </tile>
  <tile id="1019">
   <properties>
    <property name="Buildable" type="bool" value="true"/>
    <property name="NoSpawn" value="All"/>
    <property name="Type" value="Stone"/>
   </properties>
  </tile>
  <tile id="1020">
   <properties>
    <property name="Buildable" type="bool" value="true"/>
    <property name="NoSpawn" value="All"/>
    <property name="Type" value="Stone"/>
   </properties>
  </tile>
  <tile id="1021">
   <properties>
    <property name="Buildable" type="bool" value="true"/>
    <property name="NoSpawn" value="All"/>
    <property name="Type" value="Stone"/>
   </properties>
  </tile>
  <tile id="1022">
   <properties>
    <property name="Buildable" type="bool" value="true"/>
    <property name="NoSpawn" value="All"/>
    <property name="Type" value="Stone"/>
   </properties>
  </tile>
  <tile id="1023">
   <properties>
    <property name="Buildable" type="bool" value="true"/>
    <property name="NoSpawn" value="All"/>
    <property name="Type" value="Stone"/>
   </properties>
  </tile>
  <tile id="1024">
   <properties>
    <property name="Buildable" type="bool" value="true"/>
    <property name="NoSpawn" value="All"/>
    <property name="Type" value="Stone"/>
   </properties>
  </tile>
  <tile id="1025">
   <properties>
    <property name="Buildable" type="bool" value="true"/>
    <property name="NoSpawn" value="All"/>
    <property name="Type" value="Stone"/>
   </properties>
  </tile>
  <tile id="1026">
   <properties>
    <property name="Buildable" type="bool" value="true"/>
    <property name="NoSpawn" value="All"/>
    <property name="Type" value="Stone"/>
   </properties>
  </tile>
  <tile id="1027">
   <properties>
    <property name="Buildable" type="bool" value="true"/>
    <property name="NoSpawn" value="All"/>
    <property name="Type" value="Stone"/>
   </properties>
  </tile>
  <tile id="1028">
   <properties>
    <property name="Buildable" type="bool" value="true"/>
    <property name="NoSpawn" value="All"/>
    <property name="Type" value="Stone"/>
   </properties>
  </tile>
  <tile id="1029">
   <properties>
    <property name="Buildable" type="bool" value="true"/>
    <property name="NoSpawn" value="All"/>
    <property name="Type" value="Stone"/>
   </properties>
  </tile>
  <tile id="1030">
   <properties>
    <property name="Buildable" type="bool" value="true"/>
    <property name="NoSpawn" value="All"/>
    <property name="Type" value="Stone"/>
   </properties>
  </tile>
  <tile id="1031">
   <properties>
    <property name="Buildable" type="bool" value="true"/>
    <property name="NoSpawn" value="All"/>
    <property name="Type" value="Stone"/>
   </properties>
  </tile>
  <tile id="1032">
   <properties>
    <property name="Buildable" type="bool" value="true"/>
    <property name="NoSpawn" value="All"/>
    <property name="Type" value="Stone"/>
   </properties>
  </tile>
  <tile id="1033">
   <properties>
    <property name="Buildable" type="bool" value="true"/>
    <property name="NoSpawn" value="All"/>
    <property name="Type" value="Stone"/>
   </properties>
  </tile>
  <tile id="1034">
   <properties>
    <property name="Buildable" type="bool" value="true"/>
    <property name="NoSpawn" value="All"/>
    <property name="Type" value="Stone"/>
   </properties>
  </tile>
  <tile id="1035">
   <properties>
    <property name="Buildable" type="bool" value="true"/>
    <property name="NoSpawn" value="All"/>
    <property name="Type" value="Stone"/>
   </properties>
  </tile>
  <tile id="1036">
   <properties>
    <property name="Buildable" type="bool" value="true"/>
    <property name="NoSpawn" value="All"/>
    <property name="Type" value="Stone"/>
   </properties>
  </tile>
  <tile id="1037">
   <properties>
    <property name="Buildable" type="bool" value="true"/>
    <property name="NoSpawn" value="All"/>
    <property name="Type" value="Stone"/>
   </properties>
  </tile>
  <tile id="1038">
   <properties>
    <property name="Buildable" type="bool" value="true"/>
    <property name="NoSpawn" value="All"/>
    <property name="Type" value="Stone"/>
   </properties>
  </tile>
  <tile id="1039">
   <properties>
    <property name="Buildable" type="bool" value="true"/>
    <property name="NoSpawn" value="All"/>
    <property name="Type" value="Stone"/>
   </properties>
  </tile>
  <tile id="1040">
   <properties>
    <property name="Buildable" type="bool" value="true"/>
    <property name="NoSpawn" value="All"/>
    <property name="Type" value="Stone"/>
   </properties>
  </tile>
  <tile id="1041">
   <properties>
    <property name="Buildable" type="bool" value="true"/>
    <property name="NoSpawn" value="All"/>
    <property name="Type" value="Stone"/>
   </properties>
  </tile>
  <tile id="1042">
   <properties>
    <property name="Buildable" type="bool" value="true"/>
    <property name="NoSpawn" value="All"/>
    <property name="Type" value="Stone"/>
   </properties>
  </tile>
  <tile id="1043">
   <properties>
    <property name="Buildable" type="bool" value="true"/>
    <property name="NoSpawn" value="All"/>
    <property name="Type" value="Stone"/>
   </properties>
  </tile>
  <tile id="1044">
   <properties>
    <property name="Buildable" type="bool" value="true"/>
    <property name="NoSpawn" value="All"/>
    <property name="Type" value="Stone"/>
   </properties>
  </tile>
  <tile id="1045">
   <properties>
    <property name="Buildable" type="bool" value="true"/>
    <property name="NoSpawn" value="All"/>
    <property name="Type" value="Stone"/>
   </properties>
  </tile>
  <tile id="1046">
   <properties>
    <property name="Buildable" type="bool" value="true"/>
    <property name="NoSpawn" value="All"/>
    <property name="Type" value="Stone"/>
   </properties>
  </tile>
  <tile id="1047">
   <properties>
    <property name="Buildable" type="bool" value="true"/>
    <property name="NoSpawn" value="All"/>
    <property name="Type" value="Stone"/>
   </properties>
  </tile>
  <tile id="1048">
   <properties>
    <property name="Buildable" type="bool" value="true"/>
    <property name="NoSpawn" value="All"/>
    <property name="Type" value="Stone"/>
   </properties>
  </tile>
  <tile id="1049">
   <properties>
    <property name="Buildable" type="bool" value="true"/>
    <property name="NoSpawn" value="All"/>
    <property name="Type" value="Stone"/>
   </properties>
  </tile>
  <tile id="1050">
   <properties>
    <property name="Buildable" type="bool" value="true"/>
    <property name="NoSpawn" value="All"/>
    <property name="Type" value="Stone"/>
   </properties>
  </tile>
  <tile id="1051">
   <properties>
    <property name="Buildable" type="bool" value="true"/>
    <property name="NoSpawn" value="All"/>
    <property name="Type" value="Stone"/>
   </properties>
  </tile>
  <tile id="1052">
   <properties>
    <property name="Buildable" type="bool" value="true"/>
    <property name="NoSpawn" value="All"/>
    <property name="Type" value="Stone"/>
   </properties>
  </tile>
  <tile id="1053">
   <properties>
    <property name="Buildable" type="bool" value="true"/>
    <property name="NoSpawn" value="All"/>
    <property name="Type" value="Stone"/>
   </properties>
  </tile>
  <tile id="1054">
   <properties>
    <property name="Buildable" type="bool" value="true"/>
    <property name="NoSpawn" value="All"/>
    <property name="Type" value="Stone"/>
   </properties>
  </tile>
  <tile id="1055">
   <properties>
    <property name="Buildable" type="bool" value="true"/>
    <property name="NoSpawn" value="All"/>
    <property name="Type" value="Stone"/>
   </properties>
  </tile>
  <tile id="1056">
   <properties>
    <property name="Buildable" type="bool" value="true"/>
    <property name="NoSpawn" value="All"/>
    <property name="Type" value="Stone"/>
   </properties>
  </tile>
  <tile id="1057">
   <properties>
    <property name="Buildable" type="bool" value="true"/>
    <property name="NoSpawn" value="All"/>
    <property name="Type" value="Stone"/>
   </properties>
  </tile>
  <tile id="1058">
   <properties>
    <property name="Buildable" type="bool" value="true"/>
    <property name="NoSpawn" value="All"/>
    <property name="Type" value="Stone"/>
   </properties>
  </tile>
  <tile id="1059">
   <properties>
    <property name="Buildable" type="bool" value="true"/>
    <property name="NoSpawn" value="All"/>
    <property name="Type" value="Stone"/>
   </properties>
  </tile>
  <tile id="1071">
   <properties>
    <property name="Buildable" type="bool" value="true"/>
    <property name="NoSpawn" value="All"/>
    <property name="Type" value="Stone"/>
   </properties>
  </tile>
  <tile id="1072">
   <properties>
    <property name="Buildable" type="bool" value="true"/>
    <property name="NoSpawn" value="All"/>
    <property name="Type" value="Stone"/>
   </properties>
  </tile>
  <tile id="1073">
   <properties>
    <property name="Buildable" type="bool" value="true"/>
    <property name="NoSpawn" value="All"/>
    <property name="Type" value="Stone"/>
   </properties>
  </tile>
  <tile id="1074">
   <properties>
    <property name="Buildable" type="bool" value="true"/>
    <property name="NoSpawn" value="All"/>
    <property name="Type" value="Stone"/>
   </properties>
  </tile>
  <tile id="1075">
   <properties>
    <property name="Buildable" type="bool" value="true"/>
    <property name="NoSpawn" value="All"/>
    <property name="Type" value="Stone"/>
   </properties>
  </tile>
  <tile id="1076">
   <properties>
    <property name="Buildable" type="bool" value="true"/>
    <property name="NoSpawn" value="All"/>
    <property name="Type" value="Stone"/>
   </properties>
  </tile>
  <tile id="1077">
   <properties>
    <property name="Buildable" type="bool" value="true"/>
    <property name="NoSpawn" value="All"/>
    <property name="Type" value="Stone"/>
   </properties>
  </tile>
  <tile id="1078">
   <properties>
    <property name="Buildable" type="bool" value="true"/>
    <property name="NoSpawn" value="All"/>
    <property name="Type" value="Stone"/>
   </properties>
  </tile>
  <tile id="1079">
   <properties>
    <property name="Buildable" type="bool" value="true"/>
    <property name="NoSpawn" value="All"/>
    <property name="Type" value="Stone"/>
   </properties>
  </tile>
  <tile id="1080">
   <properties>
    <property name="Buildable" type="bool" value="true"/>
    <property name="NoSpawn" value="All"/>
    <property name="Type" value="Stone"/>
   </properties>
  </tile>
  <tile id="1081">
   <properties>
    <property name="Buildable" type="bool" value="true"/>
    <property name="NoSpawn" value="All"/>
    <property name="Type" value="Stone"/>
   </properties>
  </tile>
  <tile id="1082">
   <properties>
    <property name="Buildable" type="bool" value="true"/>
    <property name="NoSpawn" value="All"/>
    <property name="Type" value="Stone"/>
   </properties>
  </tile>
  <tile id="1083">
   <properties>
    <property name="Buildable" type="bool" value="true"/>
    <property name="NoSpawn" value="All"/>
    <property name="Type" value="Stone"/>
   </properties>
  </tile>
  <tile id="1084">
   <properties>
    <property name="Buildable" type="bool" value="true"/>
    <property name="NoSpawn" value="All"/>
    <property name="Type" value="Stone"/>
   </properties>
  </tile>
  <tile id="1085">
   <properties>
    <property name="Buildable" type="bool" value="true"/>
    <property name="NoSpawn" value="All"/>
    <property name="Type" value="Stone"/>
   </properties>
  </tile>
  <tile id="1086">
   <properties>
    <property name="Buildable" type="bool" value="true"/>
    <property name="NoSpawn" value="All"/>
    <property name="Type" value="Stone"/>
   </properties>
  </tile>
  <tile id="1209">
   <animation>
    <frame tileid="1209" duration="100"/>
    <frame tileid="1210" duration="100"/>
    <frame tileid="1211" duration="100"/>
    <frame tileid="1212" duration="100"/>
    <frame tileid="1213" duration="100"/>
    <frame tileid="1214" duration="100"/>
   </animation>
  </tile>
  <tile id="1236">
   <animation>
    <frame tileid="1236" duration="100"/>
    <frame tileid="1237" duration="100"/>
    <frame tileid="1238" duration="100"/>
    <frame tileid="1239" duration="100"/>
    <frame tileid="1240" duration="100"/>
    <frame tileid="1241" duration="100"/>
   </animation>
  </tile>
  <tile id="1345">
   <properties>
    <property name="NoSpawn" value="All"/>
   </properties>
  </tile>
  <tile id="1347">
   <properties>
    <property name="NoSpawn" value="All"/>
    <property name="Type" value="Stone"/>
   </properties>
  </tile>
  <tile id="1348">
   <properties>
    <property name="NoFurniture" value="total"/>
    <property name="NoSpawn" value="All"/>
    <property name="Type" value="Wood"/>
   </properties>
  </tile>
  <tile id="1349">
   <properties>
    <property name="NoSpawn" value="All"/>
    <property name="Passable" type="bool" value="false"/>
   </properties>
  </tile>
  <tile id="1372">
   <properties>
    <property name="NoSpawn" value="All"/>
   </properties>
  </tile>
  <tile id="1374">
   <properties>
    <property name="NoSpawn" value="All"/>
    <property name="Type" value="Stone"/>
   </properties>
  </tile>
  <tile id="1375">
   <properties>
    <property name="NoFurniture" value="total"/>
    <property name="NoSpawn" value="All"/>
    <property name="Type" value="Wood"/>
   </properties>
  </tile>
  <tile id="1376">
   <properties>
    <property name="NoSpawn" value="All"/>
    <property name="Passable" type="bool" value="false"/>
   </properties>
  </tile>
 </tileset>
 <tileset firstgid="11253" name="x11 - spring_ATK_AToMS_EXaqua" tilewidth="16" tileheight="16" tilecount="1377" columns="27">
  <image source="spring_ATK_AToMS_EXaqua.png" width="432" height="816"/>
  <tile id="0">
   <properties>
    <property name="Buildable" type="bool" value="true"/>
    <property name="Type" value="Grass"/>
   </properties>
  </tile>
  <tile id="1">
   <properties>
    <property name="Buildable" type="bool" value="true"/>
    <property name="Type" value="Grass"/>
   </properties>
  </tile>
  <tile id="2">
   <properties>
    <property name="Buildable" type="bool" value="true"/>
    <property name="Type" value="Grass"/>
   </properties>
  </tile>
  <tile id="3">
   <properties>
    <property name="Buildable" type="bool" value="true"/>
    <property name="Type" value="Grass"/>
   </properties>
  </tile>
  <tile id="4">
   <properties>
    <property name="Buildable" type="bool" value="true"/>
    <property name="Type" value="Grass"/>
   </properties>
  </tile>
  <tile id="5">
   <properties>
    <property name="Buildable" type="bool" value="true"/>
    <property name="Type" value="Grass"/>
   </properties>
  </tile>
  <tile id="6">
   <properties>
    <property name="Buildable" type="bool" value="true"/>
    <property name="Type" value="Grass"/>
   </properties>
  </tile>
  <tile id="7">
   <properties>
    <property name="Buildable" type="bool" value="true"/>
    <property name="Type" value="Grass"/>
   </properties>
  </tile>
  <tile id="8">
   <properties>
    <property name="Buildable" type="bool" value="true"/>
    <property name="Type" value="Grass"/>
   </properties>
  </tile>
  <tile id="9">
   <properties>
    <property name="Buildable" type="bool" value="true"/>
    <property name="Type" value="Grass"/>
   </properties>
  </tile>
  <tile id="10">
   <properties>
    <property name="Buildable" type="bool" value="true"/>
    <property name="Type" value="Grass"/>
   </properties>
  </tile>
  <tile id="11">
   <properties>
    <property name="Buildable" type="bool" value="true"/>
    <property name="Type" value="Grass"/>
   </properties>
  </tile>
  <tile id="12">
   <properties>
    <property name="Buildable" type="bool" value="true"/>
    <property name="Type" value="Grass"/>
   </properties>
  </tile>
  <tile id="13">
   <properties>
    <property name="Buildable" type="bool" value="true"/>
    <property name="Type" value="Grass"/>
   </properties>
  </tile>
  <tile id="14">
   <properties>
    <property name="Buildable" type="bool" value="true"/>
    <property name="Type" value="Grass"/>
   </properties>
  </tile>
  <tile id="15">
   <properties>
    <property name="Type" value="Stone"/>
   </properties>
  </tile>
  <tile id="16">
   <properties>
    <property name="Type" value="Stone"/>
   </properties>
  </tile>
  <tile id="17">
   <properties>
    <property name="Type" value="Stone"/>
   </properties>
  </tile>
  <tile id="18">
   <properties>
    <property name="Type" value="Stone"/>
   </properties>
  </tile>
  <tile id="19">
   <properties>
    <property name="Type" value="Stone"/>
   </properties>
  </tile>
  <tile id="20">
   <properties>
    <property name="Water" type="bool" value="true"/>
   </properties>
  </tile>
  <tile id="21">
   <properties>
    <property name="Water" type="bool" value="true"/>
   </properties>
  </tile>
  <tile id="22">
   <properties>
    <property name="Water" type="bool" value="true"/>
   </properties>
  </tile>
  <tile id="23">
   <properties>
    <property name="Water" type="bool" value="true"/>
   </properties>
  </tile>
  <tile id="24">
   <properties>
    <property name="Water" type="bool" value="true"/>
   </properties>
  </tile>
  <tile id="25">
   <properties>
    <property name="Water" type="bool" value="true"/>
   </properties>
  </tile>
  <tile id="26">
   <properties>
    <property name="Water" type="bool" value="true"/>
   </properties>
  </tile>
  <tile id="27">
   <properties>
    <property name="Buildable" type="bool" value="true"/>
    <property name="Type" value="Grass"/>
   </properties>
  </tile>
  <tile id="28">
   <properties>
    <property name="Buildable" type="bool" value="true"/>
    <property name="Type" value="Grass"/>
   </properties>
  </tile>
  <tile id="29">
   <properties>
    <property name="Buildable" type="bool" value="true"/>
    <property name="Type" value="Grass"/>
   </properties>
  </tile>
  <tile id="30">
   <properties>
    <property name="Buildable" type="bool" value="true"/>
    <property name="Type" value="Grass"/>
   </properties>
  </tile>
  <tile id="31">
   <properties>
    <property name="Buildable" type="bool" value="true"/>
    <property name="Type" value="Grass"/>
   </properties>
  </tile>
  <tile id="32">
   <properties>
    <property name="Buildable" type="bool" value="true"/>
    <property name="Type" value="Grass"/>
   </properties>
  </tile>
  <tile id="33">
   <properties>
    <property name="Buildable" type="bool" value="true"/>
    <property name="Type" value="Grass"/>
   </properties>
  </tile>
  <tile id="34">
   <properties>
    <property name="Buildable" type="bool" value="true"/>
    <property name="Type" value="Grass"/>
   </properties>
  </tile>
  <tile id="35">
   <properties>
    <property name="Buildable" type="bool" value="true"/>
    <property name="Type" value="Grass"/>
   </properties>
  </tile>
  <tile id="36">
   <properties>
    <property name="Buildable" type="bool" value="true"/>
    <property name="Type" value="Grass"/>
   </properties>
  </tile>
  <tile id="37">
   <properties>
    <property name="Buildable" type="bool" value="true"/>
    <property name="Type" value="Grass"/>
   </properties>
  </tile>
  <tile id="38">
   <properties>
    <property name="Buildable" type="bool" value="true"/>
    <property name="Type" value="Grass"/>
   </properties>
  </tile>
  <tile id="39">
   <properties>
    <property name="Buildable" type="bool" value="true"/>
    <property name="Type" value="Grass"/>
   </properties>
  </tile>
  <tile id="40">
   <properties>
    <property name="Buildable" type="bool" value="true"/>
    <property name="Type" value="Grass"/>
   </properties>
  </tile>
  <tile id="41">
   <properties>
    <property name="Buildable" type="bool" value="true"/>
    <property name="Type" value="Grass"/>
   </properties>
  </tile>
  <tile id="42">
   <properties>
    <property name="Type" value="Stone"/>
   </properties>
  </tile>
  <tile id="43">
   <properties>
    <property name="Type" value="Stone"/>
   </properties>
  </tile>
  <tile id="44">
   <properties>
    <property name="Type" value="Stone"/>
   </properties>
  </tile>
  <tile id="45">
   <properties>
    <property name="Type" value="Stone"/>
   </properties>
  </tile>
  <tile id="46">
   <properties>
    <property name="Type" value="Stone"/>
   </properties>
  </tile>
  <tile id="47">
   <properties>
    <property name="Water" type="bool" value="true"/>
   </properties>
  </tile>
  <tile id="48">
   <properties>
    <property name="Water" type="bool" value="true"/>
   </properties>
  </tile>
  <tile id="49">
   <properties>
    <property name="Water" type="bool" value="true"/>
   </properties>
  </tile>
  <tile id="50">
   <animation>
    <frame tileid="50" duration="1000"/>
    <frame tileid="77" duration="1000"/>
   </animation>
  </tile>
  <tile id="52">
   <animation>
    <frame tileid="52" duration="1000"/>
    <frame tileid="79" duration="1000"/>
   </animation>
  </tile>
  <tile id="53">
   <animation>
    <frame tileid="53" duration="1000"/>
    <frame tileid="80" duration="1000"/>
   </animation>
  </tile>
  <tile id="54">
   <properties>
    <property name="Buildable" type="bool" value="true"/>
    <property name="Type" value="Grass"/>
   </properties>
  </tile>
  <tile id="55">
   <properties>
    <property name="Buildable" type="bool" value="true"/>
    <property name="Type" value="Grass"/>
   </properties>
  </tile>
  <tile id="56">
   <properties>
    <property name="Buildable" type="bool" value="true"/>
    <property name="Type" value="Grass"/>
   </properties>
  </tile>
  <tile id="57">
   <properties>
    <property name="Buildable" type="bool" value="true"/>
    <property name="Type" value="Grass"/>
   </properties>
  </tile>
  <tile id="58">
   <properties>
    <property name="Buildable" type="bool" value="true"/>
    <property name="Type" value="Grass"/>
   </properties>
  </tile>
  <tile id="59">
   <properties>
    <property name="Buildable" type="bool" value="true"/>
    <property name="Type" value="Grass"/>
   </properties>
  </tile>
  <tile id="60">
   <properties>
    <property name="Buildable" type="bool" value="true"/>
    <property name="Type" value="Grass"/>
   </properties>
  </tile>
  <tile id="61">
   <properties>
    <property name="Buildable" type="bool" value="true"/>
    <property name="Type" value="Grass"/>
   </properties>
  </tile>
  <tile id="62">
   <properties>
    <property name="Buildable" type="bool" value="true"/>
    <property name="Type" value="Grass"/>
   </properties>
  </tile>
  <tile id="63">
   <properties>
    <property name="Buildable" type="bool" value="true"/>
    <property name="Type" value="Grass"/>
   </properties>
  </tile>
  <tile id="64">
   <properties>
    <property name="Buildable" type="bool" value="true"/>
    <property name="Type" value="Grass"/>
   </properties>
  </tile>
  <tile id="65">
   <properties>
    <property name="Buildable" type="bool" value="true"/>
    <property name="Type" value="Grass"/>
   </properties>
  </tile>
  <tile id="66">
   <properties>
    <property name="Buildable" type="bool" value="true"/>
    <property name="Type" value="Grass"/>
   </properties>
  </tile>
  <tile id="67">
   <properties>
    <property name="Buildable" type="bool" value="true"/>
    <property name="Type" value="Grass"/>
   </properties>
  </tile>
  <tile id="68">
   <properties>
    <property name="Buildable" type="bool" value="true"/>
    <property name="Type" value="Grass"/>
   </properties>
  </tile>
  <tile id="69">
   <properties>
    <property name="Type" value="Stone"/>
   </properties>
  </tile>
  <tile id="70">
   <properties>
    <property name="Type" value="Stone"/>
   </properties>
  </tile>
  <tile id="71">
   <properties>
    <property name="Type" value="Stone"/>
   </properties>
  </tile>
  <tile id="72">
   <properties>
    <property name="Type" value="Stone"/>
   </properties>
  </tile>
  <tile id="73">
   <properties>
    <property name="Type" value="Stone"/>
   </properties>
  </tile>
  <tile id="74">
   <properties>
    <property name="Water" type="bool" value="true"/>
   </properties>
  </tile>
  <tile id="75">
   <properties>
    <property name="Water" type="bool" value="true"/>
   </properties>
  </tile>
  <tile id="76">
   <properties>
    <property name="Water" type="bool" value="true"/>
   </properties>
  </tile>
  <tile id="81">
   <properties>
    <property name="Buildable" type="bool" value="true"/>
    <property name="Type" value="Grass"/>
   </properties>
  </tile>
  <tile id="82">
   <properties>
    <property name="Buildable" type="bool" value="true"/>
    <property name="Type" value="Grass"/>
   </properties>
  </tile>
  <tile id="83">
   <properties>
    <property name="Buildable" type="bool" value="true"/>
    <property name="Type" value="Grass"/>
   </properties>
  </tile>
  <tile id="84">
   <properties>
    <property name="Buildable" type="bool" value="true"/>
    <property name="Type" value="Grass"/>
   </properties>
  </tile>
  <tile id="85">
   <properties>
    <property name="Buildable" type="bool" value="true"/>
    <property name="Type" value="Grass"/>
   </properties>
  </tile>
  <tile id="86">
   <properties>
    <property name="Buildable" type="bool" value="true"/>
    <property name="Type" value="Grass"/>
   </properties>
  </tile>
  <tile id="87">
   <properties>
    <property name="Buildable" type="bool" value="true"/>
    <property name="Type" value="Grass"/>
   </properties>
  </tile>
  <tile id="88">
   <properties>
    <property name="Buildable" type="bool" value="true"/>
    <property name="Type" value="Grass"/>
   </properties>
  </tile>
  <tile id="89">
   <properties>
    <property name="Buildable" type="bool" value="true"/>
    <property name="Type" value="Grass"/>
   </properties>
  </tile>
  <tile id="90">
   <properties>
    <property name="Buildable" type="bool" value="true"/>
    <property name="Type" value="Grass"/>
   </properties>
  </tile>
  <tile id="91">
   <properties>
    <property name="Buildable" type="bool" value="true"/>
    <property name="Type" value="Grass"/>
   </properties>
  </tile>
  <tile id="92">
   <properties>
    <property name="Buildable" type="bool" value="true"/>
    <property name="Type" value="Grass"/>
   </properties>
  </tile>
  <tile id="93">
   <properties>
    <property name="Buildable" type="bool" value="true"/>
    <property name="Type" value="Grass"/>
   </properties>
  </tile>
  <tile id="94">
   <properties>
    <property name="Buildable" type="bool" value="true"/>
    <property name="Type" value="Grass"/>
   </properties>
  </tile>
  <tile id="95">
   <properties>
    <property name="Buildable" type="bool" value="true"/>
    <property name="Type" value="Grass"/>
   </properties>
  </tile>
  <tile id="96">
   <properties>
    <property name="Type" value="Stone"/>
   </properties>
  </tile>
  <tile id="101">
   <animation>
    <frame tileid="101" duration="1000"/>
    <frame tileid="182" duration="1000"/>
   </animation>
  </tile>
  <tile id="102">
   <animation>
    <frame tileid="102" duration="1000"/>
    <frame tileid="183" duration="1000"/>
   </animation>
  </tile>
  <tile id="103">
   <animation>
    <frame tileid="103" duration="1000"/>
    <frame tileid="184" duration="1000"/>
   </animation>
  </tile>
  <tile id="104">
   <properties>
    <property name="Water" type="bool" value="true"/>
   </properties>
  </tile>
  <tile id="105">
   <properties>
    <property name="Water" type="bool" value="true"/>
   </properties>
  </tile>
  <tile id="106">
   <properties>
    <property name="Water" type="bool" value="true"/>
   </properties>
  </tile>
  <tile id="107">
   <properties>
    <property name="Water" type="bool" value="true"/>
   </properties>
  </tile>
  <tile id="108">
   <properties>
    <property name="Buildable" type="bool" value="true"/>
    <property name="Type" value="Grass"/>
   </properties>
  </tile>
  <tile id="109">
   <properties>
    <property name="Buildable" type="bool" value="true"/>
    <property name="Type" value="Grass"/>
   </properties>
  </tile>
  <tile id="110">
   <properties>
    <property name="Buildable" type="bool" value="true"/>
    <property name="Type" value="Grass"/>
   </properties>
  </tile>
  <tile id="111">
   <properties>
    <property name="Buildable" type="bool" value="true"/>
    <property name="Type" value="Grass"/>
   </properties>
  </tile>
  <tile id="112">
   <properties>
    <property name="Buildable" type="bool" value="true"/>
    <property name="Type" value="Grass"/>
   </properties>
  </tile>
  <tile id="113">
   <properties>
    <property name="Buildable" type="bool" value="true"/>
    <property name="Type" value="Grass"/>
   </properties>
  </tile>
  <tile id="114">
   <properties>
    <property name="Buildable" type="bool" value="true"/>
    <property name="Type" value="Grass"/>
   </properties>
  </tile>
  <tile id="115">
   <properties>
    <property name="Buildable" type="bool" value="true"/>
    <property name="Type" value="Grass"/>
   </properties>
  </tile>
  <tile id="116">
   <properties>
    <property name="Buildable" type="bool" value="true"/>
    <property name="Type" value="Grass"/>
   </properties>
  </tile>
  <tile id="117">
   <properties>
    <property name="Buildable" type="bool" value="true"/>
    <property name="Type" value="Grass"/>
   </properties>
  </tile>
  <tile id="118">
   <properties>
    <property name="Buildable" type="bool" value="true"/>
    <property name="Type" value="Grass"/>
   </properties>
  </tile>
  <tile id="119">
   <properties>
    <property name="Buildable" type="bool" value="true"/>
    <property name="Type" value="Grass"/>
   </properties>
  </tile>
  <tile id="120">
   <properties>
    <property name="Buildable" type="bool" value="true"/>
    <property name="Type" value="Grass"/>
   </properties>
  </tile>
  <tile id="121">
   <properties>
    <property name="Buildable" type="bool" value="true"/>
    <property name="Type" value="Grass"/>
   </properties>
  </tile>
  <tile id="122">
   <properties>
    <property name="Buildable" type="bool" value="true"/>
    <property name="Type" value="Grass"/>
   </properties>
  </tile>
  <tile id="128">
   <animation>
    <frame tileid="128" duration="1000"/>
    <frame tileid="209" duration="1000"/>
   </animation>
  </tile>
  <tile id="130">
   <animation>
    <frame tileid="130" duration="1000"/>
    <frame tileid="211" duration="1000"/>
   </animation>
  </tile>
  <tile id="131">
   <animation>
    <frame tileid="131" duration="1000"/>
    <frame tileid="158" duration="1000"/>
   </animation>
  </tile>
  <tile id="132">
   <animation>
    <frame tileid="132" duration="1000"/>
    <frame tileid="159" duration="1000"/>
   </animation>
  </tile>
  <tile id="133">
   <properties>
    <property name="Water" type="bool" value="true"/>
   </properties>
  </tile>
  <tile id="134">
   <properties>
    <property name="Water" type="bool" value="true"/>
   </properties>
  </tile>
  <tile id="135">
   <properties>
    <property name="BeachSpawn" type="bool" value="true"/>
    <property name="Buildable" type="bool" value="true"/>
    <property name="Diggable" type="bool" value="true"/>
    <property name="NoSprinklers" type="bool" value="true"/>
    <property name="Type" value="Dirt"/>
   </properties>
  </tile>
  <tile id="136">
   <properties>
    <property name="BeachSpawn" type="bool" value="true"/>
    <property name="Buildable" type="bool" value="true"/>
    <property name="Diggable" type="bool" value="true"/>
    <property name="NoSprinklers" type="bool" value="true"/>
    <property name="Type" value="Dirt"/>
   </properties>
  </tile>
  <tile id="137">
   <properties>
    <property name="BeachSpawn" type="bool" value="true"/>
    <property name="Buildable" type="bool" value="true"/>
    <property name="Diggable" type="bool" value="true"/>
    <property name="NoSprinklers" type="bool" value="true"/>
    <property name="Type" value="Dirt"/>
   </properties>
  </tile>
  <tile id="138">
   <properties>
    <property name="BeachSpawn" type="bool" value="true"/>
    <property name="Buildable" type="bool" value="true"/>
    <property name="Diggable" type="bool" value="true"/>
    <property name="NoSprinklers" type="bool" value="true"/>
    <property name="Type" value="Dirt"/>
   </properties>
  </tile>
  <tile id="139">
   <properties>
    <property name="BeachSpawn" type="bool" value="true"/>
    <property name="Buildable" type="bool" value="true"/>
    <property name="Diggable" type="bool" value="true"/>
    <property name="NoSprinklers" type="bool" value="true"/>
    <property name="Type" value="Dirt"/>
   </properties>
  </tile>
  <tile id="140">
   <properties>
    <property name="BeachSpawn" type="bool" value="true"/>
    <property name="Buildable" type="bool" value="true"/>
    <property name="Diggable" type="bool" value="true"/>
    <property name="NoSprinklers" type="bool" value="true"/>
    <property name="Type" value="Dirt"/>
   </properties>
  </tile>
  <tile id="141">
   <properties>
    <property name="BeachSpawn" type="bool" value="true"/>
    <property name="Buildable" type="bool" value="true"/>
    <property name="Diggable" type="bool" value="true"/>
    <property name="NoSprinklers" type="bool" value="true"/>
    <property name="Type" value="Dirt"/>
   </properties>
  </tile>
  <tile id="142">
   <properties>
    <property name="BeachSpawn" type="bool" value="true"/>
    <property name="Buildable" type="bool" value="true"/>
    <property name="Diggable" type="bool" value="true"/>
    <property name="NoSprinklers" type="bool" value="true"/>
    <property name="Type" value="Dirt"/>
   </properties>
  </tile>
  <tile id="143">
   <properties>
    <property name="NoSprinklers" type="bool" value="true"/>
    <property name="Passable" type="bool" value="true"/>
    <property name="Type" value="Dirt"/>
   </properties>
   <animation>
    <frame tileid="143" duration="250"/>
    <frame tileid="143" duration="250"/>
    <frame tileid="143" duration="250"/>
    <frame tileid="143" duration="250"/>
    <frame tileid="144" duration="250"/>
    <frame tileid="145" duration="250"/>
    <frame tileid="146" duration="250"/>
    <frame tileid="146" duration="250"/>
    <frame tileid="147" duration="250"/>
    <frame tileid="148" duration="250"/>
    <frame tileid="149" duration="250"/>
    <frame tileid="143" duration="250"/>
    <frame tileid="143" duration="250"/>
   </animation>
  </tile>
  <tile id="144">
   <properties>
    <property name="NoSprinklers" type="bool" value="true"/>
    <property name="Passable" type="bool" value="true"/>
    <property name="Type" value="Dirt"/>
   </properties>
  </tile>
  <tile id="145">
   <properties>
    <property name="NoSprinklers" type="bool" value="true"/>
    <property name="Passable" type="bool" value="true"/>
    <property name="Type" value="Dirt"/>
   </properties>
  </tile>
  <tile id="146">
   <properties>
    <property name="NoSprinklers" type="bool" value="true"/>
    <property name="Passable" type="bool" value="true"/>
    <property name="Type" value="Dirt"/>
   </properties>
  </tile>
  <tile id="147">
   <properties>
    <property name="NoSprinklers" type="bool" value="true"/>
    <property name="Passable" type="bool" value="true"/>
    <property name="Type" value="Dirt"/>
   </properties>
  </tile>
  <tile id="148">
   <properties>
    <property name="NoSprinklers" type="bool" value="true"/>
    <property name="Passable" type="bool" value="true"/>
    <property name="Type" value="Dirt"/>
   </properties>
  </tile>
  <tile id="149">
   <properties>
    <property name="NoSprinklers" type="bool" value="true"/>
    <property name="Passable" type="bool" value="true"/>
    <property name="Type" value="Dirt"/>
   </properties>
  </tile>
  <tile id="155">
   <animation>
    <frame tileid="155" duration="1000"/>
    <frame tileid="236" duration="1000"/>
   </animation>
  </tile>
  <tile id="157">
   <animation>
    <frame tileid="157" duration="1000"/>
    <frame tileid="238" duration="1000"/>
   </animation>
  </tile>
  <tile id="162">
   <properties>
    <property name="BeachSpawn" type="bool" value="true"/>
    <property name="Buildable" type="bool" value="true"/>
    <property name="Diggable" type="bool" value="true"/>
    <property name="NoSprinklers" type="bool" value="true"/>
    <property name="Type" value="Dirt"/>
   </properties>
  </tile>
  <tile id="163">
   <properties>
    <property name="BeachSpawn" type="bool" value="true"/>
    <property name="Buildable" type="bool" value="true"/>
    <property name="Diggable" type="bool" value="true"/>
    <property name="NoSprinklers" type="bool" value="true"/>
    <property name="Type" value="Dirt"/>
   </properties>
  </tile>
  <tile id="164">
   <properties>
    <property name="BeachSpawn" type="bool" value="true"/>
    <property name="Buildable" type="bool" value="true"/>
    <property name="Diggable" type="bool" value="true"/>
    <property name="NoSprinklers" type="bool" value="true"/>
    <property name="Type" value="Dirt"/>
   </properties>
  </tile>
  <tile id="165">
   <properties>
    <property name="BeachSpawn" type="bool" value="true"/>
    <property name="Buildable" type="bool" value="true"/>
    <property name="Diggable" type="bool" value="true"/>
    <property name="NoSprinklers" type="bool" value="true"/>
    <property name="Type" value="Dirt"/>
   </properties>
  </tile>
  <tile id="166">
   <properties>
    <property name="BeachSpawn" type="bool" value="true"/>
    <property name="Buildable" type="bool" value="true"/>
    <property name="Diggable" type="bool" value="true"/>
    <property name="NoSprinklers" type="bool" value="true"/>
    <property name="Type" value="Dirt"/>
   </properties>
  </tile>
  <tile id="167">
   <properties>
    <property name="BeachSpawn" type="bool" value="true"/>
    <property name="Buildable" type="bool" value="true"/>
    <property name="Diggable" type="bool" value="true"/>
    <property name="NoSprinklers" type="bool" value="true"/>
    <property name="Type" value="Dirt"/>
   </properties>
  </tile>
  <tile id="168">
   <properties>
    <property name="BeachSpawn" type="bool" value="true"/>
    <property name="Buildable" type="bool" value="true"/>
    <property name="Diggable" type="bool" value="true"/>
    <property name="NoSprinklers" type="bool" value="true"/>
    <property name="Type" value="Dirt"/>
   </properties>
  </tile>
  <tile id="169">
   <properties>
    <property name="BeachSpawn" type="bool" value="true"/>
    <property name="Buildable" type="bool" value="true"/>
    <property name="Diggable" type="bool" value="true"/>
    <property name="NoSprinklers" type="bool" value="true"/>
    <property name="Type" value="Dirt"/>
   </properties>
  </tile>
  <tile id="170">
   <properties>
    <property name="NoSprinklers" type="bool" value="true"/>
    <property name="Passable" type="bool" value="true"/>
    <property name="Type" value="Dirt"/>
   </properties>
   <animation>
    <frame tileid="170" duration="250"/>
    <frame tileid="170" duration="250"/>
    <frame tileid="170" duration="250"/>
    <frame tileid="170" duration="250"/>
    <frame tileid="171" duration="250"/>
    <frame tileid="172" duration="250"/>
    <frame tileid="173" duration="250"/>
    <frame tileid="173" duration="250"/>
    <frame tileid="174" duration="250"/>
    <frame tileid="175" duration="250"/>
    <frame tileid="176" duration="250"/>
    <frame tileid="170" duration="250"/>
    <frame tileid="170" duration="250"/>
   </animation>
  </tile>
  <tile id="171">
   <properties>
    <property name="NoSprinklers" type="bool" value="true"/>
    <property name="Passable" type="bool" value="true"/>
    <property name="Type" value="Dirt"/>
   </properties>
  </tile>
  <tile id="172">
   <properties>
    <property name="NoSprinklers" type="bool" value="true"/>
    <property name="Passable" type="bool" value="true"/>
    <property name="Type" value="Dirt"/>
   </properties>
  </tile>
  <tile id="173">
   <properties>
    <property name="NoSprinklers" type="bool" value="true"/>
    <property name="Passable" type="bool" value="true"/>
    <property name="Type" value="Dirt"/>
   </properties>
  </tile>
  <tile id="174">
   <properties>
    <property name="NoSprinklers" type="bool" value="true"/>
    <property name="Passable" type="bool" value="true"/>
    <property name="Type" value="Dirt"/>
   </properties>
  </tile>
  <tile id="175">
   <properties>
    <property name="NoSprinklers" type="bool" value="true"/>
    <property name="Passable" type="bool" value="true"/>
    <property name="Type" value="Dirt"/>
   </properties>
  </tile>
  <tile id="176">
   <properties>
    <property name="NoSprinklers" type="bool" value="true"/>
    <property name="Passable" type="bool" value="true"/>
    <property name="Type" value="Dirt"/>
   </properties>
  </tile>
  <tile id="178">
   <animation>
    <frame tileid="178" duration="1000"/>
    <frame tileid="179" duration="1000"/>
   </animation>
  </tile>
  <tile id="180">
   <animation>
    <frame tileid="180" duration="1000"/>
    <frame tileid="181" duration="1000"/>
   </animation>
  </tile>
  <tile id="185">
   <properties>
    <property name="Water" type="bool" value="true"/>
   </properties>
  </tile>
  <tile id="186">
   <properties>
    <property name="Water" type="bool" value="true"/>
   </properties>
  </tile>
  <tile id="187">
   <animation>
    <frame tileid="187" duration="1000"/>
    <frame tileid="214" duration="1000"/>
   </animation>
  </tile>
  <tile id="188">
   <animation>
    <frame tileid="188" duration="1000"/>
    <frame tileid="215" duration="1000"/>
   </animation>
  </tile>
  <tile id="189">
   <properties>
    <property name="BeachSpawn" type="bool" value="true"/>
    <property name="Buildable" type="bool" value="true"/>
    <property name="Diggable" type="bool" value="true"/>
    <property name="NoSprinklers" type="bool" value="true"/>
    <property name="Type" value="Dirt"/>
   </properties>
  </tile>
  <tile id="190">
   <properties>
    <property name="BeachSpawn" type="bool" value="true"/>
    <property name="Buildable" type="bool" value="true"/>
    <property name="Diggable" type="bool" value="true"/>
    <property name="NoSprinklers" type="bool" value="true"/>
    <property name="Type" value="Dirt"/>
   </properties>
  </tile>
  <tile id="191">
   <properties>
    <property name="BeachSpawn" type="bool" value="true"/>
    <property name="Buildable" type="bool" value="true"/>
    <property name="Diggable" type="bool" value="true"/>
    <property name="NoSprinklers" type="bool" value="true"/>
    <property name="Type" value="Dirt"/>
   </properties>
  </tile>
  <tile id="192">
   <properties>
    <property name="BeachSpawn" type="bool" value="true"/>
    <property name="Buildable" type="bool" value="true"/>
    <property name="Diggable" type="bool" value="true"/>
    <property name="NoSprinklers" type="bool" value="true"/>
    <property name="Type" value="Dirt"/>
   </properties>
  </tile>
  <tile id="193">
   <properties>
    <property name="BeachSpawn" type="bool" value="true"/>
    <property name="Buildable" type="bool" value="true"/>
    <property name="Diggable" type="bool" value="true"/>
    <property name="NoSprinklers" type="bool" value="true"/>
    <property name="Type" value="Dirt"/>
   </properties>
  </tile>
  <tile id="194">
   <properties>
    <property name="BeachSpawn" type="bool" value="true"/>
    <property name="Buildable" type="bool" value="true"/>
    <property name="Diggable" type="bool" value="true"/>
    <property name="NoSprinklers" type="bool" value="true"/>
    <property name="Type" value="Dirt"/>
   </properties>
  </tile>
  <tile id="195">
   <properties>
    <property name="BeachSpawn" type="bool" value="true"/>
    <property name="Buildable" type="bool" value="true"/>
    <property name="Diggable" type="bool" value="true"/>
    <property name="NoSprinklers" type="bool" value="true"/>
    <property name="Type" value="Dirt"/>
   </properties>
  </tile>
  <tile id="196">
   <properties>
    <property name="BeachSpawn" type="bool" value="true"/>
    <property name="Buildable" type="bool" value="true"/>
    <property name="Diggable" type="bool" value="true"/>
    <property name="NoSprinklers" type="bool" value="true"/>
    <property name="Type" value="Dirt"/>
   </properties>
  </tile>
  <tile id="197">
   <properties>
    <property name="NoSprinklers" type="bool" value="true"/>
    <property name="Passable" type="bool" value="true"/>
    <property name="Type" value="Dirt"/>
   </properties>
   <animation>
    <frame tileid="197" duration="250"/>
    <frame tileid="197" duration="250"/>
    <frame tileid="197" duration="250"/>
    <frame tileid="197" duration="250"/>
    <frame tileid="198" duration="250"/>
    <frame tileid="199" duration="250"/>
    <frame tileid="200" duration="250"/>
    <frame tileid="200" duration="250"/>
    <frame tileid="201" duration="250"/>
    <frame tileid="202" duration="250"/>
    <frame tileid="203" duration="250"/>
    <frame tileid="197" duration="250"/>
    <frame tileid="197" duration="250"/>
   </animation>
  </tile>
  <tile id="198">
   <properties>
    <property name="NoSprinklers" type="bool" value="true"/>
    <property name="Passable" type="bool" value="true"/>
    <property name="Type" value="Dirt"/>
   </properties>
  </tile>
  <tile id="199">
   <properties>
    <property name="NoSprinklers" type="bool" value="true"/>
    <property name="Passable" type="bool" value="true"/>
    <property name="Type" value="Dirt"/>
   </properties>
  </tile>
  <tile id="200">
   <properties>
    <property name="NoSprinklers" type="bool" value="true"/>
    <property name="Passable" type="bool" value="true"/>
    <property name="Type" value="Dirt"/>
   </properties>
  </tile>
  <tile id="201">
   <properties>
    <property name="NoSprinklers" type="bool" value="true"/>
    <property name="Passable" type="bool" value="true"/>
    <property name="Type" value="Dirt"/>
   </properties>
  </tile>
  <tile id="202">
   <properties>
    <property name="NoSprinklers" type="bool" value="true"/>
    <property name="Passable" type="bool" value="true"/>
    <property name="Type" value="Dirt"/>
   </properties>
  </tile>
  <tile id="203">
   <properties>
    <property name="NoSprinklers" type="bool" value="true"/>
    <property name="Passable" type="bool" value="true"/>
    <property name="Type" value="Dirt"/>
   </properties>
  </tile>
  <tile id="212">
   <properties>
    <property name="Water" type="bool" value="true"/>
   </properties>
  </tile>
  <tile id="216">
   <properties>
    <property name="BeachSpawn" type="bool" value="true"/>
    <property name="Buildable" type="bool" value="true"/>
    <property name="Diggable" type="bool" value="true"/>
    <property name="NoSprinklers" type="bool" value="true"/>
    <property name="Type" value="Dirt"/>
   </properties>
  </tile>
  <tile id="217">
   <properties>
    <property name="BeachSpawn" type="bool" value="true"/>
    <property name="Buildable" type="bool" value="true"/>
    <property name="Diggable" type="bool" value="true"/>
    <property name="NoSprinklers" type="bool" value="true"/>
    <property name="Type" value="Dirt"/>
   </properties>
  </tile>
  <tile id="218">
   <properties>
    <property name="BeachSpawn" type="bool" value="true"/>
    <property name="Buildable" type="bool" value="true"/>
    <property name="Diggable" type="bool" value="true"/>
    <property name="NoSprinklers" type="bool" value="true"/>
    <property name="Type" value="Dirt"/>
   </properties>
  </tile>
  <tile id="219">
   <properties>
    <property name="BeachSpawn" type="bool" value="true"/>
    <property name="Buildable" type="bool" value="true"/>
    <property name="Diggable" type="bool" value="true"/>
    <property name="NoSprinklers" type="bool" value="true"/>
    <property name="Type" value="Dirt"/>
   </properties>
  </tile>
  <tile id="220">
   <properties>
    <property name="BeachSpawn" type="bool" value="true"/>
    <property name="Buildable" type="bool" value="true"/>
    <property name="Diggable" type="bool" value="true"/>
    <property name="NoSprinklers" type="bool" value="true"/>
    <property name="Type" value="Dirt"/>
   </properties>
  </tile>
  <tile id="221">
   <properties>
    <property name="BeachSpawn" type="bool" value="true"/>
    <property name="Buildable" type="bool" value="true"/>
    <property name="Diggable" type="bool" value="true"/>
    <property name="NoSprinklers" type="bool" value="true"/>
    <property name="Type" value="Dirt"/>
   </properties>
  </tile>
  <tile id="222">
   <properties>
    <property name="BeachSpawn" type="bool" value="true"/>
    <property name="Buildable" type="bool" value="true"/>
    <property name="Diggable" type="bool" value="true"/>
    <property name="NoSprinklers" type="bool" value="true"/>
    <property name="Type" value="Dirt"/>
   </properties>
  </tile>
  <tile id="223">
   <properties>
    <property name="BeachSpawn" type="bool" value="true"/>
    <property name="Buildable" type="bool" value="true"/>
    <property name="Diggable" type="bool" value="true"/>
    <property name="NoSprinklers" type="bool" value="true"/>
    <property name="Type" value="Dirt"/>
   </properties>
  </tile>
  <tile id="224">
   <properties>
    <property name="NoSprinklers" type="bool" value="true"/>
    <property name="Passable" type="bool" value="true"/>
    <property name="Type" value="Dirt"/>
   </properties>
   <animation>
    <frame tileid="224" duration="250"/>
    <frame tileid="224" duration="250"/>
    <frame tileid="224" duration="250"/>
    <frame tileid="224" duration="250"/>
    <frame tileid="225" duration="250"/>
    <frame tileid="226" duration="250"/>
    <frame tileid="227" duration="250"/>
    <frame tileid="227" duration="250"/>
    <frame tileid="228" duration="250"/>
    <frame tileid="229" duration="250"/>
    <frame tileid="230" duration="250"/>
    <frame tileid="224" duration="250"/>
    <frame tileid="224" duration="250"/>
   </animation>
  </tile>
  <tile id="225">
   <properties>
    <property name="NoSprinklers" type="bool" value="true"/>
    <property name="Passable" type="bool" value="true"/>
    <property name="Type" value="Dirt"/>
   </properties>
  </tile>
  <tile id="226">
   <properties>
    <property name="NoSprinklers" type="bool" value="true"/>
    <property name="Passable" type="bool" value="true"/>
    <property name="Type" value="Dirt"/>
   </properties>
  </tile>
  <tile id="227">
   <properties>
    <property name="NoSprinklers" type="bool" value="true"/>
    <property name="Passable" type="bool" value="true"/>
    <property name="Type" value="Dirt"/>
   </properties>
  </tile>
  <tile id="228">
   <properties>
    <property name="NoSprinklers" type="bool" value="true"/>
    <property name="Passable" type="bool" value="true"/>
    <property name="Type" value="Dirt"/>
   </properties>
  </tile>
  <tile id="229">
   <properties>
    <property name="NoSprinklers" type="bool" value="true"/>
    <property name="Passable" type="bool" value="true"/>
    <property name="Type" value="Dirt"/>
   </properties>
  </tile>
  <tile id="230">
   <properties>
    <property name="NoSprinklers" type="bool" value="true"/>
    <property name="Passable" type="bool" value="true"/>
    <property name="Type" value="Dirt"/>
   </properties>
  </tile>
  <tile id="239">
   <properties>
    <property name="Water" type="bool" value="true"/>
   </properties>
  </tile>
  <tile id="243">
   <properties>
    <property name="BeachSpawn" type="bool" value="true"/>
    <property name="Buildable" type="bool" value="true"/>
    <property name="Diggable" type="bool" value="true"/>
    <property name="NoSprinklers" type="bool" value="true"/>
    <property name="Type" value="Dirt"/>
   </properties>
  </tile>
  <tile id="244">
   <properties>
    <property name="BeachSpawn" type="bool" value="true"/>
    <property name="Buildable" type="bool" value="true"/>
    <property name="Diggable" type="bool" value="true"/>
    <property name="NoSprinklers" type="bool" value="true"/>
    <property name="Type" value="Dirt"/>
   </properties>
  </tile>
  <tile id="245">
   <properties>
    <property name="BeachSpawn" type="bool" value="true"/>
    <property name="Buildable" type="bool" value="true"/>
    <property name="Diggable" type="bool" value="true"/>
    <property name="NoSprinklers" type="bool" value="true"/>
    <property name="Type" value="Dirt"/>
   </properties>
  </tile>
  <tile id="246">
   <properties>
    <property name="BeachSpawn" type="bool" value="true"/>
    <property name="Buildable" type="bool" value="true"/>
    <property name="Diggable" type="bool" value="true"/>
    <property name="NoSprinklers" type="bool" value="true"/>
    <property name="Type" value="Dirt"/>
   </properties>
  </tile>
  <tile id="247">
   <properties>
    <property name="BeachSpawn" type="bool" value="true"/>
    <property name="Buildable" type="bool" value="true"/>
    <property name="Diggable" type="bool" value="true"/>
    <property name="NoSprinklers" type="bool" value="true"/>
    <property name="Type" value="Dirt"/>
   </properties>
  </tile>
  <tile id="248">
   <properties>
    <property name="BeachSpawn" type="bool" value="true"/>
    <property name="Buildable" type="bool" value="true"/>
    <property name="Diggable" type="bool" value="true"/>
    <property name="NoSprinklers" type="bool" value="true"/>
    <property name="Type" value="Dirt"/>
   </properties>
  </tile>
  <tile id="249">
   <properties>
    <property name="BeachSpawn" type="bool" value="true"/>
    <property name="Buildable" type="bool" value="true"/>
    <property name="Diggable" type="bool" value="true"/>
    <property name="NoSprinklers" type="bool" value="true"/>
    <property name="Type" value="Dirt"/>
   </properties>
  </tile>
  <tile id="250">
   <properties>
    <property name="BeachSpawn" type="bool" value="true"/>
    <property name="Buildable" type="bool" value="true"/>
    <property name="Diggable" type="bool" value="true"/>
    <property name="NoSprinklers" type="bool" value="true"/>
    <property name="Type" value="Dirt"/>
   </properties>
  </tile>
  <tile id="251">
   <properties>
    <property name="NoSprinklers" type="bool" value="true"/>
    <property name="Passable" type="bool" value="true"/>
    <property name="Type" value="Dirt"/>
   </properties>
   <animation>
    <frame tileid="251" duration="250"/>
    <frame tileid="251" duration="250"/>
    <frame tileid="251" duration="250"/>
    <frame tileid="251" duration="250"/>
    <frame tileid="252" duration="250"/>
    <frame tileid="253" duration="250"/>
    <frame tileid="254" duration="250"/>
    <frame tileid="254" duration="250"/>
    <frame tileid="255" duration="250"/>
    <frame tileid="256" duration="250"/>
    <frame tileid="257" duration="250"/>
    <frame tileid="251" duration="250"/>
    <frame tileid="251" duration="250"/>
   </animation>
  </tile>
  <tile id="252">
   <properties>
    <property name="NoSprinklers" type="bool" value="true"/>
    <property name="Passable" type="bool" value="true"/>
    <property name="Type" value="Dirt"/>
   </properties>
  </tile>
  <tile id="253">
   <properties>
    <property name="NoSprinklers" type="bool" value="true"/>
    <property name="Passable" type="bool" value="true"/>
    <property name="Type" value="Dirt"/>
   </properties>
  </tile>
  <tile id="254">
   <properties>
    <property name="NoSprinklers" type="bool" value="true"/>
    <property name="Passable" type="bool" value="true"/>
    <property name="Type" value="Dirt"/>
   </properties>
  </tile>
  <tile id="255">
   <properties>
    <property name="NoSprinklers" type="bool" value="true"/>
    <property name="Passable" type="bool" value="true"/>
    <property name="Type" value="Dirt"/>
   </properties>
  </tile>
  <tile id="256">
   <properties>
    <property name="NoSprinklers" type="bool" value="true"/>
    <property name="Passable" type="bool" value="true"/>
    <property name="Type" value="Dirt"/>
   </properties>
  </tile>
  <tile id="257">
   <properties>
    <property name="NoSprinklers" type="bool" value="true"/>
    <property name="Passable" type="bool" value="true"/>
    <property name="Type" value="Dirt"/>
   </properties>
  </tile>
  <tile id="258">
   <properties>
    <property name="BeachSpawn" type="bool" value="true"/>
    <property name="Buildable" type="bool" value="true"/>
    <property name="Diggable" type="bool" value="true"/>
    <property name="NoSprinklers" type="bool" value="true"/>
    <property name="Type" value="Dirt"/>
   </properties>
  </tile>
  <tile id="259">
   <properties>
    <property name="BeachSpawn" type="bool" value="true"/>
    <property name="Buildable" type="bool" value="true"/>
    <property name="Diggable" type="bool" value="true"/>
    <property name="NoSprinklers" type="bool" value="true"/>
    <property name="Type" value="Dirt"/>
   </properties>
  </tile>
  <tile id="260">
   <properties>
    <property name="Type" value="Stone"/>
   </properties>
  </tile>
  <tile id="261">
   <properties>
    <property name="Type" value="Stone"/>
   </properties>
  </tile>
  <tile id="262">
   <properties>
    <property name="Type" value="Stone"/>
   </properties>
  </tile>
  <tile id="263">
   <properties>
    <property name="Type" value="Stone"/>
   </properties>
  </tile>
  <tile id="264">
   <properties>
    <property name="Type" value="Stone"/>
   </properties>
  </tile>
  <tile id="265">
   <properties>
    <property name="Type" value="Stone"/>
   </properties>
  </tile>
  <tile id="266">
   <properties>
    <property name="Type" value="Stone"/>
   </properties>
  </tile>
  <tile id="267">
   <properties>
    <property name="Type" value="Stone"/>
   </properties>
  </tile>
  <tile id="268">
   <properties>
    <property name="Type" value="Stone"/>
   </properties>
  </tile>
  <tile id="269">
   <properties>
    <property name="Type" value="Stone"/>
   </properties>
  </tile>
  <tile id="270">
   <properties>
    <property name="BeachSpawn" type="bool" value="true"/>
    <property name="Buildable" type="bool" value="true"/>
    <property name="Diggable" type="bool" value="true"/>
    <property name="NoSprinklers" type="bool" value="true"/>
    <property name="Type" value="Dirt"/>
   </properties>
  </tile>
  <tile id="271">
   <properties>
    <property name="BeachSpawn" type="bool" value="true"/>
    <property name="Buildable" type="bool" value="true"/>
    <property name="Diggable" type="bool" value="true"/>
    <property name="NoSprinklers" type="bool" value="true"/>
    <property name="Type" value="Dirt"/>
   </properties>
  </tile>
  <tile id="272">
   <properties>
    <property name="BeachSpawn" type="bool" value="true"/>
    <property name="Buildable" type="bool" value="true"/>
    <property name="Diggable" type="bool" value="true"/>
    <property name="NoSprinklers" type="bool" value="true"/>
    <property name="Type" value="Dirt"/>
   </properties>
  </tile>
  <tile id="273">
   <properties>
    <property name="BeachSpawn" type="bool" value="true"/>
    <property name="Buildable" type="bool" value="true"/>
    <property name="Diggable" type="bool" value="true"/>
    <property name="NoSprinklers" type="bool" value="true"/>
    <property name="Type" value="Dirt"/>
   </properties>
  </tile>
  <tile id="274">
   <properties>
    <property name="BeachSpawn" type="bool" value="true"/>
    <property name="Buildable" type="bool" value="true"/>
    <property name="Diggable" type="bool" value="true"/>
    <property name="NoSprinklers" type="bool" value="true"/>
    <property name="Type" value="Dirt"/>
   </properties>
  </tile>
  <tile id="275">
   <properties>
    <property name="BeachSpawn" type="bool" value="true"/>
    <property name="Buildable" type="bool" value="true"/>
    <property name="Diggable" type="bool" value="true"/>
    <property name="NoSprinklers" type="bool" value="true"/>
    <property name="Type" value="Dirt"/>
   </properties>
  </tile>
  <tile id="276">
   <properties>
    <property name="BeachSpawn" type="bool" value="true"/>
    <property name="Buildable" type="bool" value="true"/>
    <property name="Diggable" type="bool" value="true"/>
    <property name="NoSprinklers" type="bool" value="true"/>
    <property name="Type" value="Dirt"/>
   </properties>
  </tile>
  <tile id="277">
   <properties>
    <property name="BeachSpawn" type="bool" value="true"/>
    <property name="Buildable" type="bool" value="true"/>
    <property name="Diggable" type="bool" value="true"/>
    <property name="NoSprinklers" type="bool" value="true"/>
    <property name="Type" value="Dirt"/>
   </properties>
  </tile>
  <tile id="278">
   <properties>
    <property name="NoSprinklers" type="bool" value="true"/>
    <property name="Passable" type="bool" value="true"/>
    <property name="Type" value="Dirt"/>
   </properties>
   <animation>
    <frame tileid="278" duration="250"/>
    <frame tileid="278" duration="250"/>
    <frame tileid="278" duration="250"/>
    <frame tileid="278" duration="250"/>
    <frame tileid="279" duration="250"/>
    <frame tileid="280" duration="250"/>
    <frame tileid="281" duration="250"/>
    <frame tileid="281" duration="250"/>
    <frame tileid="282" duration="250"/>
    <frame tileid="283" duration="250"/>
    <frame tileid="284" duration="250"/>
    <frame tileid="278" duration="250"/>
    <frame tileid="278" duration="250"/>
   </animation>
  </tile>
  <tile id="279">
   <properties>
    <property name="NoSprinklers" type="bool" value="true"/>
    <property name="Passable" type="bool" value="true"/>
    <property name="Type" value="Dirt"/>
   </properties>
  </tile>
  <tile id="280">
   <properties>
    <property name="NoSprinklers" type="bool" value="true"/>
    <property name="Passable" type="bool" value="true"/>
    <property name="Type" value="Dirt"/>
   </properties>
  </tile>
  <tile id="281">
   <properties>
    <property name="NoSprinklers" type="bool" value="true"/>
    <property name="Passable" type="bool" value="true"/>
    <property name="Type" value="Dirt"/>
   </properties>
  </tile>
  <tile id="282">
   <properties>
    <property name="NoSprinklers" type="bool" value="true"/>
    <property name="Passable" type="bool" value="true"/>
    <property name="Type" value="Dirt"/>
   </properties>
  </tile>
  <tile id="283">
   <properties>
    <property name="NoSprinklers" type="bool" value="true"/>
    <property name="Passable" type="bool" value="true"/>
    <property name="Type" value="Dirt"/>
   </properties>
  </tile>
  <tile id="284">
   <properties>
    <property name="NoSprinklers" type="bool" value="true"/>
    <property name="Passable" type="bool" value="true"/>
    <property name="Type" value="Dirt"/>
   </properties>
  </tile>
  <tile id="285">
   <properties>
    <property name="BeachSpawn" type="bool" value="true"/>
    <property name="Buildable" type="bool" value="true"/>
    <property name="Diggable" type="bool" value="true"/>
    <property name="NoSprinklers" type="bool" value="true"/>
    <property name="Type" value="Dirt"/>
   </properties>
  </tile>
  <tile id="286">
   <properties>
    <property name="BeachSpawn" type="bool" value="true"/>
    <property name="Buildable" type="bool" value="true"/>
    <property name="Diggable" type="bool" value="true"/>
    <property name="NoSprinklers" type="bool" value="true"/>
    <property name="Type" value="Dirt"/>
   </properties>
  </tile>
  <tile id="287">
   <properties>
    <property name="Type" value="Stone"/>
   </properties>
  </tile>
  <tile id="288">
   <properties>
    <property name="Type" value="Stone"/>
   </properties>
  </tile>
  <tile id="289">
   <properties>
    <property name="Type" value="Stone"/>
   </properties>
  </tile>
  <tile id="290">
   <properties>
    <property name="Type" value="Stone"/>
   </properties>
  </tile>
  <tile id="291">
   <properties>
    <property name="Type" value="Stone"/>
   </properties>
  </tile>
  <tile id="292">
   <properties>
    <property name="Type" value="Stone"/>
   </properties>
  </tile>
  <tile id="293">
   <properties>
    <property name="Type" value="Stone"/>
   </properties>
  </tile>
  <tile id="294">
   <properties>
    <property name="Type" value="Stone"/>
   </properties>
  </tile>
  <tile id="295">
   <properties>
    <property name="Type" value="Stone"/>
   </properties>
  </tile>
  <tile id="296">
   <properties>
    <property name="Type" value="Stone"/>
   </properties>
  </tile>
  <tile id="297">
   <properties>
    <property name="NoSprinklers" type="bool" value="true"/>
    <property name="Passable" type="bool" value="true"/>
    <property name="Type" value="Dirt"/>
   </properties>
   <animation>
    <frame tileid="297" duration="250"/>
    <frame tileid="297" duration="250"/>
    <frame tileid="297" duration="250"/>
    <frame tileid="297" duration="250"/>
    <frame tileid="298" duration="250"/>
    <frame tileid="299" duration="250"/>
    <frame tileid="300" duration="250"/>
    <frame tileid="300" duration="250"/>
    <frame tileid="301" duration="250"/>
    <frame tileid="302" duration="250"/>
    <frame tileid="303" duration="250"/>
    <frame tileid="297" duration="250"/>
    <frame tileid="297" duration="250"/>
   </animation>
  </tile>
  <tile id="298">
   <properties>
    <property name="NoSprinklers" type="bool" value="true"/>
    <property name="Passable" type="bool" value="true"/>
    <property name="Type" value="Dirt"/>
   </properties>
  </tile>
  <tile id="299">
   <properties>
    <property name="NoSprinklers" type="bool" value="true"/>
    <property name="Passable" type="bool" value="true"/>
    <property name="Type" value="Dirt"/>
   </properties>
  </tile>
  <tile id="300">
   <properties>
    <property name="NoSprinklers" type="bool" value="true"/>
    <property name="Passable" type="bool" value="true"/>
    <property name="Type" value="Dirt"/>
   </properties>
  </tile>
  <tile id="301">
   <properties>
    <property name="NoSprinklers" type="bool" value="true"/>
    <property name="Passable" type="bool" value="true"/>
    <property name="Type" value="Dirt"/>
   </properties>
  </tile>
  <tile id="302">
   <properties>
    <property name="NoSprinklers" type="bool" value="true"/>
    <property name="Passable" type="bool" value="true"/>
    <property name="Type" value="Dirt"/>
   </properties>
  </tile>
  <tile id="303">
   <properties>
    <property name="NoSprinklers" type="bool" value="true"/>
    <property name="Passable" type="bool" value="true"/>
    <property name="Type" value="Dirt"/>
   </properties>
  </tile>
  <tile id="304">
   <properties>
    <property name="NoSprinklers" type="bool" value="true"/>
    <property name="Passable" type="bool" value="true"/>
    <property name="Type" value="Dirt"/>
   </properties>
   <animation>
    <frame tileid="304" duration="250"/>
    <frame tileid="304" duration="250"/>
    <frame tileid="304" duration="250"/>
    <frame tileid="304" duration="250"/>
    <frame tileid="305" duration="250"/>
    <frame tileid="306" duration="250"/>
    <frame tileid="307" duration="250"/>
    <frame tileid="307" duration="250"/>
    <frame tileid="308" duration="250"/>
    <frame tileid="309" duration="250"/>
    <frame tileid="310" duration="250"/>
    <frame tileid="304" duration="250"/>
    <frame tileid="304" duration="250"/>
   </animation>
  </tile>
  <tile id="305">
   <properties>
    <property name="NoSprinklers" type="bool" value="true"/>
    <property name="Passable" type="bool" value="true"/>
    <property name="Type" value="Dirt"/>
   </properties>
  </tile>
  <tile id="306">
   <properties>
    <property name="NoSprinklers" type="bool" value="true"/>
    <property name="Passable" type="bool" value="true"/>
    <property name="Type" value="Dirt"/>
   </properties>
  </tile>
  <tile id="307">
   <properties>
    <property name="NoSprinklers" type="bool" value="true"/>
    <property name="Passable" type="bool" value="true"/>
    <property name="Type" value="Dirt"/>
   </properties>
  </tile>
  <tile id="308">
   <properties>
    <property name="NoSprinklers" type="bool" value="true"/>
    <property name="Passable" type="bool" value="true"/>
    <property name="Type" value="Dirt"/>
   </properties>
  </tile>
  <tile id="309">
   <properties>
    <property name="NoSprinklers" type="bool" value="true"/>
    <property name="Passable" type="bool" value="true"/>
    <property name="Type" value="Dirt"/>
   </properties>
  </tile>
  <tile id="310">
   <properties>
    <property name="NoSprinklers" type="bool" value="true"/>
    <property name="Passable" type="bool" value="true"/>
    <property name="Type" value="Dirt"/>
   </properties>
  </tile>
  <tile id="311">
   <properties>
    <property name="BeachSpawn" type="bool" value="true"/>
    <property name="Buildable" type="bool" value="true"/>
    <property name="Diggable" type="bool" value="true"/>
    <property name="NoSprinklers" type="bool" value="true"/>
    <property name="Type" value="Dirt"/>
   </properties>
  </tile>
  <tile id="312">
   <properties>
    <property name="BeachSpawn" type="bool" value="true"/>
    <property name="Buildable" type="bool" value="true"/>
    <property name="Diggable" type="bool" value="true"/>
    <property name="NoSprinklers" type="bool" value="true"/>
    <property name="Type" value="Dirt"/>
   </properties>
  </tile>
  <tile id="313">
   <properties>
    <property name="BeachSpawn" type="bool" value="true"/>
    <property name="Buildable" type="bool" value="true"/>
    <property name="Diggable" type="bool" value="true"/>
    <property name="NoSprinklers" type="bool" value="true"/>
    <property name="Type" value="Dirt"/>
   </properties>
  </tile>
  <tile id="314">
   <properties>
    <property name="Type" value="Stone"/>
   </properties>
  </tile>
  <tile id="315">
   <properties>
    <property name="Type" value="Stone"/>
   </properties>
  </tile>
  <tile id="316">
   <properties>
    <property name="Type" value="Stone"/>
   </properties>
  </tile>
  <tile id="317">
   <properties>
    <property name="Type" value="Stone"/>
   </properties>
  </tile>
  <tile id="318">
   <properties>
    <property name="Type" value="Stone"/>
   </properties>
  </tile>
  <tile id="319">
   <properties>
    <property name="Type" value="Stone"/>
   </properties>
  </tile>
  <tile id="320">
   <properties>
    <property name="Type" value="Stone"/>
   </properties>
  </tile>
  <tile id="321">
   <properties>
    <property name="Type" value="Stone"/>
   </properties>
  </tile>
  <tile id="322">
   <properties>
    <property name="Type" value="Stone"/>
   </properties>
  </tile>
  <tile id="323">
   <properties>
    <property name="Type" value="Stone"/>
   </properties>
  </tile>
  <tile id="324">
   <properties>
    <property name="NoSprinklers" type="bool" value="true"/>
    <property name="Passable" type="bool" value="true"/>
    <property name="Type" value="Dirt"/>
   </properties>
   <animation>
    <frame tileid="324" duration="250"/>
    <frame tileid="324" duration="250"/>
    <frame tileid="324" duration="250"/>
    <frame tileid="324" duration="250"/>
    <frame tileid="325" duration="250"/>
    <frame tileid="326" duration="250"/>
    <frame tileid="327" duration="250"/>
    <frame tileid="327" duration="250"/>
    <frame tileid="328" duration="250"/>
    <frame tileid="329" duration="250"/>
    <frame tileid="330" duration="250"/>
    <frame tileid="324" duration="250"/>
    <frame tileid="324" duration="250"/>
   </animation>
  </tile>
  <tile id="325">
   <properties>
    <property name="NoSprinklers" type="bool" value="true"/>
    <property name="Passable" type="bool" value="true"/>
    <property name="Type" value="Dirt"/>
   </properties>
  </tile>
  <tile id="326">
   <properties>
    <property name="NoSprinklers" type="bool" value="true"/>
    <property name="Passable" type="bool" value="true"/>
    <property name="Type" value="Dirt"/>
   </properties>
  </tile>
  <tile id="327">
   <properties>
    <property name="NoSprinklers" type="bool" value="true"/>
    <property name="Passable" type="bool" value="true"/>
    <property name="Type" value="Dirt"/>
   </properties>
  </tile>
  <tile id="328">
   <properties>
    <property name="NoSprinklers" type="bool" value="true"/>
    <property name="Passable" type="bool" value="true"/>
    <property name="Type" value="Dirt"/>
   </properties>
  </tile>
  <tile id="329">
   <properties>
    <property name="NoSprinklers" type="bool" value="true"/>
    <property name="Passable" type="bool" value="true"/>
    <property name="Type" value="Dirt"/>
   </properties>
  </tile>
  <tile id="330">
   <properties>
    <property name="NoSprinklers" type="bool" value="true"/>
    <property name="Passable" type="bool" value="true"/>
    <property name="Type" value="Dirt"/>
   </properties>
  </tile>
  <tile id="331">
   <properties>
    <property name="NoSprinklers" type="bool" value="true"/>
    <property name="Passable" type="bool" value="true"/>
    <property name="Type" value="Dirt"/>
   </properties>
   <animation>
    <frame tileid="331" duration="250"/>
    <frame tileid="331" duration="250"/>
    <frame tileid="331" duration="250"/>
    <frame tileid="331" duration="250"/>
    <frame tileid="332" duration="250"/>
    <frame tileid="333" duration="250"/>
    <frame tileid="334" duration="250"/>
    <frame tileid="334" duration="250"/>
    <frame tileid="335" duration="250"/>
    <frame tileid="336" duration="250"/>
    <frame tileid="337" duration="250"/>
    <frame tileid="331" duration="250"/>
    <frame tileid="331" duration="250"/>
   </animation>
  </tile>
  <tile id="332">
   <properties>
    <property name="NoSprinklers" type="bool" value="true"/>
    <property name="Passable" type="bool" value="true"/>
    <property name="Type" value="Dirt"/>
   </properties>
  </tile>
  <tile id="333">
   <properties>
    <property name="NoSprinklers" type="bool" value="true"/>
    <property name="Passable" type="bool" value="true"/>
    <property name="Type" value="Dirt"/>
   </properties>
  </tile>
  <tile id="334">
   <properties>
    <property name="NoSprinklers" type="bool" value="true"/>
    <property name="Passable" type="bool" value="true"/>
    <property name="Type" value="Dirt"/>
   </properties>
  </tile>
  <tile id="335">
   <properties>
    <property name="NoSprinklers" type="bool" value="true"/>
    <property name="Passable" type="bool" value="true"/>
    <property name="Type" value="Dirt"/>
   </properties>
  </tile>
  <tile id="336">
   <properties>
    <property name="NoSprinklers" type="bool" value="true"/>
    <property name="Passable" type="bool" value="true"/>
    <property name="Type" value="Dirt"/>
   </properties>
  </tile>
  <tile id="337">
   <properties>
    <property name="NoSprinklers" type="bool" value="true"/>
    <property name="Passable" type="bool" value="true"/>
    <property name="Type" value="Dirt"/>
   </properties>
  </tile>
  <tile id="338">
   <properties>
    <property name="BeachSpawn" type="bool" value="true"/>
    <property name="Buildable" type="bool" value="true"/>
    <property name="Diggable" type="bool" value="true"/>
    <property name="NoSprinklers" type="bool" value="true"/>
    <property name="Type" value="Dirt"/>
   </properties>
  </tile>
  <tile id="339">
   <properties>
    <property name="BeachSpawn" type="bool" value="true"/>
    <property name="Buildable" type="bool" value="true"/>
    <property name="Diggable" type="bool" value="true"/>
    <property name="NoSprinklers" type="bool" value="true"/>
    <property name="Type" value="Dirt"/>
   </properties>
  </tile>
  <tile id="340">
   <properties>
    <property name="BeachSpawn" type="bool" value="true"/>
    <property name="Buildable" type="bool" value="true"/>
    <property name="Diggable" type="bool" value="true"/>
    <property name="NoSprinklers" type="bool" value="true"/>
    <property name="Type" value="Dirt"/>
   </properties>
  </tile>
  <tile id="341">
   <properties>
    <property name="Type" value="Stone"/>
   </properties>
  </tile>
  <tile id="342">
   <properties>
    <property name="Type" value="Stone"/>
   </properties>
  </tile>
  <tile id="343">
   <properties>
    <property name="Type" value="Stone"/>
   </properties>
  </tile>
  <tile id="344">
   <properties>
    <property name="Type" value="Stone"/>
   </properties>
  </tile>
  <tile id="345">
   <properties>
    <property name="Type" value="Stone"/>
   </properties>
  </tile>
  <tile id="346">
   <properties>
    <property name="Type" value="Stone"/>
   </properties>
  </tile>
  <tile id="347">
   <properties>
    <property name="Type" value="Stone"/>
   </properties>
  </tile>
  <tile id="348">
   <properties>
    <property name="Type" value="Stone"/>
   </properties>
  </tile>
  <tile id="349">
   <properties>
    <property name="Type" value="Stone"/>
   </properties>
  </tile>
  <tile id="350">
   <properties>
    <property name="Type" value="Stone"/>
   </properties>
  </tile>
  <tile id="351">
   <properties>
    <property name="NoSprinklers" type="bool" value="true"/>
    <property name="Passable" type="bool" value="true"/>
    <property name="Type" value="Dirt"/>
   </properties>
   <animation>
    <frame tileid="351" duration="250"/>
    <frame tileid="351" duration="250"/>
    <frame tileid="351" duration="250"/>
    <frame tileid="351" duration="250"/>
    <frame tileid="352" duration="250"/>
    <frame tileid="353" duration="250"/>
    <frame tileid="354" duration="250"/>
    <frame tileid="354" duration="250"/>
    <frame tileid="355" duration="250"/>
    <frame tileid="356" duration="250"/>
    <frame tileid="357" duration="250"/>
    <frame tileid="351" duration="250"/>
    <frame tileid="351" duration="250"/>
   </animation>
  </tile>
  <tile id="352">
   <properties>
    <property name="NoSprinklers" type="bool" value="true"/>
    <property name="Passable" type="bool" value="true"/>
    <property name="Type" value="Dirt"/>
   </properties>
  </tile>
  <tile id="353">
   <properties>
    <property name="NoSprinklers" type="bool" value="true"/>
    <property name="Passable" type="bool" value="true"/>
    <property name="Type" value="Dirt"/>
   </properties>
  </tile>
  <tile id="354">
   <properties>
    <property name="NoSprinklers" type="bool" value="true"/>
    <property name="Passable" type="bool" value="true"/>
    <property name="Type" value="Dirt"/>
   </properties>
  </tile>
  <tile id="355">
   <properties>
    <property name="NoSprinklers" type="bool" value="true"/>
    <property name="Passable" type="bool" value="true"/>
    <property name="Type" value="Dirt"/>
   </properties>
  </tile>
  <tile id="356">
   <properties>
    <property name="NoSprinklers" type="bool" value="true"/>
    <property name="Passable" type="bool" value="true"/>
    <property name="Type" value="Dirt"/>
   </properties>
  </tile>
  <tile id="357">
   <properties>
    <property name="NoSprinklers" type="bool" value="true"/>
    <property name="Passable" type="bool" value="true"/>
    <property name="Type" value="Dirt"/>
   </properties>
  </tile>
  <tile id="358">
   <properties>
    <property name="NoSprinklers" type="bool" value="true"/>
    <property name="Passable" type="bool" value="true"/>
    <property name="Type" value="Dirt"/>
   </properties>
   <animation>
    <frame tileid="358" duration="250"/>
    <frame tileid="358" duration="250"/>
    <frame tileid="358" duration="250"/>
    <frame tileid="358" duration="250"/>
    <frame tileid="359" duration="250"/>
    <frame tileid="360" duration="250"/>
    <frame tileid="361" duration="250"/>
    <frame tileid="361" duration="250"/>
    <frame tileid="362" duration="250"/>
    <frame tileid="363" duration="250"/>
    <frame tileid="364" duration="250"/>
    <frame tileid="358" duration="250"/>
    <frame tileid="358" duration="250"/>
   </animation>
  </tile>
  <tile id="359">
   <properties>
    <property name="NoSprinklers" type="bool" value="true"/>
    <property name="Passable" type="bool" value="true"/>
    <property name="Type" value="Dirt"/>
   </properties>
  </tile>
  <tile id="360">
   <properties>
    <property name="NoSprinklers" type="bool" value="true"/>
    <property name="Passable" type="bool" value="true"/>
    <property name="Type" value="Dirt"/>
   </properties>
  </tile>
  <tile id="361">
   <properties>
    <property name="NoSprinklers" type="bool" value="true"/>
    <property name="Passable" type="bool" value="true"/>
    <property name="Type" value="Dirt"/>
   </properties>
  </tile>
  <tile id="362">
   <properties>
    <property name="NoSprinklers" type="bool" value="true"/>
    <property name="Passable" type="bool" value="true"/>
    <property name="Type" value="Dirt"/>
   </properties>
  </tile>
  <tile id="363">
   <properties>
    <property name="NoSprinklers" type="bool" value="true"/>
    <property name="Passable" type="bool" value="true"/>
    <property name="Type" value="Dirt"/>
   </properties>
  </tile>
  <tile id="364">
   <properties>
    <property name="NoSprinklers" type="bool" value="true"/>
    <property name="Passable" type="bool" value="true"/>
    <property name="Type" value="Dirt"/>
   </properties>
  </tile>
  <tile id="365">
   <properties>
    <property name="BeachSpawn" type="bool" value="true"/>
    <property name="Buildable" type="bool" value="true"/>
    <property name="Diggable" type="bool" value="true"/>
    <property name="NoSprinklers" type="bool" value="true"/>
    <property name="Type" value="Dirt"/>
   </properties>
  </tile>
  <tile id="366">
   <properties>
    <property name="BeachSpawn" type="bool" value="true"/>
    <property name="Buildable" type="bool" value="true"/>
    <property name="Diggable" type="bool" value="true"/>
    <property name="NoSprinklers" type="bool" value="true"/>
    <property name="Type" value="Dirt"/>
   </properties>
  </tile>
  <tile id="367">
   <properties>
    <property name="BeachSpawn" type="bool" value="true"/>
    <property name="Buildable" type="bool" value="true"/>
    <property name="Diggable" type="bool" value="true"/>
    <property name="NoSprinklers" type="bool" value="true"/>
    <property name="Type" value="Dirt"/>
   </properties>
  </tile>
  <tile id="368">
   <properties>
    <property name="Type" value="Stone"/>
   </properties>
  </tile>
  <tile id="369">
   <properties>
    <property name="Type" value="Stone"/>
   </properties>
  </tile>
  <tile id="370">
   <properties>
    <property name="Type" value="Stone"/>
   </properties>
  </tile>
  <tile id="372">
   <properties>
    <property name="Type" value="Stone"/>
   </properties>
  </tile>
  <tile id="373">
   <properties>
    <property name="Type" value="Stone"/>
   </properties>
  </tile>
  <tile id="374">
   <properties>
    <property name="Type" value="Stone"/>
   </properties>
  </tile>
  <tile id="375">
   <properties>
    <property name="Type" value="Stone"/>
   </properties>
  </tile>
  <tile id="377">
   <properties>
    <property name="Type" value="Stone"/>
   </properties>
  </tile>
  <tile id="378">
   <properties>
    <property name="NoSprinklers" type="bool" value="true"/>
    <property name="Passable" type="bool" value="true"/>
    <property name="Type" value="Dirt"/>
   </properties>
   <animation>
    <frame tileid="378" duration="250"/>
    <frame tileid="378" duration="250"/>
    <frame tileid="378" duration="250"/>
    <frame tileid="378" duration="250"/>
    <frame tileid="379" duration="250"/>
    <frame tileid="380" duration="250"/>
    <frame tileid="381" duration="250"/>
    <frame tileid="381" duration="250"/>
    <frame tileid="382" duration="250"/>
    <frame tileid="383" duration="250"/>
    <frame tileid="384" duration="250"/>
    <frame tileid="378" duration="250"/>
    <frame tileid="378" duration="250"/>
   </animation>
  </tile>
  <tile id="379">
   <properties>
    <property name="NoSprinklers" type="bool" value="true"/>
    <property name="Passable" type="bool" value="true"/>
    <property name="Type" value="Dirt"/>
   </properties>
  </tile>
  <tile id="380">
   <properties>
    <property name="NoSprinklers" type="bool" value="true"/>
    <property name="Passable" type="bool" value="true"/>
    <property name="Type" value="Dirt"/>
   </properties>
  </tile>
  <tile id="381">
   <properties>
    <property name="NoSprinklers" type="bool" value="true"/>
    <property name="Passable" type="bool" value="true"/>
    <property name="Type" value="Dirt"/>
   </properties>
  </tile>
  <tile id="382">
   <properties>
    <property name="NoSprinklers" type="bool" value="true"/>
    <property name="Passable" type="bool" value="true"/>
    <property name="Type" value="Dirt"/>
   </properties>
  </tile>
  <tile id="383">
   <properties>
    <property name="NoSprinklers" type="bool" value="true"/>
    <property name="Passable" type="bool" value="true"/>
    <property name="Type" value="Dirt"/>
   </properties>
  </tile>
  <tile id="384">
   <properties>
    <property name="NoSprinklers" type="bool" value="true"/>
    <property name="Passable" type="bool" value="true"/>
    <property name="Type" value="Dirt"/>
   </properties>
  </tile>
  <tile id="385">
   <properties>
    <property name="NoSprinklers" type="bool" value="true"/>
    <property name="Passable" type="bool" value="true"/>
    <property name="Type" value="Dirt"/>
   </properties>
   <animation>
    <frame tileid="385" duration="250"/>
    <frame tileid="385" duration="250"/>
    <frame tileid="385" duration="250"/>
    <frame tileid="385" duration="250"/>
    <frame tileid="386" duration="250"/>
    <frame tileid="387" duration="250"/>
    <frame tileid="388" duration="250"/>
    <frame tileid="388" duration="250"/>
    <frame tileid="389" duration="250"/>
    <frame tileid="390" duration="250"/>
    <frame tileid="391" duration="250"/>
    <frame tileid="385" duration="250"/>
    <frame tileid="385" duration="250"/>
   </animation>
  </tile>
  <tile id="386">
   <properties>
    <property name="NoSprinklers" type="bool" value="true"/>
    <property name="Passable" type="bool" value="true"/>
    <property name="Type" value="Dirt"/>
   </properties>
  </tile>
  <tile id="387">
   <properties>
    <property name="NoSprinklers" type="bool" value="true"/>
    <property name="Passable" type="bool" value="true"/>
    <property name="Type" value="Dirt"/>
   </properties>
  </tile>
  <tile id="388">
   <properties>
    <property name="NoSprinklers" type="bool" value="true"/>
    <property name="Passable" type="bool" value="true"/>
    <property name="Type" value="Dirt"/>
   </properties>
  </tile>
  <tile id="389">
   <properties>
    <property name="NoSprinklers" type="bool" value="true"/>
    <property name="Passable" type="bool" value="true"/>
    <property name="Type" value="Dirt"/>
   </properties>
  </tile>
  <tile id="390">
   <properties>
    <property name="NoSprinklers" type="bool" value="true"/>
    <property name="Passable" type="bool" value="true"/>
    <property name="Type" value="Dirt"/>
   </properties>
  </tile>
  <tile id="391">
   <properties>
    <property name="NoSprinklers" type="bool" value="true"/>
    <property name="Passable" type="bool" value="true"/>
    <property name="Type" value="Dirt"/>
   </properties>
  </tile>
  <tile id="392">
   <properties>
    <property name="BeachSpawn" type="bool" value="true"/>
    <property name="Buildable" type="bool" value="true"/>
    <property name="Diggable" type="bool" value="true"/>
    <property name="NoSprinklers" type="bool" value="true"/>
    <property name="Type" value="Dirt"/>
   </properties>
  </tile>
  <tile id="393">
   <properties>
    <property name="BeachSpawn" type="bool" value="true"/>
    <property name="Buildable" type="bool" value="true"/>
    <property name="Diggable" type="bool" value="true"/>
    <property name="NoSprinklers" type="bool" value="true"/>
    <property name="Type" value="Dirt"/>
   </properties>
  </tile>
  <tile id="394">
   <properties>
    <property name="BeachSpawn" type="bool" value="true"/>
    <property name="Buildable" type="bool" value="true"/>
    <property name="Diggable" type="bool" value="true"/>
    <property name="NoSprinklers" type="bool" value="true"/>
    <property name="Type" value="Dirt"/>
   </properties>
  </tile>
  <tile id="395">
   <properties>
    <property name="Type" value="Stone"/>
   </properties>
  </tile>
  <tile id="396">
   <properties>
    <property name="Type" value="Stone"/>
   </properties>
  </tile>
  <tile id="397">
   <properties>
    <property name="Type" value="Stone"/>
   </properties>
  </tile>
  <tile id="398">
   <properties>
    <property name="Type" value="Stone"/>
   </properties>
  </tile>
  <tile id="399">
   <properties>
    <property name="Type" value="Stone"/>
   </properties>
  </tile>
  <tile id="400">
   <properties>
    <property name="Type" value="Stone"/>
   </properties>
  </tile>
  <tile id="401">
   <properties>
    <property name="Type" value="Stone"/>
   </properties>
  </tile>
  <tile id="402">
   <properties>
    <property name="Type" value="Stone"/>
   </properties>
  </tile>
  <tile id="403">
   <properties>
    <property name="Type" value="Stone"/>
   </properties>
  </tile>
  <tile id="404">
   <properties>
    <property name="Type" value="Stone"/>
   </properties>
  </tile>
  <tile id="405">
   <properties>
    <property name="BeachSpawn" type="bool" value="true"/>
    <property name="Buildable" type="bool" value="true"/>
    <property name="Diggable" type="bool" value="true"/>
    <property name="NoSprinklers" type="bool" value="true"/>
    <property name="Type" value="Dirt"/>
   </properties>
  </tile>
  <tile id="406">
   <properties>
    <property name="BeachSpawn" type="bool" value="true"/>
    <property name="Buildable" type="bool" value="true"/>
    <property name="Diggable" type="bool" value="true"/>
    <property name="NoSprinklers" type="bool" value="true"/>
    <property name="Type" value="Dirt"/>
   </properties>
  </tile>
  <tile id="407">
   <properties>
    <property name="BeachSpawn" type="bool" value="true"/>
    <property name="Buildable" type="bool" value="true"/>
    <property name="Diggable" type="bool" value="true"/>
    <property name="NoSprinklers" type="bool" value="true"/>
    <property name="Type" value="Dirt"/>
   </properties>
  </tile>
  <tile id="408">
   <properties>
    <property name="BeachSpawn" type="bool" value="true"/>
    <property name="Buildable" type="bool" value="true"/>
    <property name="Diggable" type="bool" value="true"/>
    <property name="NoSprinklers" type="bool" value="true"/>
    <property name="Type" value="Dirt"/>
   </properties>
  </tile>
  <tile id="409">
   <properties>
    <property name="BeachSpawn" type="bool" value="true"/>
    <property name="Buildable" type="bool" value="true"/>
    <property name="NoSprinklers" type="bool" value="true"/>
    <property name="Type" value="Stone"/>
   </properties>
  </tile>
  <tile id="410">
   <properties>
    <property name="BeachSpawn" type="bool" value="true"/>
    <property name="Buildable" type="bool" value="true"/>
    <property name="Diggable" type="bool" value="true"/>
    <property name="NoSprinklers" type="bool" value="true"/>
    <property name="Type" value="Dirt"/>
   </properties>
  </tile>
  <tile id="411">
   <properties>
    <property name="BeachSpawn" type="bool" value="true"/>
    <property name="Buildable" type="bool" value="true"/>
    <property name="Diggable" type="bool" value="true"/>
    <property name="NoSprinklers" type="bool" value="true"/>
    <property name="Type" value="Dirt"/>
   </properties>
  </tile>
  <tile id="412">
   <properties>
    <property name="BeachSpawn" type="bool" value="true"/>
    <property name="Buildable" type="bool" value="true"/>
    <property name="Diggable" type="bool" value="true"/>
    <property name="NoSprinklers" type="bool" value="true"/>
    <property name="Type" value="Dirt"/>
   </properties>
  </tile>
  <tile id="413">
   <properties>
    <property name="BeachSpawn" type="bool" value="true"/>
    <property name="Buildable" type="bool" value="true"/>
    <property name="NoSprinklers" type="bool" value="true"/>
    <property name="Type" value="Stone"/>
   </properties>
  </tile>
  <tile id="414">
   <properties>
    <property name="BeachSpawn" type="bool" value="true"/>
    <property name="Buildable" type="bool" value="true"/>
    <property name="Diggable" type="bool" value="true"/>
    <property name="NoSprinklers" type="bool" value="true"/>
    <property name="Type" value="Dirt"/>
   </properties>
  </tile>
  <tile id="415">
   <properties>
    <property name="BeachSpawn" type="bool" value="true"/>
    <property name="Buildable" type="bool" value="true"/>
    <property name="Diggable" type="bool" value="true"/>
    <property name="NoSprinklers" type="bool" value="true"/>
    <property name="Type" value="Dirt"/>
   </properties>
  </tile>
  <tile id="416">
   <properties>
    <property name="BeachSpawn" type="bool" value="true"/>
    <property name="Buildable" type="bool" value="true"/>
    <property name="Diggable" type="bool" value="true"/>
    <property name="NoSprinklers" type="bool" value="true"/>
    <property name="Type" value="Dirt"/>
   </properties>
  </tile>
  <tile id="417">
   <properties>
    <property name="BeachSpawn" type="bool" value="true"/>
    <property name="Buildable" type="bool" value="true"/>
    <property name="NoSprinklers" type="bool" value="true"/>
    <property name="Type" value="Stone"/>
   </properties>
  </tile>
  <tile id="418">
   <properties>
    <property name="BeachSpawn" type="bool" value="true"/>
    <property name="Buildable" type="bool" value="true"/>
    <property name="Diggable" type="bool" value="true"/>
    <property name="NoSprinklers" type="bool" value="true"/>
    <property name="Type" value="Dirt"/>
   </properties>
  </tile>
  <tile id="419">
   <properties>
    <property name="BeachSpawn" type="bool" value="true"/>
    <property name="Buildable" type="bool" value="true"/>
    <property name="Diggable" type="bool" value="true"/>
    <property name="NoSprinklers" type="bool" value="true"/>
    <property name="Type" value="Dirt"/>
   </properties>
  </tile>
  <tile id="420">
   <properties>
    <property name="BeachSpawn" type="bool" value="true"/>
    <property name="Buildable" type="bool" value="true"/>
    <property name="Diggable" type="bool" value="true"/>
    <property name="NoSprinklers" type="bool" value="true"/>
    <property name="Type" value="Dirt"/>
   </properties>
  </tile>
  <tile id="421">
   <properties>
    <property name="NoSprinklers" type="bool" value="true"/>
    <property name="Passable" type="bool" value="true"/>
    <property name="Type" value="Dirt"/>
   </properties>
   <animation>
    <frame tileid="421" duration="250"/>
    <frame tileid="421" duration="250"/>
    <frame tileid="421" duration="250"/>
    <frame tileid="421" duration="250"/>
    <frame tileid="448" duration="250"/>
    <frame tileid="448" duration="250"/>
    <frame tileid="475" duration="250"/>
    <frame tileid="475" duration="250"/>
    <frame tileid="448" duration="250"/>
    <frame tileid="448" duration="250"/>
    <frame tileid="421" duration="250"/>
    <frame tileid="421" duration="250"/>
    <frame tileid="421" duration="250"/>
   </animation>
  </tile>
  <tile id="422">
   <properties>
    <property name="Type" value="Stone"/>
   </properties>
  </tile>
  <tile id="423">
   <properties>
    <property name="Type" value="Stone"/>
   </properties>
  </tile>
  <tile id="424">
   <properties>
    <property name="Type" value="Stone"/>
   </properties>
  </tile>
  <tile id="425">
   <properties>
    <property name="Type" value="Stone"/>
   </properties>
  </tile>
  <tile id="426">
   <properties>
    <property name="Type" value="Stone"/>
   </properties>
  </tile>
  <tile id="427">
   <properties>
    <property name="Type" value="Stone"/>
   </properties>
  </tile>
  <tile id="428">
   <properties>
    <property name="Type" value="Stone"/>
   </properties>
  </tile>
  <tile id="429">
   <properties>
    <property name="Type" value="Stone"/>
   </properties>
  </tile>
  <tile id="431">
   <properties>
    <property name="Type" value="Stone"/>
   </properties>
  </tile>
  <tile id="432">
   <properties>
    <property name="BeachSpawn" type="bool" value="true"/>
    <property name="Buildable" type="bool" value="true"/>
    <property name="Diggable" type="bool" value="true"/>
    <property name="NoSprinklers" type="bool" value="true"/>
    <property name="Type" value="Dirt"/>
   </properties>
  </tile>
  <tile id="433">
   <properties>
    <property name="BeachSpawn" type="bool" value="true"/>
    <property name="Buildable" type="bool" value="true"/>
    <property name="Diggable" type="bool" value="true"/>
    <property name="NoSprinklers" type="bool" value="true"/>
    <property name="Type" value="Dirt"/>
   </properties>
  </tile>
  <tile id="434">
   <properties>
    <property name="BeachSpawn" type="bool" value="true"/>
    <property name="Buildable" type="bool" value="true"/>
    <property name="Diggable" type="bool" value="true"/>
    <property name="NoSprinklers" type="bool" value="true"/>
    <property name="Type" value="Dirt"/>
   </properties>
  </tile>
  <tile id="435">
   <properties>
    <property name="BeachSpawn" type="bool" value="true"/>
    <property name="Buildable" type="bool" value="true"/>
    <property name="Diggable" type="bool" value="true"/>
    <property name="NoSprinklers" type="bool" value="true"/>
    <property name="Type" value="Dirt"/>
   </properties>
  </tile>
  <tile id="436">
   <properties>
    <property name="BeachSpawn" type="bool" value="true"/>
    <property name="Buildable" type="bool" value="true"/>
    <property name="NoSprinklers" type="bool" value="true"/>
    <property name="Type" value="Stone"/>
   </properties>
  </tile>
  <tile id="437">
   <properties>
    <property name="BeachSpawn" type="bool" value="true"/>
    <property name="Buildable" type="bool" value="true"/>
    <property name="Diggable" type="bool" value="true"/>
    <property name="NoSprinklers" type="bool" value="true"/>
    <property name="Type" value="Dirt"/>
   </properties>
  </tile>
  <tile id="438">
   <properties>
    <property name="BeachSpawn" type="bool" value="true"/>
    <property name="Buildable" type="bool" value="true"/>
    <property name="Diggable" type="bool" value="true"/>
    <property name="NoSprinklers" type="bool" value="true"/>
    <property name="Type" value="Dirt"/>
   </properties>
  </tile>
  <tile id="439">
   <properties>
    <property name="BeachSpawn" type="bool" value="true"/>
    <property name="Buildable" type="bool" value="true"/>
    <property name="Diggable" type="bool" value="true"/>
    <property name="NoSprinklers" type="bool" value="true"/>
    <property name="Type" value="Dirt"/>
   </properties>
  </tile>
  <tile id="440">
   <properties>
    <property name="BeachSpawn" type="bool" value="true"/>
    <property name="Buildable" type="bool" value="true"/>
    <property name="NoSprinklers" type="bool" value="true"/>
    <property name="Type" value="Stone"/>
   </properties>
  </tile>
  <tile id="441">
   <properties>
    <property name="BeachSpawn" type="bool" value="true"/>
    <property name="Buildable" type="bool" value="true"/>
    <property name="Diggable" type="bool" value="true"/>
    <property name="NoSprinklers" type="bool" value="true"/>
    <property name="Type" value="Dirt"/>
   </properties>
  </tile>
  <tile id="442">
   <properties>
    <property name="BeachSpawn" type="bool" value="true"/>
    <property name="Buildable" type="bool" value="true"/>
    <property name="Diggable" type="bool" value="true"/>
    <property name="NoSprinklers" type="bool" value="true"/>
    <property name="Type" value="Dirt"/>
   </properties>
  </tile>
  <tile id="443">
   <properties>
    <property name="BeachSpawn" type="bool" value="true"/>
    <property name="Buildable" type="bool" value="true"/>
    <property name="Diggable" type="bool" value="true"/>
    <property name="NoSprinklers" type="bool" value="true"/>
    <property name="Type" value="Dirt"/>
   </properties>
  </tile>
  <tile id="444">
   <properties>
    <property name="BeachSpawn" type="bool" value="true"/>
    <property name="Buildable" type="bool" value="true"/>
    <property name="NoSprinklers" type="bool" value="true"/>
    <property name="Type" value="Stone"/>
   </properties>
  </tile>
  <tile id="445">
   <properties>
    <property name="BeachSpawn" type="bool" value="true"/>
    <property name="Buildable" type="bool" value="true"/>
    <property name="Diggable" type="bool" value="true"/>
    <property name="NoSprinklers" type="bool" value="true"/>
    <property name="Type" value="Dirt"/>
   </properties>
  </tile>
  <tile id="446">
   <properties>
    <property name="BeachSpawn" type="bool" value="true"/>
    <property name="Buildable" type="bool" value="true"/>
    <property name="Diggable" type="bool" value="true"/>
    <property name="NoSprinklers" type="bool" value="true"/>
    <property name="Type" value="Dirt"/>
   </properties>
  </tile>
  <tile id="447">
   <properties>
    <property name="BeachSpawn" type="bool" value="true"/>
    <property name="Buildable" type="bool" value="true"/>
    <property name="Diggable" type="bool" value="true"/>
    <property name="NoSprinklers" type="bool" value="true"/>
    <property name="Type" value="Dirt"/>
   </properties>
  </tile>
  <tile id="448">
   <properties>
    <property name="NoSprinklers" type="bool" value="true"/>
    <property name="Passable" type="bool" value="true"/>
    <property name="Type" value="Dirt"/>
   </properties>
  </tile>
  <tile id="449">
   <properties>
    <property name="Type" value="Stone"/>
   </properties>
  </tile>
  <tile id="450">
   <properties>
    <property name="Type" value="Stone"/>
   </properties>
  </tile>
  <tile id="451">
   <properties>
    <property name="Type" value="Stone"/>
   </properties>
  </tile>
  <tile id="452">
   <properties>
    <property name="Type" value="Stone"/>
   </properties>
  </tile>
  <tile id="453">
   <properties>
    <property name="Type" value="Stone"/>
   </properties>
  </tile>
  <tile id="454">
   <properties>
    <property name="Type" value="Stone"/>
   </properties>
  </tile>
  <tile id="455">
   <properties>
    <property name="Type" value="Stone"/>
   </properties>
  </tile>
  <tile id="456">
   <properties>
    <property name="Type" value="Stone"/>
   </properties>
  </tile>
  <tile id="457">
   <properties>
    <property name="Type" value="Stone"/>
   </properties>
  </tile>
  <tile id="458">
   <properties>
    <property name="Type" value="Stone"/>
   </properties>
  </tile>
  <tile id="459">
   <properties>
    <property name="BeachSpawn" type="bool" value="true"/>
    <property name="Buildable" type="bool" value="true"/>
    <property name="Diggable" type="bool" value="true"/>
    <property name="NoSprinklers" type="bool" value="true"/>
    <property name="Type" value="Dirt"/>
   </properties>
  </tile>
  <tile id="460">
   <properties>
    <property name="BeachSpawn" type="bool" value="true"/>
    <property name="Buildable" type="bool" value="true"/>
    <property name="Diggable" type="bool" value="true"/>
    <property name="NoSprinklers" type="bool" value="true"/>
    <property name="Type" value="Dirt"/>
   </properties>
  </tile>
  <tile id="461">
   <properties>
    <property name="BeachSpawn" type="bool" value="true"/>
    <property name="Buildable" type="bool" value="true"/>
    <property name="Diggable" type="bool" value="true"/>
    <property name="NoSprinklers" type="bool" value="true"/>
    <property name="Type" value="Dirt"/>
   </properties>
  </tile>
  <tile id="462">
   <properties>
    <property name="BeachSpawn" type="bool" value="true"/>
    <property name="Buildable" type="bool" value="true"/>
    <property name="Diggable" type="bool" value="true"/>
    <property name="NoSprinklers" type="bool" value="true"/>
    <property name="Type" value="Dirt"/>
   </properties>
  </tile>
  <tile id="463">
   <properties>
    <property name="BeachSpawn" type="bool" value="true"/>
    <property name="Buildable" type="bool" value="true"/>
    <property name="Diggable" type="bool" value="true"/>
    <property name="NoSprinklers" type="bool" value="true"/>
    <property name="Type" value="Dirt"/>
   </properties>
  </tile>
  <tile id="464">
   <properties>
    <property name="BeachSpawn" type="bool" value="true"/>
    <property name="Buildable" type="bool" value="true"/>
    <property name="Diggable" type="bool" value="true"/>
    <property name="NoSprinklers" type="bool" value="true"/>
    <property name="Type" value="Dirt"/>
   </properties>
  </tile>
  <tile id="465">
   <properties>
    <property name="BeachSpawn" type="bool" value="true"/>
    <property name="Buildable" type="bool" value="true"/>
    <property name="Diggable" type="bool" value="true"/>
    <property name="NoSprinklers" type="bool" value="true"/>
    <property name="Type" value="Dirt"/>
   </properties>
  </tile>
  <tile id="466">
   <properties>
    <property name="BeachSpawn" type="bool" value="true"/>
    <property name="Buildable" type="bool" value="true"/>
    <property name="Diggable" type="bool" value="true"/>
    <property name="NoSprinklers" type="bool" value="true"/>
    <property name="Type" value="Dirt"/>
   </properties>
  </tile>
  <tile id="467">
   <properties>
    <property name="NoSprinklers" type="bool" value="true"/>
    <property name="Passable" type="bool" value="true"/>
    <property name="Type" value="Dirt"/>
   </properties>
   <animation>
    <frame tileid="467" duration="250"/>
    <frame tileid="467" duration="250"/>
    <frame tileid="467" duration="250"/>
    <frame tileid="467" duration="250"/>
    <frame tileid="468" duration="250"/>
    <frame tileid="469" duration="250"/>
    <frame tileid="470" duration="250"/>
    <frame tileid="470" duration="250"/>
    <frame tileid="471" duration="250"/>
    <frame tileid="472" duration="250"/>
    <frame tileid="473" duration="250"/>
    <frame tileid="467" duration="250"/>
    <frame tileid="467" duration="250"/>
   </animation>
  </tile>
  <tile id="468">
   <properties>
    <property name="NoSprinklers" type="bool" value="true"/>
    <property name="Passable" type="bool" value="true"/>
    <property name="Type" value="Dirt"/>
   </properties>
  </tile>
  <tile id="469">
   <properties>
    <property name="NoSprinklers" type="bool" value="true"/>
    <property name="Passable" type="bool" value="true"/>
    <property name="Type" value="Dirt"/>
   </properties>
  </tile>
  <tile id="470">
   <properties>
    <property name="NoSprinklers" type="bool" value="true"/>
    <property name="Passable" type="bool" value="true"/>
    <property name="Type" value="Dirt"/>
   </properties>
  </tile>
  <tile id="471">
   <properties>
    <property name="NoSprinklers" type="bool" value="true"/>
    <property name="Passable" type="bool" value="true"/>
    <property name="Type" value="Dirt"/>
   </properties>
  </tile>
  <tile id="472">
   <properties>
    <property name="NoSprinklers" type="bool" value="true"/>
    <property name="Passable" type="bool" value="true"/>
    <property name="Type" value="Dirt"/>
   </properties>
  </tile>
  <tile id="473">
   <properties>
    <property name="NoSprinklers" type="bool" value="true"/>
    <property name="Passable" type="bool" value="true"/>
    <property name="Type" value="Dirt"/>
   </properties>
  </tile>
  <tile id="474">
   <properties>
    <property name="BeachSpawn" type="bool" value="true"/>
    <property name="Buildable" type="bool" value="true"/>
    <property name="Diggable" type="bool" value="true"/>
    <property name="NoSprinklers" type="bool" value="true"/>
   </properties>
  </tile>
  <tile id="475">
   <properties>
    <property name="NoSprinklers" type="bool" value="true"/>
    <property name="Passable" type="bool" value="true"/>
    <property name="Type" value="Dirt"/>
   </properties>
  </tile>
  <tile id="476">
   <properties>
    <property name="Type" value="Stone"/>
   </properties>
  </tile>
  <tile id="477">
   <properties>
    <property name="Type" value="Stone"/>
   </properties>
  </tile>
  <tile id="478">
   <properties>
    <property name="Type" value="Stone"/>
   </properties>
  </tile>
  <tile id="479">
   <properties>
    <property name="Type" value="Stone"/>
   </properties>
  </tile>
  <tile id="480">
   <properties>
    <property name="Type" value="Stone"/>
   </properties>
  </tile>
  <tile id="481">
   <properties>
    <property name="Type" value="Stone"/>
   </properties>
  </tile>
  <tile id="482">
   <properties>
    <property name="Type" value="Stone"/>
   </properties>
  </tile>
  <tile id="483">
   <properties>
    <property name="Type" value="Stone"/>
   </properties>
  </tile>
  <tile id="484">
   <properties>
    <property name="Type" value="Stone"/>
   </properties>
  </tile>
  <tile id="485">
   <properties>
    <property name="Type" value="Stone"/>
   </properties>
  </tile>
  <tile id="486">
   <properties>
    <property name="BeachSpawn" type="bool" value="true"/>
    <property name="Buildable" type="bool" value="true"/>
    <property name="Diggable" type="bool" value="true"/>
    <property name="NoSprinklers" type="bool" value="true"/>
    <property name="Type" value="Dirt"/>
   </properties>
  </tile>
  <tile id="487">
   <properties>
    <property name="BeachSpawn" type="bool" value="true"/>
    <property name="Buildable" type="bool" value="true"/>
    <property name="Diggable" type="bool" value="true"/>
    <property name="NoSprinklers" type="bool" value="true"/>
    <property name="Type" value="Dirt"/>
   </properties>
  </tile>
  <tile id="488">
   <properties>
    <property name="BeachSpawn" type="bool" value="true"/>
    <property name="Buildable" type="bool" value="true"/>
    <property name="Diggable" type="bool" value="true"/>
    <property name="NoSprinklers" type="bool" value="true"/>
    <property name="Type" value="Dirt"/>
   </properties>
  </tile>
  <tile id="489">
   <properties>
    <property name="BeachSpawn" type="bool" value="true"/>
    <property name="Buildable" type="bool" value="true"/>
    <property name="Diggable" type="bool" value="true"/>
    <property name="NoSprinklers" type="bool" value="true"/>
    <property name="Type" value="Dirt"/>
   </properties>
  </tile>
  <tile id="490">
   <properties>
    <property name="BeachSpawn" type="bool" value="true"/>
    <property name="Buildable" type="bool" value="true"/>
    <property name="Diggable" type="bool" value="true"/>
    <property name="NoSprinklers" type="bool" value="true"/>
    <property name="Type" value="Dirt"/>
   </properties>
  </tile>
  <tile id="491">
   <properties>
    <property name="BeachSpawn" type="bool" value="true"/>
    <property name="Buildable" type="bool" value="true"/>
    <property name="Diggable" type="bool" value="true"/>
    <property name="NoSprinklers" type="bool" value="true"/>
    <property name="Type" value="Dirt"/>
   </properties>
  </tile>
  <tile id="492">
   <properties>
    <property name="BeachSpawn" type="bool" value="true"/>
    <property name="Buildable" type="bool" value="true"/>
    <property name="Diggable" type="bool" value="true"/>
    <property name="NoSprinklers" type="bool" value="true"/>
    <property name="Type" value="Dirt"/>
   </properties>
  </tile>
  <tile id="493">
   <properties>
    <property name="BeachSpawn" type="bool" value="true"/>
    <property name="Buildable" type="bool" value="true"/>
    <property name="Diggable" type="bool" value="true"/>
    <property name="NoSprinklers" type="bool" value="true"/>
    <property name="Type" value="Dirt"/>
   </properties>
  </tile>
  <tile id="494">
   <properties>
    <property name="NoSprinklers" type="bool" value="true"/>
    <property name="Passable" type="bool" value="true"/>
    <property name="Type" value="Dirt"/>
   </properties>
   <animation>
    <frame tileid="494" duration="250"/>
    <frame tileid="494" duration="250"/>
    <frame tileid="494" duration="250"/>
    <frame tileid="494" duration="250"/>
    <frame tileid="495" duration="250"/>
    <frame tileid="496" duration="250"/>
    <frame tileid="497" duration="250"/>
    <frame tileid="497" duration="250"/>
    <frame tileid="498" duration="250"/>
    <frame tileid="499" duration="250"/>
    <frame tileid="500" duration="250"/>
    <frame tileid="494" duration="250"/>
    <frame tileid="494" duration="250"/>
   </animation>
  </tile>
  <tile id="495">
   <properties>
    <property name="NoSprinklers" type="bool" value="true"/>
    <property name="Passable" type="bool" value="true"/>
    <property name="Type" value="Dirt"/>
   </properties>
  </tile>
  <tile id="496">
   <properties>
    <property name="NoSprinklers" type="bool" value="true"/>
    <property name="Passable" type="bool" value="true"/>
    <property name="Type" value="Dirt"/>
   </properties>
  </tile>
  <tile id="497">
   <properties>
    <property name="NoSprinklers" type="bool" value="true"/>
    <property name="Passable" type="bool" value="true"/>
    <property name="Type" value="Dirt"/>
   </properties>
  </tile>
  <tile id="498">
   <properties>
    <property name="NoSprinklers" type="bool" value="true"/>
    <property name="Passable" type="bool" value="true"/>
    <property name="Type" value="Dirt"/>
   </properties>
  </tile>
  <tile id="499">
   <properties>
    <property name="NoSprinklers" type="bool" value="true"/>
    <property name="Passable" type="bool" value="true"/>
    <property name="Type" value="Dirt"/>
   </properties>
  </tile>
  <tile id="500">
   <properties>
    <property name="NoSprinklers" type="bool" value="true"/>
    <property name="Passable" type="bool" value="true"/>
    <property name="Type" value="Dirt"/>
   </properties>
  </tile>
  <tile id="501">
   <properties>
    <property name="NoSprinklers" type="bool" value="true"/>
    <property name="Passable" type="bool" value="true"/>
    <property name="Type" value="Dirt"/>
   </properties>
   <animation>
    <frame tileid="501" duration="250"/>
    <frame tileid="501" duration="250"/>
    <frame tileid="501" duration="250"/>
    <frame tileid="501" duration="250"/>
    <frame tileid="528" duration="250"/>
    <frame tileid="528" duration="250"/>
    <frame tileid="555" duration="250"/>
    <frame tileid="555" duration="250"/>
    <frame tileid="528" duration="250"/>
    <frame tileid="528" duration="250"/>
    <frame tileid="501" duration="250"/>
    <frame tileid="501" duration="250"/>
    <frame tileid="501" duration="250"/>
   </animation>
  </tile>
  <tile id="502">
   <properties>
    <property name="NoSprinklers" type="bool" value="true"/>
    <property name="Passable" type="bool" value="true"/>
    <property name="Type" value="Dirt"/>
   </properties>
   <animation>
    <frame tileid="502" duration="250"/>
    <frame tileid="502" duration="250"/>
    <frame tileid="502" duration="250"/>
    <frame tileid="502" duration="250"/>
    <frame tileid="529" duration="250"/>
    <frame tileid="529" duration="250"/>
    <frame tileid="556" duration="250"/>
    <frame tileid="556" duration="250"/>
    <frame tileid="529" duration="250"/>
    <frame tileid="529" duration="250"/>
    <frame tileid="502" duration="250"/>
    <frame tileid="502" duration="250"/>
    <frame tileid="502" duration="250"/>
   </animation>
  </tile>
  <tile id="503">
   <properties>
    <property name="Type" value="Stone"/>
   </properties>
  </tile>
  <tile id="504">
   <properties>
    <property name="Type" value="Stone"/>
   </properties>
  </tile>
  <tile id="505">
   <properties>
    <property name="Type" value="Stone"/>
   </properties>
  </tile>
  <tile id="506">
   <properties>
    <property name="Type" value="Stone"/>
   </properties>
  </tile>
  <tile id="507">
   <properties>
    <property name="Type" value="Stone"/>
   </properties>
  </tile>
  <tile id="508">
   <properties>
    <property name="Type" value="Stone"/>
   </properties>
  </tile>
  <tile id="509">
   <properties>
    <property name="Type" value="Stone"/>
   </properties>
  </tile>
  <tile id="510">
   <properties>
    <property name="Type" value="Stone"/>
   </properties>
  </tile>
  <tile id="511">
   <properties>
    <property name="Type" value="Stone"/>
   </properties>
  </tile>
  <tile id="512">
   <properties>
    <property name="Type" value="Stone"/>
   </properties>
  </tile>
  <tile id="513">
   <properties>
    <property name="BeachSpawn" type="bool" value="true"/>
    <property name="Buildable" type="bool" value="true"/>
    <property name="Diggable" type="bool" value="true"/>
    <property name="NoSprinklers" type="bool" value="true"/>
    <property name="Type" value="Dirt"/>
   </properties>
  </tile>
  <tile id="514">
   <properties>
    <property name="BeachSpawn" type="bool" value="true"/>
    <property name="Buildable" type="bool" value="true"/>
    <property name="Diggable" type="bool" value="true"/>
    <property name="NoSprinklers" type="bool" value="true"/>
    <property name="Type" value="Dirt"/>
   </properties>
  </tile>
  <tile id="515">
   <properties>
    <property name="BeachSpawn" type="bool" value="true"/>
    <property name="Buildable" type="bool" value="true"/>
    <property name="Diggable" type="bool" value="true"/>
    <property name="NoSprinklers" type="bool" value="true"/>
    <property name="Type" value="Dirt"/>
   </properties>
  </tile>
  <tile id="516">
   <properties>
    <property name="BeachSpawn" type="bool" value="true"/>
    <property name="Buildable" type="bool" value="true"/>
    <property name="Diggable" type="bool" value="true"/>
    <property name="NoSprinklers" type="bool" value="true"/>
    <property name="Type" value="Dirt"/>
   </properties>
  </tile>
  <tile id="517">
   <properties>
    <property name="BeachSpawn" type="bool" value="true"/>
    <property name="Buildable" type="bool" value="true"/>
    <property name="Diggable" type="bool" value="true"/>
    <property name="NoSprinklers" type="bool" value="true"/>
    <property name="Type" value="Dirt"/>
   </properties>
  </tile>
  <tile id="518">
   <properties>
    <property name="BeachSpawn" type="bool" value="true"/>
    <property name="Buildable" type="bool" value="true"/>
    <property name="Diggable" type="bool" value="true"/>
    <property name="NoSprinklers" type="bool" value="true"/>
    <property name="Type" value="Dirt"/>
   </properties>
  </tile>
  <tile id="519">
   <properties>
    <property name="BeachSpawn" type="bool" value="true"/>
    <property name="Buildable" type="bool" value="true"/>
    <property name="Diggable" type="bool" value="true"/>
    <property name="NoSprinklers" type="bool" value="true"/>
    <property name="Type" value="Dirt"/>
   </properties>
  </tile>
  <tile id="520">
   <properties>
    <property name="BeachSpawn" type="bool" value="true"/>
    <property name="Buildable" type="bool" value="true"/>
    <property name="Diggable" type="bool" value="true"/>
    <property name="NoSprinklers" type="bool" value="true"/>
    <property name="Type" value="Dirt"/>
   </properties>
  </tile>
  <tile id="521">
   <properties>
    <property name="NoSprinklers" type="bool" value="true"/>
    <property name="Passable" type="bool" value="true"/>
    <property name="Type" value="Dirt"/>
   </properties>
   <animation>
    <frame tileid="521" duration="250"/>
    <frame tileid="521" duration="250"/>
    <frame tileid="521" duration="250"/>
    <frame tileid="521" duration="250"/>
    <frame tileid="522" duration="250"/>
    <frame tileid="523" duration="250"/>
    <frame tileid="524" duration="250"/>
    <frame tileid="524" duration="250"/>
    <frame tileid="525" duration="250"/>
    <frame tileid="526" duration="250"/>
    <frame tileid="527" duration="250"/>
    <frame tileid="521" duration="250"/>
    <frame tileid="521" duration="250"/>
   </animation>
  </tile>
  <tile id="522">
   <properties>
    <property name="NoSprinklers" type="bool" value="true"/>
    <property name="Passable" type="bool" value="true"/>
    <property name="Type" value="Dirt"/>
   </properties>
  </tile>
  <tile id="523">
   <properties>
    <property name="NoSprinklers" type="bool" value="true"/>
    <property name="Passable" type="bool" value="true"/>
    <property name="Type" value="Dirt"/>
   </properties>
  </tile>
  <tile id="524">
   <properties>
    <property name="NoSprinklers" type="bool" value="true"/>
    <property name="Passable" type="bool" value="true"/>
    <property name="Type" value="Dirt"/>
   </properties>
  </tile>
  <tile id="525">
   <properties>
    <property name="NoSprinklers" type="bool" value="true"/>
    <property name="Passable" type="bool" value="true"/>
    <property name="Type" value="Dirt"/>
   </properties>
  </tile>
  <tile id="526">
   <properties>
    <property name="NoSprinklers" type="bool" value="true"/>
    <property name="Passable" type="bool" value="true"/>
    <property name="Type" value="Dirt"/>
   </properties>
  </tile>
  <tile id="527">
   <properties>
    <property name="NoSprinklers" type="bool" value="true"/>
    <property name="Passable" type="bool" value="true"/>
    <property name="Type" value="Dirt"/>
   </properties>
  </tile>
  <tile id="528">
   <properties>
    <property name="NoSprinklers" type="bool" value="true"/>
    <property name="Passable" type="bool" value="true"/>
    <property name="Type" value="Dirt"/>
   </properties>
  </tile>
  <tile id="529">
   <properties>
    <property name="NoSprinklers" type="bool" value="true"/>
    <property name="Passable" type="bool" value="true"/>
    <property name="Type" value="Dirt"/>
   </properties>
  </tile>
  <tile id="530">
   <properties>
    <property name="Type" value="Stone"/>
   </properties>
  </tile>
  <tile id="531">
   <properties>
    <property name="Type" value="Stone"/>
   </properties>
  </tile>
  <tile id="532">
   <properties>
    <property name="Type" value="Stone"/>
   </properties>
  </tile>
  <tile id="533">
   <properties>
    <property name="Type" value="Stone"/>
   </properties>
  </tile>
  <tile id="534">
   <properties>
    <property name="Type" value="Stone"/>
   </properties>
  </tile>
  <tile id="535">
   <properties>
    <property name="Type" value="Stone"/>
   </properties>
  </tile>
  <tile id="536">
   <properties>
    <property name="Type" value="Stone"/>
   </properties>
  </tile>
  <tile id="537">
   <properties>
    <property name="Type" value="Stone"/>
   </properties>
  </tile>
  <tile id="538">
   <properties>
    <property name="Type" value="Stone"/>
   </properties>
  </tile>
  <tile id="539">
   <properties>
    <property name="Type" value="Stone"/>
   </properties>
  </tile>
  <tile id="540">
   <properties>
    <property name="BeachSpawn" type="bool" value="true"/>
    <property name="Buildable" type="bool" value="true"/>
    <property name="Diggable" type="bool" value="true"/>
    <property name="NoSprinklers" type="bool" value="true"/>
    <property name="Type" value="Dirt"/>
   </properties>
  </tile>
  <tile id="541">
   <properties>
    <property name="BeachSpawn" type="bool" value="true"/>
    <property name="Buildable" type="bool" value="true"/>
    <property name="Diggable" type="bool" value="true"/>
    <property name="NoSprinklers" type="bool" value="true"/>
    <property name="Type" value="Dirt"/>
   </properties>
  </tile>
  <tile id="542">
   <properties>
    <property name="BeachSpawn" type="bool" value="true"/>
    <property name="Buildable" type="bool" value="true"/>
    <property name="Diggable" type="bool" value="true"/>
    <property name="NoSprinklers" type="bool" value="true"/>
    <property name="Type" value="Dirt"/>
   </properties>
  </tile>
  <tile id="543">
   <properties>
    <property name="BeachSpawn" type="bool" value="true"/>
    <property name="Buildable" type="bool" value="true"/>
    <property name="Diggable" type="bool" value="true"/>
    <property name="NoSprinklers" type="bool" value="true"/>
    <property name="Type" value="Dirt"/>
   </properties>
  </tile>
  <tile id="544">
   <properties>
    <property name="BeachSpawn" type="bool" value="true"/>
    <property name="Buildable" type="bool" value="true"/>
    <property name="Diggable" type="bool" value="true"/>
    <property name="NoSprinklers" type="bool" value="true"/>
    <property name="Type" value="Dirt"/>
   </properties>
  </tile>
  <tile id="545">
   <properties>
    <property name="BeachSpawn" type="bool" value="true"/>
    <property name="Buildable" type="bool" value="true"/>
    <property name="Diggable" type="bool" value="true"/>
    <property name="NoSprinklers" type="bool" value="true"/>
    <property name="Type" value="Dirt"/>
   </properties>
  </tile>
  <tile id="546">
   <properties>
    <property name="BeachSpawn" type="bool" value="true"/>
    <property name="Buildable" type="bool" value="true"/>
    <property name="Diggable" type="bool" value="true"/>
    <property name="NoSprinklers" type="bool" value="true"/>
    <property name="Type" value="Dirt"/>
   </properties>
  </tile>
  <tile id="547">
   <properties>
    <property name="BeachSpawn" type="bool" value="true"/>
    <property name="Buildable" type="bool" value="true"/>
    <property name="Diggable" type="bool" value="true"/>
    <property name="NoSprinklers" type="bool" value="true"/>
    <property name="Type" value="Dirt"/>
   </properties>
  </tile>
  <tile id="548">
   <properties>
    <property name="NoSprinklers" type="bool" value="true"/>
    <property name="Passable" type="bool" value="true"/>
    <property name="Type" value="Dirt"/>
   </properties>
   <animation>
    <frame tileid="548" duration="250"/>
    <frame tileid="548" duration="250"/>
    <frame tileid="548" duration="250"/>
    <frame tileid="548" duration="250"/>
    <frame tileid="549" duration="250"/>
    <frame tileid="550" duration="250"/>
    <frame tileid="551" duration="250"/>
    <frame tileid="551" duration="250"/>
    <frame tileid="552" duration="250"/>
    <frame tileid="553" duration="250"/>
    <frame tileid="554" duration="250"/>
    <frame tileid="548" duration="250"/>
    <frame tileid="548" duration="250"/>
   </animation>
  </tile>
  <tile id="549">
   <properties>
    <property name="NoSprinklers" type="bool" value="true"/>
    <property name="Passable" type="bool" value="true"/>
    <property name="Type" value="Dirt"/>
   </properties>
  </tile>
  <tile id="550">
   <properties>
    <property name="NoSprinklers" type="bool" value="true"/>
    <property name="Passable" type="bool" value="true"/>
    <property name="Type" value="Dirt"/>
   </properties>
  </tile>
  <tile id="551">
   <properties>
    <property name="NoSprinklers" type="bool" value="true"/>
    <property name="Passable" type="bool" value="true"/>
    <property name="Type" value="Dirt"/>
   </properties>
  </tile>
  <tile id="552">
   <properties>
    <property name="NoSprinklers" type="bool" value="true"/>
    <property name="Passable" type="bool" value="true"/>
    <property name="Type" value="Dirt"/>
   </properties>
  </tile>
  <tile id="553">
   <properties>
    <property name="NoSprinklers" type="bool" value="true"/>
    <property name="Passable" type="bool" value="true"/>
    <property name="Type" value="Dirt"/>
   </properties>
  </tile>
  <tile id="554">
   <properties>
    <property name="NoSprinklers" type="bool" value="true"/>
    <property name="Passable" type="bool" value="true"/>
    <property name="Type" value="Dirt"/>
   </properties>
  </tile>
  <tile id="555">
   <properties>
    <property name="NoSprinklers" type="bool" value="true"/>
    <property name="Passable" type="bool" value="true"/>
    <property name="Type" value="Dirt"/>
   </properties>
  </tile>
  <tile id="556">
   <properties>
    <property name="NoSprinklers" type="bool" value="true"/>
    <property name="Passable" type="bool" value="true"/>
    <property name="Type" value="Dirt"/>
   </properties>
  </tile>
  <tile id="557">
   <properties>
    <property name="Type" value="Stone"/>
   </properties>
  </tile>
  <tile id="558">
   <properties>
    <property name="Type" value="Stone"/>
   </properties>
  </tile>
  <tile id="559">
   <properties>
    <property name="Type" value="Stone"/>
   </properties>
  </tile>
  <tile id="561">
   <properties>
    <property name="Type" value="Stone"/>
   </properties>
  </tile>
  <tile id="562">
   <properties>
    <property name="Type" value="Stone"/>
   </properties>
  </tile>
  <tile id="563">
   <properties>
    <property name="Type" value="Stone"/>
   </properties>
  </tile>
  <tile id="564">
   <properties>
    <property name="Type" value="Stone"/>
   </properties>
  </tile>
  <tile id="566">
   <properties>
    <property name="Type" value="Stone"/>
   </properties>
  </tile>
  <tile id="567">
   <properties>
    <property name="BeachSpawn" type="bool" value="true"/>
    <property name="Buildable" type="bool" value="true"/>
    <property name="Diggable" type="bool" value="true"/>
    <property name="NoSprinklers" type="bool" value="true"/>
    <property name="Type" value="Dirt"/>
   </properties>
  </tile>
  <tile id="568">
   <properties>
    <property name="BeachSpawn" type="bool" value="true"/>
    <property name="Buildable" type="bool" value="true"/>
    <property name="Diggable" type="bool" value="true"/>
    <property name="NoSprinklers" type="bool" value="true"/>
    <property name="Type" value="Dirt"/>
   </properties>
  </tile>
  <tile id="569">
   <properties>
    <property name="BeachSpawn" type="bool" value="true"/>
    <property name="Buildable" type="bool" value="true"/>
    <property name="Diggable" type="bool" value="true"/>
    <property name="NoSprinklers" type="bool" value="true"/>
    <property name="Type" value="Dirt"/>
   </properties>
  </tile>
  <tile id="570">
   <properties>
    <property name="BeachSpawn" type="bool" value="true"/>
    <property name="Buildable" type="bool" value="true"/>
    <property name="Diggable" type="bool" value="true"/>
    <property name="NoSprinklers" type="bool" value="true"/>
    <property name="Type" value="Dirt"/>
   </properties>
  </tile>
  <tile id="571">
   <properties>
    <property name="BeachSpawn" type="bool" value="true"/>
    <property name="Buildable" type="bool" value="true"/>
    <property name="Diggable" type="bool" value="true"/>
    <property name="NoSprinklers" type="bool" value="true"/>
    <property name="Type" value="Dirt"/>
   </properties>
  </tile>
  <tile id="572">
   <properties>
    <property name="BeachSpawn" type="bool" value="true"/>
    <property name="Buildable" type="bool" value="true"/>
    <property name="Diggable" type="bool" value="true"/>
    <property name="NoSprinklers" type="bool" value="true"/>
    <property name="Type" value="Dirt"/>
   </properties>
  </tile>
  <tile id="573">
   <properties>
    <property name="BeachSpawn" type="bool" value="true"/>
    <property name="Buildable" type="bool" value="true"/>
    <property name="Diggable" type="bool" value="true"/>
    <property name="NoSprinklers" type="bool" value="true"/>
    <property name="Type" value="Dirt"/>
   </properties>
  </tile>
  <tile id="574">
   <properties>
    <property name="BeachSpawn" type="bool" value="true"/>
    <property name="Buildable" type="bool" value="true"/>
    <property name="Diggable" type="bool" value="true"/>
    <property name="NoSprinklers" type="bool" value="true"/>
    <property name="Type" value="Dirt"/>
   </properties>
  </tile>
  <tile id="575">
   <properties>
    <property name="NoSprinklers" type="bool" value="true"/>
    <property name="Passable" type="bool" value="true"/>
    <property name="Type" value="Dirt"/>
   </properties>
   <animation>
    <frame tileid="575" duration="250"/>
    <frame tileid="575" duration="250"/>
    <frame tileid="575" duration="250"/>
    <frame tileid="575" duration="250"/>
    <frame tileid="576" duration="250"/>
    <frame tileid="577" duration="250"/>
    <frame tileid="578" duration="250"/>
    <frame tileid="578" duration="250"/>
    <frame tileid="579" duration="250"/>
    <frame tileid="580" duration="250"/>
    <frame tileid="581" duration="250"/>
    <frame tileid="575" duration="250"/>
    <frame tileid="575" duration="250"/>
   </animation>
  </tile>
  <tile id="576">
   <properties>
    <property name="NoSprinklers" type="bool" value="true"/>
    <property name="Passable" type="bool" value="true"/>
    <property name="Type" value="Dirt"/>
   </properties>
  </tile>
  <tile id="577">
   <properties>
    <property name="NoSprinklers" type="bool" value="true"/>
    <property name="Passable" type="bool" value="true"/>
    <property name="Type" value="Dirt"/>
   </properties>
  </tile>
  <tile id="578">
   <properties>
    <property name="NoSprinklers" type="bool" value="true"/>
    <property name="Passable" type="bool" value="true"/>
    <property name="Type" value="Dirt"/>
   </properties>
  </tile>
  <tile id="579">
   <properties>
    <property name="NoSprinklers" type="bool" value="true"/>
    <property name="Passable" type="bool" value="true"/>
    <property name="Type" value="Dirt"/>
   </properties>
  </tile>
  <tile id="580">
   <properties>
    <property name="NoSprinklers" type="bool" value="true"/>
    <property name="Passable" type="bool" value="true"/>
    <property name="Type" value="Dirt"/>
   </properties>
  </tile>
  <tile id="581">
   <properties>
    <property name="NoSprinklers" type="bool" value="true"/>
    <property name="Passable" type="bool" value="true"/>
    <property name="Type" value="Dirt"/>
   </properties>
  </tile>
  <tile id="582">
   <properties>
    <property name="BeachSpawn" type="bool" value="true"/>
    <property name="Buildable" type="bool" value="true"/>
    <property name="Diggable" type="bool" value="true"/>
    <property name="NoSprinklers" type="bool" value="true"/>
    <property name="Type" value="Dirt"/>
   </properties>
  </tile>
  <tile id="583">
   <properties>
    <property name="BeachSpawn" type="bool" value="true"/>
    <property name="Buildable" type="bool" value="true"/>
    <property name="Diggable" type="bool" value="true"/>
    <property name="NoSprinklers" type="bool" value="true"/>
    <property name="Type" value="Dirt"/>
   </properties>
  </tile>
  <tile id="584">
   <properties>
    <property name="Type" value="Stone"/>
   </properties>
  </tile>
  <tile id="585">
   <properties>
    <property name="Type" value="Stone"/>
   </properties>
  </tile>
  <tile id="586">
   <properties>
    <property name="Type" value="Stone"/>
   </properties>
  </tile>
  <tile id="587">
   <properties>
    <property name="Type" value="Stone"/>
   </properties>
  </tile>
  <tile id="588">
   <properties>
    <property name="Type" value="Stone"/>
   </properties>
  </tile>
  <tile id="589">
   <properties>
    <property name="Type" value="Stone"/>
   </properties>
  </tile>
  <tile id="590">
   <properties>
    <property name="Type" value="Stone"/>
   </properties>
  </tile>
  <tile id="591">
   <properties>
    <property name="Type" value="Stone"/>
   </properties>
  </tile>
  <tile id="592">
   <properties>
    <property name="Type" value="Stone"/>
   </properties>
  </tile>
  <tile id="593">
   <properties>
    <property name="Type" value="Stone"/>
   </properties>
  </tile>
  <tile id="594">
   <properties>
    <property name="BeachSpawn" type="bool" value="true"/>
    <property name="Buildable" type="bool" value="true"/>
    <property name="Diggable" type="bool" value="true"/>
    <property name="NoSprinklers" type="bool" value="true"/>
    <property name="Type" value="Dirt"/>
   </properties>
  </tile>
  <tile id="595">
   <properties>
    <property name="BeachSpawn" type="bool" value="true"/>
    <property name="Buildable" type="bool" value="true"/>
    <property name="Diggable" type="bool" value="true"/>
    <property name="NoSprinklers" type="bool" value="true"/>
    <property name="Type" value="Dirt"/>
   </properties>
  </tile>
  <tile id="596">
   <properties>
    <property name="BeachSpawn" type="bool" value="true"/>
    <property name="Buildable" type="bool" value="true"/>
    <property name="Diggable" type="bool" value="true"/>
    <property name="NoSprinklers" type="bool" value="true"/>
    <property name="Type" value="Dirt"/>
   </properties>
  </tile>
  <tile id="597">
   <properties>
    <property name="BeachSpawn" type="bool" value="true"/>
    <property name="Buildable" type="bool" value="true"/>
    <property name="Diggable" type="bool" value="true"/>
    <property name="NoSprinklers" type="bool" value="true"/>
    <property name="Type" value="Dirt"/>
   </properties>
  </tile>
  <tile id="598">
   <properties>
    <property name="BeachSpawn" type="bool" value="true"/>
    <property name="Buildable" type="bool" value="true"/>
    <property name="Diggable" type="bool" value="true"/>
    <property name="NoSprinklers" type="bool" value="true"/>
    <property name="Type" value="Dirt"/>
   </properties>
  </tile>
  <tile id="599">
   <properties>
    <property name="BeachSpawn" type="bool" value="true"/>
    <property name="Buildable" type="bool" value="true"/>
    <property name="Diggable" type="bool" value="true"/>
    <property name="NoSprinklers" type="bool" value="true"/>
    <property name="Type" value="Dirt"/>
   </properties>
  </tile>
  <tile id="600">
   <properties>
    <property name="BeachSpawn" type="bool" value="true"/>
    <property name="Buildable" type="bool" value="true"/>
    <property name="Diggable" type="bool" value="true"/>
    <property name="NoSprinklers" type="bool" value="true"/>
    <property name="Type" value="Dirt"/>
   </properties>
  </tile>
  <tile id="601">
   <properties>
    <property name="BeachSpawn" type="bool" value="true"/>
    <property name="Buildable" type="bool" value="true"/>
    <property name="Diggable" type="bool" value="true"/>
    <property name="NoSprinklers" type="bool" value="true"/>
    <property name="Type" value="Dirt"/>
   </properties>
  </tile>
  <tile id="602">
   <properties>
    <property name="NoSprinklers" type="bool" value="true"/>
    <property name="Passable" type="bool" value="true"/>
    <property name="Type" value="Dirt"/>
   </properties>
   <animation>
    <frame tileid="602" duration="250"/>
    <frame tileid="602" duration="250"/>
    <frame tileid="602" duration="250"/>
    <frame tileid="602" duration="250"/>
    <frame tileid="603" duration="250"/>
    <frame tileid="604" duration="250"/>
    <frame tileid="605" duration="250"/>
    <frame tileid="605" duration="250"/>
    <frame tileid="606" duration="250"/>
    <frame tileid="607" duration="250"/>
    <frame tileid="608" duration="250"/>
    <frame tileid="602" duration="250"/>
    <frame tileid="602" duration="250"/>
   </animation>
  </tile>
  <tile id="603">
   <properties>
    <property name="NoSprinklers" type="bool" value="true"/>
    <property name="Passable" type="bool" value="true"/>
    <property name="Type" value="Dirt"/>
   </properties>
  </tile>
  <tile id="604">
   <properties>
    <property name="NoSprinklers" type="bool" value="true"/>
    <property name="Passable" type="bool" value="true"/>
    <property name="Type" value="Dirt"/>
   </properties>
  </tile>
  <tile id="605">
   <properties>
    <property name="NoSprinklers" type="bool" value="true"/>
    <property name="Passable" type="bool" value="true"/>
    <property name="Type" value="Dirt"/>
   </properties>
  </tile>
  <tile id="606">
   <properties>
    <property name="NoSprinklers" type="bool" value="true"/>
    <property name="Passable" type="bool" value="true"/>
    <property name="Type" value="Dirt"/>
   </properties>
  </tile>
  <tile id="607">
   <properties>
    <property name="NoSprinklers" type="bool" value="true"/>
    <property name="Passable" type="bool" value="true"/>
    <property name="Type" value="Dirt"/>
   </properties>
  </tile>
  <tile id="608">
   <properties>
    <property name="NoSprinklers" type="bool" value="true"/>
    <property name="Passable" type="bool" value="true"/>
    <property name="Type" value="Dirt"/>
   </properties>
  </tile>
  <tile id="609">
   <properties>
    <property name="BeachSpawn" type="bool" value="true"/>
    <property name="Buildable" type="bool" value="true"/>
    <property name="Diggable" type="bool" value="true"/>
    <property name="NoSprinklers" type="bool" value="true"/>
    <property name="Type" value="Dirt"/>
   </properties>
  </tile>
  <tile id="610">
   <properties>
    <property name="BeachSpawn" type="bool" value="true"/>
    <property name="Buildable" type="bool" value="true"/>
    <property name="Diggable" type="bool" value="true"/>
    <property name="NoSprinklers" type="bool" value="true"/>
    <property name="Type" value="Dirt"/>
   </properties>
  </tile>
  <tile id="611">
   <properties>
    <property name="Type" value="Stone"/>
   </properties>
  </tile>
  <tile id="612">
   <properties>
    <property name="Type" value="Stone"/>
   </properties>
  </tile>
  <tile id="616">
   <properties>
    <property name="Type" value="Stone"/>
   </properties>
  </tile>
  <tile id="617">
   <properties>
    <property name="Type" value="Stone"/>
   </properties>
  </tile>
  <tile id="621">
   <properties>
    <property name="NoSprinklers" type="bool" value="true"/>
    <property name="Passable" type="bool" value="true"/>
    <property name="Type" value="Dirt"/>
   </properties>
   <animation>
    <frame tileid="621" duration="250"/>
    <frame tileid="621" duration="250"/>
    <frame tileid="621" duration="250"/>
    <frame tileid="621" duration="250"/>
    <frame tileid="622" duration="250"/>
    <frame tileid="623" duration="250"/>
    <frame tileid="624" duration="250"/>
    <frame tileid="624" duration="250"/>
    <frame tileid="625" duration="250"/>
    <frame tileid="626" duration="250"/>
    <frame tileid="627" duration="250"/>
    <frame tileid="621" duration="250"/>
    <frame tileid="621" duration="250"/>
   </animation>
  </tile>
  <tile id="622">
   <properties>
    <property name="NoSprinklers" type="bool" value="true"/>
    <property name="Passable" type="bool" value="true"/>
    <property name="Type" value="Dirt"/>
   </properties>
  </tile>
  <tile id="623">
   <properties>
    <property name="NoSprinklers" type="bool" value="true"/>
    <property name="Passable" type="bool" value="true"/>
    <property name="Type" value="Dirt"/>
   </properties>
  </tile>
  <tile id="624">
   <properties>
    <property name="NoSprinklers" type="bool" value="true"/>
    <property name="Passable" type="bool" value="true"/>
    <property name="Type" value="Dirt"/>
   </properties>
  </tile>
  <tile id="625">
   <properties>
    <property name="NoSprinklers" type="bool" value="true"/>
    <property name="Passable" type="bool" value="true"/>
    <property name="Type" value="Dirt"/>
   </properties>
  </tile>
  <tile id="626">
   <properties>
    <property name="NoSprinklers" type="bool" value="true"/>
    <property name="Passable" type="bool" value="true"/>
    <property name="Type" value="Dirt"/>
   </properties>
  </tile>
  <tile id="627">
   <properties>
    <property name="NoSprinklers" type="bool" value="true"/>
    <property name="Passable" type="bool" value="true"/>
    <property name="Type" value="Dirt"/>
   </properties>
  </tile>
  <tile id="628">
   <properties>
    <property name="NoSprinklers" type="bool" value="true"/>
    <property name="Passable" type="bool" value="true"/>
    <property name="Type" value="Dirt"/>
   </properties>
   <animation>
    <frame tileid="628" duration="250"/>
    <frame tileid="628" duration="250"/>
    <frame tileid="628" duration="250"/>
    <frame tileid="628" duration="250"/>
    <frame tileid="629" duration="250"/>
    <frame tileid="630" duration="250"/>
    <frame tileid="631" duration="250"/>
    <frame tileid="631" duration="250"/>
    <frame tileid="632" duration="250"/>
    <frame tileid="633" duration="250"/>
    <frame tileid="634" duration="250"/>
    <frame tileid="628" duration="250"/>
    <frame tileid="628" duration="250"/>
   </animation>
  </tile>
  <tile id="629">
   <properties>
    <property name="NoSprinklers" type="bool" value="true"/>
    <property name="Passable" type="bool" value="true"/>
    <property name="Type" value="Dirt"/>
   </properties>
  </tile>
  <tile id="630">
   <properties>
    <property name="NoSprinklers" type="bool" value="true"/>
    <property name="Passable" type="bool" value="true"/>
    <property name="Type" value="Dirt"/>
   </properties>
  </tile>
  <tile id="631">
   <properties>
    <property name="NoSprinklers" type="bool" value="true"/>
    <property name="Passable" type="bool" value="true"/>
    <property name="Type" value="Dirt"/>
   </properties>
  </tile>
  <tile id="632">
   <properties>
    <property name="NoSprinklers" type="bool" value="true"/>
    <property name="Passable" type="bool" value="true"/>
    <property name="Type" value="Dirt"/>
   </properties>
  </tile>
  <tile id="633">
   <properties>
    <property name="NoSprinklers" type="bool" value="true"/>
    <property name="Passable" type="bool" value="true"/>
    <property name="Type" value="Dirt"/>
   </properties>
  </tile>
  <tile id="634">
   <properties>
    <property name="NoSprinklers" type="bool" value="true"/>
    <property name="Passable" type="bool" value="true"/>
    <property name="Type" value="Dirt"/>
   </properties>
  </tile>
  <tile id="635">
   <properties>
    <property name="BeachSpawn" type="bool" value="true"/>
    <property name="Buildable" type="bool" value="true"/>
    <property name="Diggable" type="bool" value="true"/>
    <property name="NoSprinklers" type="bool" value="true"/>
    <property name="Type" value="Dirt"/>
   </properties>
  </tile>
  <tile id="636">
   <properties>
    <property name="BeachSpawn" type="bool" value="true"/>
    <property name="Buildable" type="bool" value="true"/>
    <property name="Diggable" type="bool" value="true"/>
    <property name="NoSprinklers" type="bool" value="true"/>
    <property name="Type" value="Dirt"/>
   </properties>
  </tile>
  <tile id="637">
   <properties>
    <property name="BeachSpawn" type="bool" value="true"/>
    <property name="Buildable" type="bool" value="true"/>
    <property name="Diggable" type="bool" value="true"/>
    <property name="NoSprinklers" type="bool" value="true"/>
    <property name="Type" value="Dirt"/>
   </properties>
  </tile>
  <tile id="638">
   <properties>
    <property name="Water" type="bool" value="true"/>
   </properties>
  </tile>
  <tile id="639">
   <properties>
    <property name="Water" type="bool" value="true"/>
   </properties>
  </tile>
  <tile id="640">
   <properties>
    <property name="Water" type="bool" value="true"/>
   </properties>
  </tile>
  <tile id="641">
   <properties>
    <property name="Water" type="bool" value="true"/>
   </properties>
  </tile>
  <tile id="642">
   <properties>
    <property name="Water" type="bool" value="true"/>
   </properties>
  </tile>
  <tile id="643">
   <properties>
    <property name="Water" type="bool" value="true"/>
   </properties>
  </tile>
  <tile id="644">
   <properties>
    <property name="Water" type="bool" value="true"/>
   </properties>
  </tile>
  <tile id="645">
   <properties>
    <property name="Water" type="bool" value="true"/>
   </properties>
  </tile>
  <tile id="646">
   <properties>
    <property name="Water" type="bool" value="true"/>
   </properties>
  </tile>
  <tile id="647">
   <properties>
    <property name="Water" type="bool" value="true"/>
   </properties>
  </tile>
  <tile id="648">
   <properties>
    <property name="NoSprinklers" type="bool" value="true"/>
    <property name="Passable" type="bool" value="true"/>
    <property name="Type" value="Dirt"/>
   </properties>
   <animation>
    <frame tileid="648" duration="250"/>
    <frame tileid="648" duration="250"/>
    <frame tileid="648" duration="250"/>
    <frame tileid="648" duration="250"/>
    <frame tileid="649" duration="250"/>
    <frame tileid="650" duration="250"/>
    <frame tileid="651" duration="250"/>
    <frame tileid="651" duration="250"/>
    <frame tileid="652" duration="250"/>
    <frame tileid="653" duration="250"/>
    <frame tileid="654" duration="250"/>
    <frame tileid="648" duration="250"/>
    <frame tileid="648" duration="250"/>
   </animation>
  </tile>
  <tile id="649">
   <properties>
    <property name="NoSprinklers" type="bool" value="true"/>
    <property name="Passable" type="bool" value="true"/>
    <property name="Type" value="Dirt"/>
   </properties>
  </tile>
  <tile id="650">
   <properties>
    <property name="NoSprinklers" type="bool" value="true"/>
    <property name="Passable" type="bool" value="true"/>
    <property name="Type" value="Dirt"/>
   </properties>
  </tile>
  <tile id="651">
   <properties>
    <property name="NoSprinklers" type="bool" value="true"/>
    <property name="Passable" type="bool" value="true"/>
    <property name="Type" value="Dirt"/>
   </properties>
  </tile>
  <tile id="652">
   <properties>
    <property name="NoSprinklers" type="bool" value="true"/>
    <property name="Passable" type="bool" value="true"/>
    <property name="Type" value="Dirt"/>
   </properties>
  </tile>
  <tile id="653">
   <properties>
    <property name="NoSprinklers" type="bool" value="true"/>
    <property name="Passable" type="bool" value="true"/>
    <property name="Type" value="Dirt"/>
   </properties>
  </tile>
  <tile id="654">
   <properties>
    <property name="NoSprinklers" type="bool" value="true"/>
    <property name="Passable" type="bool" value="true"/>
    <property name="Type" value="Dirt"/>
   </properties>
  </tile>
  <tile id="655">
   <properties>
    <property name="NoSprinklers" type="bool" value="true"/>
    <property name="Passable" type="bool" value="true"/>
    <property name="Type" value="Dirt"/>
   </properties>
   <animation>
    <frame tileid="655" duration="250"/>
    <frame tileid="655" duration="250"/>
    <frame tileid="655" duration="250"/>
    <frame tileid="655" duration="250"/>
    <frame tileid="656" duration="250"/>
    <frame tileid="657" duration="250"/>
    <frame tileid="658" duration="250"/>
    <frame tileid="658" duration="250"/>
    <frame tileid="659" duration="250"/>
    <frame tileid="660" duration="250"/>
    <frame tileid="661" duration="250"/>
    <frame tileid="655" duration="250"/>
    <frame tileid="655" duration="250"/>
   </animation>
  </tile>
  <tile id="656">
   <properties>
    <property name="NoSprinklers" type="bool" value="true"/>
    <property name="Passable" type="bool" value="true"/>
    <property name="Type" value="Dirt"/>
   </properties>
  </tile>
  <tile id="657">
   <properties>
    <property name="NoSprinklers" type="bool" value="true"/>
    <property name="Passable" type="bool" value="true"/>
    <property name="Type" value="Dirt"/>
   </properties>
  </tile>
  <tile id="658">
   <properties>
    <property name="NoSprinklers" type="bool" value="true"/>
    <property name="Passable" type="bool" value="true"/>
    <property name="Type" value="Dirt"/>
   </properties>
  </tile>
  <tile id="659">
   <properties>
    <property name="NoSprinklers" type="bool" value="true"/>
    <property name="Passable" type="bool" value="true"/>
    <property name="Type" value="Dirt"/>
   </properties>
  </tile>
  <tile id="660">
   <properties>
    <property name="NoSprinklers" type="bool" value="true"/>
    <property name="Passable" type="bool" value="true"/>
    <property name="Type" value="Dirt"/>
   </properties>
  </tile>
  <tile id="661">
   <properties>
    <property name="NoSprinklers" type="bool" value="true"/>
    <property name="Passable" type="bool" value="true"/>
    <property name="Type" value="Dirt"/>
   </properties>
  </tile>
  <tile id="662">
   <properties>
    <property name="BeachSpawn" type="bool" value="true"/>
    <property name="Buildable" type="bool" value="true"/>
    <property name="Diggable" type="bool" value="true"/>
    <property name="NoSprinklers" type="bool" value="true"/>
    <property name="Type" value="Dirt"/>
   </properties>
  </tile>
  <tile id="663">
   <properties>
    <property name="BeachSpawn" type="bool" value="true"/>
    <property name="Buildable" type="bool" value="true"/>
    <property name="Diggable" type="bool" value="true"/>
    <property name="NoSprinklers" type="bool" value="true"/>
    <property name="Type" value="Dirt"/>
   </properties>
  </tile>
  <tile id="664">
   <properties>
    <property name="BeachSpawn" type="bool" value="true"/>
    <property name="Buildable" type="bool" value="true"/>
    <property name="Diggable" type="bool" value="true"/>
    <property name="NoSprinklers" type="bool" value="true"/>
    <property name="Type" value="Dirt"/>
   </properties>
  </tile>
  <tile id="665">
   <properties>
    <property name="Water" type="bool" value="true"/>
   </properties>
  </tile>
  <tile id="666">
   <properties>
    <property name="Water" type="bool" value="true"/>
   </properties>
  </tile>
  <tile id="667">
   <properties>
    <property name="Water" type="bool" value="true"/>
   </properties>
  </tile>
  <tile id="668">
   <properties>
    <property name="Water" type="bool" value="true"/>
   </properties>
  </tile>
  <tile id="669">
   <properties>
    <property name="Water" type="bool" value="true"/>
   </properties>
  </tile>
  <tile id="670">
   <properties>
    <property name="Water" type="bool" value="true"/>
   </properties>
  </tile>
  <tile id="671">
   <properties>
    <property name="Water" type="bool" value="true"/>
   </properties>
  </tile>
  <tile id="672">
   <properties>
    <property name="Water" type="bool" value="true"/>
   </properties>
  </tile>
  <tile id="673">
   <properties>
    <property name="Water" type="bool" value="true"/>
   </properties>
  </tile>
  <tile id="674">
   <properties>
    <property name="Water" type="bool" value="true"/>
   </properties>
  </tile>
  <tile id="675">
   <properties>
    <property name="NoSprinklers" type="bool" value="true"/>
    <property name="Passable" type="bool" value="true"/>
    <property name="Type" value="Dirt"/>
   </properties>
   <animation>
    <frame tileid="675" duration="250"/>
    <frame tileid="675" duration="250"/>
    <frame tileid="675" duration="250"/>
    <frame tileid="675" duration="250"/>
    <frame tileid="676" duration="250"/>
    <frame tileid="677" duration="250"/>
    <frame tileid="678" duration="250"/>
    <frame tileid="678" duration="250"/>
    <frame tileid="679" duration="250"/>
    <frame tileid="680" duration="250"/>
    <frame tileid="681" duration="250"/>
    <frame tileid="675" duration="250"/>
    <frame tileid="675" duration="250"/>
   </animation>
  </tile>
  <tile id="676">
   <properties>
    <property name="NoSprinklers" type="bool" value="true"/>
    <property name="Passable" type="bool" value="true"/>
    <property name="Type" value="Dirt"/>
   </properties>
  </tile>
  <tile id="677">
   <properties>
    <property name="NoSprinklers" type="bool" value="true"/>
    <property name="Passable" type="bool" value="true"/>
    <property name="Type" value="Dirt"/>
   </properties>
  </tile>
  <tile id="678">
   <properties>
    <property name="NoSprinklers" type="bool" value="true"/>
    <property name="Passable" type="bool" value="true"/>
    <property name="Type" value="Dirt"/>
   </properties>
  </tile>
  <tile id="679">
   <properties>
    <property name="NoSprinklers" type="bool" value="true"/>
    <property name="Passable" type="bool" value="true"/>
    <property name="Type" value="Dirt"/>
   </properties>
  </tile>
  <tile id="680">
   <properties>
    <property name="NoSprinklers" type="bool" value="true"/>
    <property name="Passable" type="bool" value="true"/>
    <property name="Type" value="Dirt"/>
   </properties>
  </tile>
  <tile id="681">
   <properties>
    <property name="NoSprinklers" type="bool" value="true"/>
    <property name="Passable" type="bool" value="true"/>
    <property name="Type" value="Dirt"/>
   </properties>
  </tile>
  <tile id="682">
   <properties>
    <property name="NoSprinklers" type="bool" value="true"/>
    <property name="Passable" type="bool" value="true"/>
    <property name="Type" value="Dirt"/>
   </properties>
   <animation>
    <frame tileid="682" duration="250"/>
    <frame tileid="682" duration="250"/>
    <frame tileid="682" duration="250"/>
    <frame tileid="682" duration="250"/>
    <frame tileid="683" duration="250"/>
    <frame tileid="684" duration="250"/>
    <frame tileid="685" duration="250"/>
    <frame tileid="685" duration="250"/>
    <frame tileid="686" duration="250"/>
    <frame tileid="687" duration="250"/>
    <frame tileid="688" duration="250"/>
    <frame tileid="682" duration="250"/>
    <frame tileid="682" duration="250"/>
   </animation>
  </tile>
  <tile id="683">
   <properties>
    <property name="NoSprinklers" type="bool" value="true"/>
    <property name="Passable" type="bool" value="true"/>
    <property name="Type" value="Dirt"/>
   </properties>
  </tile>
  <tile id="684">
   <properties>
    <property name="NoSprinklers" type="bool" value="true"/>
    <property name="Passable" type="bool" value="true"/>
    <property name="Type" value="Dirt"/>
   </properties>
  </tile>
  <tile id="685">
   <properties>
    <property name="NoSprinklers" type="bool" value="true"/>
    <property name="Passable" type="bool" value="true"/>
    <property name="Type" value="Dirt"/>
   </properties>
  </tile>
  <tile id="686">
   <properties>
    <property name="NoSprinklers" type="bool" value="true"/>
    <property name="Passable" type="bool" value="true"/>
    <property name="Type" value="Dirt"/>
   </properties>
  </tile>
  <tile id="687">
   <properties>
    <property name="NoSprinklers" type="bool" value="true"/>
    <property name="Passable" type="bool" value="true"/>
    <property name="Type" value="Dirt"/>
   </properties>
  </tile>
  <tile id="688">
   <properties>
    <property name="NoSprinklers" type="bool" value="true"/>
    <property name="Passable" type="bool" value="true"/>
    <property name="Type" value="Dirt"/>
   </properties>
  </tile>
  <tile id="689">
   <properties>
    <property name="BeachSpawn" type="bool" value="true"/>
    <property name="Buildable" type="bool" value="true"/>
    <property name="Diggable" type="bool" value="true"/>
    <property name="NoSprinklers" type="bool" value="true"/>
    <property name="Type" value="Dirt"/>
   </properties>
  </tile>
  <tile id="690">
   <properties>
    <property name="BeachSpawn" type="bool" value="true"/>
    <property name="Buildable" type="bool" value="true"/>
    <property name="Diggable" type="bool" value="true"/>
    <property name="NoSprinklers" type="bool" value="true"/>
    <property name="Type" value="Dirt"/>
   </properties>
  </tile>
  <tile id="691">
   <properties>
    <property name="BeachSpawn" type="bool" value="true"/>
    <property name="Buildable" type="bool" value="true"/>
    <property name="Diggable" type="bool" value="true"/>
    <property name="NoSprinklers" type="bool" value="true"/>
    <property name="Type" value="Dirt"/>
   </properties>
  </tile>
  <tile id="692">
   <properties>
    <property name="Water" type="bool" value="true"/>
   </properties>
  </tile>
  <tile id="693">
   <properties>
    <property name="Water" type="bool" value="true"/>
   </properties>
  </tile>
  <tile id="694">
   <properties>
    <property name="Water" type="bool" value="true"/>
   </properties>
  </tile>
  <tile id="695">
   <properties>
    <property name="Water" type="bool" value="true"/>
   </properties>
  </tile>
  <tile id="696">
   <properties>
    <property name="Water" type="bool" value="true"/>
   </properties>
  </tile>
  <tile id="697">
   <properties>
    <property name="Water" type="bool" value="true"/>
   </properties>
  </tile>
  <tile id="698">
   <properties>
    <property name="Water" type="bool" value="true"/>
   </properties>
  </tile>
  <tile id="699">
   <properties>
    <property name="Water" type="bool" value="true"/>
   </properties>
  </tile>
  <tile id="700">
   <properties>
    <property name="Water" type="bool" value="true"/>
   </properties>
  </tile>
  <tile id="701">
   <properties>
    <property name="Water" type="bool" value="true"/>
   </properties>
  </tile>
  <tile id="702">
   <properties>
    <property name="NoSprinklers" type="bool" value="true"/>
    <property name="Passable" type="bool" value="true"/>
    <property name="Type" value="Dirt"/>
   </properties>
   <animation>
    <frame tileid="702" duration="250"/>
    <frame tileid="702" duration="250"/>
    <frame tileid="702" duration="250"/>
    <frame tileid="702" duration="250"/>
    <frame tileid="703" duration="250"/>
    <frame tileid="704" duration="250"/>
    <frame tileid="705" duration="250"/>
    <frame tileid="705" duration="250"/>
    <frame tileid="706" duration="250"/>
    <frame tileid="707" duration="250"/>
    <frame tileid="708" duration="250"/>
    <frame tileid="702" duration="250"/>
    <frame tileid="702" duration="250"/>
   </animation>
  </tile>
  <tile id="703">
   <properties>
    <property name="NoSprinklers" type="bool" value="true"/>
    <property name="Passable" type="bool" value="true"/>
    <property name="Type" value="Dirt"/>
   </properties>
  </tile>
  <tile id="704">
   <properties>
    <property name="NoSprinklers" type="bool" value="true"/>
    <property name="Passable" type="bool" value="true"/>
    <property name="Type" value="Dirt"/>
   </properties>
  </tile>
  <tile id="705">
   <properties>
    <property name="NoSprinklers" type="bool" value="true"/>
    <property name="Passable" type="bool" value="true"/>
    <property name="Type" value="Dirt"/>
   </properties>
  </tile>
  <tile id="706">
   <properties>
    <property name="NoSprinklers" type="bool" value="true"/>
    <property name="Passable" type="bool" value="true"/>
    <property name="Type" value="Dirt"/>
   </properties>
  </tile>
  <tile id="707">
   <properties>
    <property name="NoSprinklers" type="bool" value="true"/>
    <property name="Passable" type="bool" value="true"/>
    <property name="Type" value="Dirt"/>
   </properties>
  </tile>
  <tile id="708">
   <properties>
    <property name="NoSprinklers" type="bool" value="true"/>
    <property name="Passable" type="bool" value="true"/>
    <property name="Type" value="Dirt"/>
   </properties>
  </tile>
  <tile id="709">
   <properties>
    <property name="NoSprinklers" type="bool" value="true"/>
    <property name="Passable" type="bool" value="true"/>
    <property name="Type" value="Dirt"/>
   </properties>
   <animation>
    <frame tileid="709" duration="250"/>
    <frame tileid="709" duration="250"/>
    <frame tileid="709" duration="250"/>
    <frame tileid="709" duration="250"/>
    <frame tileid="710" duration="250"/>
    <frame tileid="711" duration="250"/>
    <frame tileid="712" duration="250"/>
    <frame tileid="712" duration="250"/>
    <frame tileid="713" duration="250"/>
    <frame tileid="714" duration="250"/>
    <frame tileid="715" duration="250"/>
    <frame tileid="709" duration="250"/>
    <frame tileid="709" duration="250"/>
   </animation>
  </tile>
  <tile id="710">
   <properties>
    <property name="NoSprinklers" type="bool" value="true"/>
    <property name="Passable" type="bool" value="true"/>
    <property name="Type" value="Dirt"/>
   </properties>
  </tile>
  <tile id="711">
   <properties>
    <property name="NoSprinklers" type="bool" value="true"/>
    <property name="Passable" type="bool" value="true"/>
    <property name="Type" value="Dirt"/>
   </properties>
  </tile>
  <tile id="712">
   <properties>
    <property name="NoSprinklers" type="bool" value="true"/>
    <property name="Passable" type="bool" value="true"/>
    <property name="Type" value="Dirt"/>
   </properties>
  </tile>
  <tile id="713">
   <properties>
    <property name="NoSprinklers" type="bool" value="true"/>
    <property name="Passable" type="bool" value="true"/>
    <property name="Type" value="Dirt"/>
   </properties>
  </tile>
  <tile id="714">
   <properties>
    <property name="NoSprinklers" type="bool" value="true"/>
    <property name="Passable" type="bool" value="true"/>
    <property name="Type" value="Dirt"/>
   </properties>
  </tile>
  <tile id="715">
   <properties>
    <property name="NoSprinklers" type="bool" value="true"/>
    <property name="Passable" type="bool" value="true"/>
    <property name="Type" value="Dirt"/>
   </properties>
  </tile>
  <tile id="716">
   <properties>
    <property name="BeachSpawn" type="bool" value="true"/>
    <property name="Buildable" type="bool" value="true"/>
    <property name="Diggable" type="bool" value="true"/>
    <property name="NoSprinklers" type="bool" value="true"/>
    <property name="Type" value="Dirt"/>
   </properties>
  </tile>
  <tile id="717">
   <properties>
    <property name="BeachSpawn" type="bool" value="true"/>
    <property name="Buildable" type="bool" value="true"/>
    <property name="Diggable" type="bool" value="true"/>
    <property name="NoSprinklers" type="bool" value="true"/>
    <property name="Type" value="Dirt"/>
   </properties>
  </tile>
  <tile id="718">
   <properties>
    <property name="NoSprinklers" type="bool" value="true"/>
    <property name="Passable" type="bool" value="true"/>
    <property name="Type" value="Dirt"/>
   </properties>
   <animation>
    <frame tileid="718" duration="250"/>
    <frame tileid="718" duration="250"/>
    <frame tileid="718" duration="250"/>
    <frame tileid="718" duration="250"/>
    <frame tileid="745" duration="250"/>
    <frame tileid="745" duration="250"/>
    <frame tileid="772" duration="250"/>
    <frame tileid="772" duration="250"/>
    <frame tileid="745" duration="250"/>
    <frame tileid="745" duration="250"/>
    <frame tileid="718" duration="250"/>
    <frame tileid="718" duration="250"/>
    <frame tileid="718" duration="250"/>
   </animation>
  </tile>
  <tile id="719">
   <properties>
    <property name="Water" type="bool" value="true"/>
   </properties>
  </tile>
  <tile id="720">
   <properties>
    <property name="Water" type="bool" value="true"/>
   </properties>
  </tile>
  <tile id="721">
   <properties>
    <property name="Water" type="bool" value="true"/>
   </properties>
  </tile>
  <tile id="722">
   <properties>
    <property name="Water" type="bool" value="true"/>
   </properties>
  </tile>
  <tile id="723">
   <properties>
    <property name="Water" type="bool" value="true"/>
   </properties>
  </tile>
  <tile id="724">
   <properties>
    <property name="Water" type="bool" value="true"/>
   </properties>
  </tile>
  <tile id="725">
   <properties>
    <property name="Water" type="bool" value="true"/>
   </properties>
  </tile>
  <tile id="726">
   <properties>
    <property name="Water" type="bool" value="true"/>
   </properties>
  </tile>
  <tile id="727">
   <properties>
    <property name="Water" type="bool" value="true"/>
   </properties>
  </tile>
  <tile id="728">
   <properties>
    <property name="Water" type="bool" value="true"/>
   </properties>
  </tile>
  <tile id="729">
   <properties>
    <property name="BeachSpawn" type="bool" value="true"/>
    <property name="Buildable" type="bool" value="true"/>
    <property name="Diggable" type="bool" value="true"/>
    <property name="NoSprinklers" type="bool" value="true"/>
    <property name="Type" value="Dirt"/>
   </properties>
  </tile>
  <tile id="730">
   <properties>
    <property name="BeachSpawn" type="bool" value="true"/>
    <property name="Buildable" type="bool" value="true"/>
    <property name="Diggable" type="bool" value="true"/>
    <property name="NoSprinklers" type="bool" value="true"/>
    <property name="Type" value="Dirt"/>
   </properties>
  </tile>
  <tile id="731">
   <properties>
    <property name="BeachSpawn" type="bool" value="true"/>
    <property name="Buildable" type="bool" value="true"/>
    <property name="Diggable" type="bool" value="true"/>
    <property name="NoSprinklers" type="bool" value="true"/>
    <property name="Type" value="Dirt"/>
   </properties>
  </tile>
  <tile id="732">
   <properties>
    <property name="BeachSpawn" type="bool" value="true"/>
    <property name="Buildable" type="bool" value="true"/>
    <property name="Diggable" type="bool" value="true"/>
    <property name="NoSprinklers" type="bool" value="true"/>
    <property name="Type" value="Dirt"/>
   </properties>
  </tile>
  <tile id="733">
   <properties>
    <property name="BeachSpawn" type="bool" value="true"/>
    <property name="Buildable" type="bool" value="true"/>
    <property name="NoSprinklers" type="bool" value="true"/>
    <property name="Type" value="Stone"/>
   </properties>
  </tile>
  <tile id="734">
   <properties>
    <property name="BeachSpawn" type="bool" value="true"/>
    <property name="Buildable" type="bool" value="true"/>
    <property name="Diggable" type="bool" value="true"/>
    <property name="NoSprinklers" type="bool" value="true"/>
    <property name="Type" value="Dirt"/>
   </properties>
  </tile>
  <tile id="735">
   <properties>
    <property name="BeachSpawn" type="bool" value="true"/>
    <property name="Buildable" type="bool" value="true"/>
    <property name="Diggable" type="bool" value="true"/>
    <property name="NoSprinklers" type="bool" value="true"/>
    <property name="Type" value="Dirt"/>
   </properties>
  </tile>
  <tile id="736">
   <properties>
    <property name="BeachSpawn" type="bool" value="true"/>
    <property name="Buildable" type="bool" value="true"/>
    <property name="Diggable" type="bool" value="true"/>
    <property name="NoSprinklers" type="bool" value="true"/>
    <property name="Type" value="Dirt"/>
   </properties>
  </tile>
  <tile id="737">
   <properties>
    <property name="BeachSpawn" type="bool" value="true"/>
    <property name="Buildable" type="bool" value="true"/>
    <property name="NoSprinklers" type="bool" value="true"/>
    <property name="Type" value="Stone"/>
   </properties>
  </tile>
  <tile id="738">
   <properties>
    <property name="BeachSpawn" type="bool" value="true"/>
    <property name="Buildable" type="bool" value="true"/>
    <property name="Diggable" type="bool" value="true"/>
    <property name="NoSprinklers" type="bool" value="true"/>
    <property name="Type" value="Dirt"/>
   </properties>
  </tile>
  <tile id="739">
   <properties>
    <property name="BeachSpawn" type="bool" value="true"/>
    <property name="Buildable" type="bool" value="true"/>
    <property name="Diggable" type="bool" value="true"/>
    <property name="NoSprinklers" type="bool" value="true"/>
    <property name="Type" value="Dirt"/>
   </properties>
  </tile>
  <tile id="740">
   <properties>
    <property name="BeachSpawn" type="bool" value="true"/>
    <property name="Buildable" type="bool" value="true"/>
    <property name="Diggable" type="bool" value="true"/>
    <property name="NoSprinklers" type="bool" value="true"/>
    <property name="Type" value="Dirt"/>
   </properties>
  </tile>
  <tile id="741">
   <properties>
    <property name="BeachSpawn" type="bool" value="true"/>
    <property name="Buildable" type="bool" value="true"/>
    <property name="NoSprinklers" type="bool" value="true"/>
    <property name="Type" value="Stone"/>
   </properties>
  </tile>
  <tile id="742">
   <properties>
    <property name="BeachSpawn" type="bool" value="true"/>
    <property name="Buildable" type="bool" value="true"/>
    <property name="Diggable" type="bool" value="true"/>
    <property name="NoSprinklers" type="bool" value="true"/>
    <property name="Type" value="Dirt"/>
   </properties>
  </tile>
  <tile id="743">
   <properties>
    <property name="BeachSpawn" type="bool" value="true"/>
    <property name="Buildable" type="bool" value="true"/>
    <property name="Diggable" type="bool" value="true"/>
    <property name="NoSprinklers" type="bool" value="true"/>
    <property name="Type" value="Dirt"/>
   </properties>
  </tile>
  <tile id="744">
   <properties>
    <property name="BeachSpawn" type="bool" value="true"/>
    <property name="Buildable" type="bool" value="true"/>
    <property name="Diggable" type="bool" value="true"/>
    <property name="NoSprinklers" type="bool" value="true"/>
    <property name="Type" value="Dirt"/>
   </properties>
  </tile>
  <tile id="745">
   <properties>
    <property name="NoSprinklers" type="bool" value="true"/>
    <property name="Passable" type="bool" value="true"/>
    <property name="Type" value="Dirt"/>
   </properties>
  </tile>
  <tile id="746">
   <properties>
    <property name="Water" type="bool" value="true"/>
   </properties>
  </tile>
  <tile id="747">
   <properties>
    <property name="Water" type="bool" value="true"/>
   </properties>
  </tile>
  <tile id="748">
   <properties>
    <property name="Water" type="bool" value="true"/>
   </properties>
  </tile>
  <tile id="751">
   <properties>
    <property name="Water" type="bool" value="true"/>
   </properties>
  </tile>
  <tile id="752">
   <properties>
    <property name="Water" type="bool" value="true"/>
   </properties>
  </tile>
  <tile id="753">
   <properties>
    <property name="Water" type="bool" value="true"/>
   </properties>
  </tile>
  <tile id="756">
   <properties>
    <property name="BeachSpawn" type="bool" value="true"/>
    <property name="Buildable" type="bool" value="true"/>
    <property name="Diggable" type="bool" value="true"/>
    <property name="NoSprinklers" type="bool" value="true"/>
    <property name="Type" value="Dirt"/>
   </properties>
  </tile>
  <tile id="757">
   <properties>
    <property name="BeachSpawn" type="bool" value="true"/>
    <property name="Buildable" type="bool" value="true"/>
    <property name="Diggable" type="bool" value="true"/>
    <property name="NoSprinklers" type="bool" value="true"/>
    <property name="Type" value="Dirt"/>
   </properties>
  </tile>
  <tile id="758">
   <properties>
    <property name="BeachSpawn" type="bool" value="true"/>
    <property name="Buildable" type="bool" value="true"/>
    <property name="Diggable" type="bool" value="true"/>
    <property name="NoSprinklers" type="bool" value="true"/>
    <property name="Type" value="Dirt"/>
   </properties>
  </tile>
  <tile id="759">
   <properties>
    <property name="BeachSpawn" type="bool" value="true"/>
    <property name="Buildable" type="bool" value="true"/>
    <property name="Diggable" type="bool" value="true"/>
    <property name="NoSprinklers" type="bool" value="true"/>
    <property name="Type" value="Dirt"/>
   </properties>
  </tile>
  <tile id="760">
   <properties>
    <property name="BeachSpawn" type="bool" value="true"/>
    <property name="Buildable" type="bool" value="true"/>
    <property name="NoSprinklers" type="bool" value="true"/>
    <property name="Type" value="Stone"/>
   </properties>
  </tile>
  <tile id="761">
   <properties>
    <property name="BeachSpawn" type="bool" value="true"/>
    <property name="Buildable" type="bool" value="true"/>
    <property name="Diggable" type="bool" value="true"/>
    <property name="NoSprinklers" type="bool" value="true"/>
    <property name="Type" value="Dirt"/>
   </properties>
  </tile>
  <tile id="762">
   <properties>
    <property name="BeachSpawn" type="bool" value="true"/>
    <property name="Buildable" type="bool" value="true"/>
    <property name="Diggable" type="bool" value="true"/>
    <property name="NoSprinklers" type="bool" value="true"/>
    <property name="Type" value="Dirt"/>
   </properties>
  </tile>
  <tile id="763">
   <properties>
    <property name="BeachSpawn" type="bool" value="true"/>
    <property name="Buildable" type="bool" value="true"/>
    <property name="Diggable" type="bool" value="true"/>
    <property name="NoSprinklers" type="bool" value="true"/>
    <property name="Type" value="Dirt"/>
   </properties>
  </tile>
  <tile id="764">
   <properties>
    <property name="BeachSpawn" type="bool" value="true"/>
    <property name="Buildable" type="bool" value="true"/>
    <property name="NoSprinklers" type="bool" value="true"/>
    <property name="Type" value="Stone"/>
   </properties>
  </tile>
  <tile id="765">
   <properties>
    <property name="BeachSpawn" type="bool" value="true"/>
    <property name="Buildable" type="bool" value="true"/>
    <property name="Diggable" type="bool" value="true"/>
    <property name="NoSprinklers" type="bool" value="true"/>
    <property name="Type" value="Dirt"/>
   </properties>
  </tile>
  <tile id="766">
   <properties>
    <property name="BeachSpawn" type="bool" value="true"/>
    <property name="Buildable" type="bool" value="true"/>
    <property name="Diggable" type="bool" value="true"/>
    <property name="NoSprinklers" type="bool" value="true"/>
    <property name="Type" value="Dirt"/>
   </properties>
  </tile>
  <tile id="767">
   <properties>
    <property name="BeachSpawn" type="bool" value="true"/>
    <property name="Buildable" type="bool" value="true"/>
    <property name="Diggable" type="bool" value="true"/>
    <property name="NoSprinklers" type="bool" value="true"/>
    <property name="Type" value="Dirt"/>
   </properties>
  </tile>
  <tile id="768">
   <properties>
    <property name="BeachSpawn" type="bool" value="true"/>
    <property name="Buildable" type="bool" value="true"/>
    <property name="NoSprinklers" type="bool" value="true"/>
    <property name="Type" value="Stone"/>
   </properties>
  </tile>
  <tile id="769">
   <properties>
    <property name="BeachSpawn" type="bool" value="true"/>
    <property name="Buildable" type="bool" value="true"/>
    <property name="Diggable" type="bool" value="true"/>
    <property name="NoSprinklers" type="bool" value="true"/>
    <property name="Type" value="Dirt"/>
   </properties>
  </tile>
  <tile id="770">
   <properties>
    <property name="BeachSpawn" type="bool" value="true"/>
    <property name="Buildable" type="bool" value="true"/>
    <property name="Diggable" type="bool" value="true"/>
    <property name="NoSprinklers" type="bool" value="true"/>
    <property name="Type" value="Dirt"/>
   </properties>
  </tile>
  <tile id="771">
   <properties>
    <property name="BeachSpawn" type="bool" value="true"/>
    <property name="Buildable" type="bool" value="true"/>
    <property name="Diggable" type="bool" value="true"/>
    <property name="NoSprinklers" type="bool" value="true"/>
    <property name="Type" value="Dirt"/>
   </properties>
  </tile>
  <tile id="772">
   <properties>
    <property name="NoSprinklers" type="bool" value="true"/>
    <property name="Passable" type="bool" value="true"/>
    <property name="Type" value="Dirt"/>
   </properties>
  </tile>
  <tile id="773">
   <properties>
    <property name="Water" type="bool" value="true"/>
   </properties>
  </tile>
  <tile id="774">
   <properties>
    <property name="Water" type="bool" value="true"/>
   </properties>
  </tile>
  <tile id="775">
   <properties>
    <property name="Water" type="bool" value="true"/>
   </properties>
  </tile>
  <tile id="776">
   <properties>
    <property name="Water" type="bool" value="true"/>
   </properties>
  </tile>
  <tile id="777">
   <properties>
    <property name="Water" type="bool" value="true"/>
   </properties>
  </tile>
  <tile id="778">
   <properties>
    <property name="Water" type="bool" value="true"/>
   </properties>
  </tile>
  <tile id="779">
   <properties>
    <property name="Water" type="bool" value="true"/>
   </properties>
  </tile>
  <tile id="780">
   <properties>
    <property name="Water" type="bool" value="true"/>
   </properties>
  </tile>
  <tile id="781">
   <properties>
    <property name="Water" type="bool" value="true"/>
   </properties>
  </tile>
  <tile id="782">
   <properties>
    <property name="Water" type="bool" value="true"/>
   </properties>
  </tile>
  <tile id="783">
   <properties>
    <property name="Type" value="Dirt"/>
   </properties>
  </tile>
  <tile id="784">
   <properties>
    <property name="Type" value="Dirt"/>
   </properties>
  </tile>
  <tile id="785">
   <properties>
    <property name="Type" value="Dirt"/>
   </properties>
  </tile>
  <tile id="786">
   <properties>
    <property name="Type" value="Dirt"/>
   </properties>
  </tile>
  <tile id="787">
   <properties>
    <property name="Type" value="Dirt"/>
   </properties>
  </tile>
  <tile id="788">
   <properties>
    <property name="BeachSpawn" type="bool" value="true"/>
    <property name="Buildable" type="bool" value="true"/>
    <property name="NoSprinklers" type="bool" value="true"/>
    <property name="Type" value="Dirt"/>
   </properties>
  </tile>
  <tile id="789">
   <properties>
    <property name="BeachSpawn" type="bool" value="true"/>
    <property name="Buildable" type="bool" value="true"/>
    <property name="NoSprinklers" type="bool" value="true"/>
    <property name="Type" value="Dirt"/>
   </properties>
  </tile>
  <tile id="790">
   <properties>
    <property name="BeachSpawn" type="bool" value="true"/>
    <property name="Buildable" type="bool" value="true"/>
    <property name="NoSprinklers" type="bool" value="true"/>
    <property name="Type" value="Dirt"/>
   </properties>
  </tile>
  <tile id="791">
   <properties>
    <property name="NoSpawn" value="All"/>
    <property name="Type" value="Wood"/>
   </properties>
  </tile>
  <tile id="792">
   <properties>
    <property name="NoSpawn" value="All"/>
    <property name="Type" value="Wood"/>
   </properties>
  </tile>
  <tile id="793">
   <properties>
    <property name="NoSpawn" value="All"/>
    <property name="Type" value="Wood"/>
   </properties>
  </tile>
  <tile id="800">
   <properties>
    <property name="Water" type="bool" value="true"/>
   </properties>
  </tile>
  <tile id="801">
   <properties>
    <property name="Water" type="bool" value="true"/>
   </properties>
  </tile>
  <tile id="802">
   <properties>
    <property name="Water" type="bool" value="true"/>
   </properties>
  </tile>
  <tile id="803">
   <properties>
    <property name="Water" type="bool" value="true"/>
   </properties>
  </tile>
  <tile id="804">
   <properties>
    <property name="Water" type="bool" value="true"/>
   </properties>
  </tile>
  <tile id="805">
   <properties>
    <property name="Water" type="bool" value="true"/>
   </properties>
  </tile>
  <tile id="806">
   <properties>
    <property name="Water" type="bool" value="true"/>
   </properties>
  </tile>
  <tile id="807">
   <properties>
    <property name="Water" type="bool" value="true"/>
   </properties>
  </tile>
  <tile id="808">
   <properties>
    <property name="Water" type="bool" value="true"/>
   </properties>
  </tile>
  <tile id="809">
   <properties>
    <property name="Water" type="bool" value="true"/>
   </properties>
  </tile>
  <tile id="810">
   <properties>
    <property name="Type" value="Dirt"/>
   </properties>
  </tile>
  <tile id="811">
   <properties>
    <property name="Type" value="Dirt"/>
   </properties>
  </tile>
  <tile id="812">
   <properties>
    <property name="Type" value="Dirt"/>
   </properties>
  </tile>
  <tile id="813">
   <properties>
    <property name="Type" value="Dirt"/>
   </properties>
  </tile>
  <tile id="814">
   <properties>
    <property name="Type" value="Dirt"/>
   </properties>
  </tile>
  <tile id="815">
   <properties>
    <property name="BeachSpawn" type="bool" value="true"/>
    <property name="Buildable" type="bool" value="true"/>
    <property name="NoSprinklers" type="bool" value="true"/>
    <property name="Type" value="Dirt"/>
   </properties>
  </tile>
  <tile id="816">
   <properties>
    <property name="BeachSpawn" type="bool" value="true"/>
    <property name="Buildable" type="bool" value="true"/>
    <property name="NoSprinklers" type="bool" value="true"/>
    <property name="Type" value="Dirt"/>
   </properties>
  </tile>
  <tile id="817">
   <properties>
    <property name="BeachSpawn" type="bool" value="true"/>
    <property name="Buildable" type="bool" value="true"/>
    <property name="NoSprinklers" type="bool" value="true"/>
    <property name="Type" value="Dirt"/>
   </properties>
  </tile>
  <tile id="818">
   <properties>
    <property name="NoSpawn" value="All"/>
    <property name="Type" value="Wood"/>
   </properties>
  </tile>
  <tile id="819">
   <properties>
    <property name="NoSpawn" value="All"/>
    <property name="Type" value="Wood"/>
   </properties>
  </tile>
  <tile id="820">
   <properties>
    <property name="NoSpawn" value="All"/>
    <property name="Type" value="Wood"/>
   </properties>
  </tile>
  <tile id="827">
   <properties>
    <property name="Water" type="bool" value="true"/>
   </properties>
  </tile>
  <tile id="828">
   <properties>
    <property name="Water" type="bool" value="true"/>
   </properties>
  </tile>
  <tile id="829">
   <properties>
    <property name="Water" type="bool" value="true"/>
   </properties>
  </tile>
  <tile id="830">
   <properties>
    <property name="Water" type="bool" value="true"/>
   </properties>
  </tile>
  <tile id="831">
   <properties>
    <property name="Water" type="bool" value="true"/>
   </properties>
  </tile>
  <tile id="832">
   <properties>
    <property name="Water" type="bool" value="true"/>
   </properties>
  </tile>
  <tile id="833">
   <properties>
    <property name="Water" type="bool" value="true"/>
   </properties>
  </tile>
  <tile id="834">
   <properties>
    <property name="Water" type="bool" value="true"/>
   </properties>
  </tile>
  <tile id="835">
   <properties>
    <property name="Water" type="bool" value="true"/>
   </properties>
  </tile>
  <tile id="836">
   <properties>
    <property name="Water" type="bool" value="true"/>
   </properties>
  </tile>
  <tile id="837">
   <properties>
    <property name="Type" value="Dirt"/>
   </properties>
  </tile>
  <tile id="838">
   <properties>
    <property name="Type" value="Dirt"/>
   </properties>
  </tile>
  <tile id="839">
   <properties>
    <property name="Type" value="Dirt"/>
   </properties>
  </tile>
  <tile id="840">
   <properties>
    <property name="Type" value="Dirt"/>
   </properties>
  </tile>
  <tile id="841">
   <properties>
    <property name="Type" value="Dirt"/>
   </properties>
  </tile>
  <tile id="842">
   <properties>
    <property name="BeachSpawn" type="bool" value="true"/>
    <property name="Buildable" type="bool" value="true"/>
    <property name="NoSprinklers" type="bool" value="true"/>
    <property name="Type" value="Dirt"/>
   </properties>
  </tile>
  <tile id="843">
   <properties>
    <property name="BeachSpawn" type="bool" value="true"/>
    <property name="Buildable" type="bool" value="true"/>
    <property name="NoSprinklers" type="bool" value="true"/>
    <property name="Type" value="Dirt"/>
   </properties>
  </tile>
  <tile id="844">
   <properties>
    <property name="BeachSpawn" type="bool" value="true"/>
    <property name="Buildable" type="bool" value="true"/>
    <property name="NoSprinklers" type="bool" value="true"/>
    <property name="Type" value="Dirt"/>
   </properties>
  </tile>
  <tile id="845">
   <properties>
    <property name="NoSpawn" value="All"/>
    <property name="Type" value="Wood"/>
   </properties>
  </tile>
  <tile id="846">
   <properties>
    <property name="NoSpawn" value="All"/>
    <property name="Type" value="Wood"/>
   </properties>
  </tile>
  <tile id="847">
   <properties>
    <property name="NoSpawn" value="All"/>
    <property name="Type" value="Wood"/>
   </properties>
  </tile>
  <tile id="848">
   <animation>
    <frame tileid="848" duration="1000"/>
    <frame tileid="902" duration="1000"/>
   </animation>
  </tile>
  <tile id="849">
   <animation>
    <frame tileid="849" duration="1000"/>
    <frame tileid="903" duration="1000"/>
   </animation>
  </tile>
  <tile id="850">
   <animation>
    <frame tileid="850" duration="1000"/>
    <frame tileid="904" duration="1000"/>
   </animation>
  </tile>
  <tile id="851">
   <animation>
    <frame tileid="851" duration="1000"/>
    <frame tileid="905" duration="1000"/>
   </animation>
  </tile>
  <tile id="852">
   <animation>
    <frame tileid="852" duration="1000"/>
    <frame tileid="906" duration="1000"/>
   </animation>
  </tile>
  <tile id="853">
   <animation>
    <frame tileid="853" duration="1000"/>
    <frame tileid="907" duration="1000"/>
   </animation>
  </tile>
  <tile id="854">
   <properties>
    <property name="Water" type="bool" value="true"/>
   </properties>
  </tile>
  <tile id="855">
   <properties>
    <property name="Water" type="bool" value="true"/>
   </properties>
  </tile>
  <tile id="856">
   <properties>
    <property name="Water" type="bool" value="true"/>
   </properties>
  </tile>
  <tile id="857">
   <properties>
    <property name="Water" type="bool" value="true"/>
   </properties>
  </tile>
  <tile id="858">
   <properties>
    <property name="Water" type="bool" value="true"/>
   </properties>
  </tile>
  <tile id="859">
   <properties>
    <property name="Water" type="bool" value="true"/>
   </properties>
  </tile>
  <tile id="860">
   <properties>
    <property name="Water" type="bool" value="true"/>
   </properties>
  </tile>
  <tile id="861">
   <properties>
    <property name="Water" type="bool" value="true"/>
   </properties>
  </tile>
  <tile id="862">
   <properties>
    <property name="Water" type="bool" value="true"/>
   </properties>
  </tile>
  <tile id="863">
   <properties>
    <property name="Water" type="bool" value="true"/>
   </properties>
  </tile>
  <tile id="864">
   <properties>
    <property name="Type" value="Dirt"/>
   </properties>
  </tile>
  <tile id="865">
   <properties>
    <property name="Type" value="Dirt"/>
   </properties>
  </tile>
  <tile id="866">
   <properties>
    <property name="Type" value="Dirt"/>
   </properties>
  </tile>
  <tile id="867">
   <properties>
    <property name="Type" value="Dirt"/>
   </properties>
  </tile>
  <tile id="868">
   <properties>
    <property name="Type" value="Dirt"/>
   </properties>
  </tile>
  <tile id="869">
   <properties>
    <property name="BeachSpawn" type="bool" value="true"/>
    <property name="Buildable" type="bool" value="true"/>
    <property name="NoSprinklers" type="bool" value="true"/>
    <property name="Type" value="Dirt"/>
   </properties>
  </tile>
  <tile id="870">
   <properties>
    <property name="BeachSpawn" type="bool" value="true"/>
    <property name="Buildable" type="bool" value="true"/>
    <property name="NoSprinklers" type="bool" value="true"/>
    <property name="Type" value="Dirt"/>
   </properties>
  </tile>
  <tile id="871">
   <properties>
    <property name="BeachSpawn" type="bool" value="true"/>
    <property name="Buildable" type="bool" value="true"/>
    <property name="NoSprinklers" type="bool" value="true"/>
    <property name="Type" value="Dirt"/>
   </properties>
  </tile>
  <tile id="872">
   <properties>
    <property name="NoSpawn" value="All"/>
    <property name="Type" value="Wood"/>
   </properties>
  </tile>
  <tile id="873">
   <properties>
    <property name="NoSpawn" value="All"/>
    <property name="Type" value="Wood"/>
   </properties>
  </tile>
  <tile id="874">
   <properties>
    <property name="NoSpawn" value="All"/>
    <property name="Type" value="Wood"/>
   </properties>
  </tile>
  <tile id="875">
   <animation>
    <frame tileid="875" duration="1000"/>
    <frame tileid="929" duration="1000"/>
   </animation>
  </tile>
  <tile id="876">
   <animation>
    <frame tileid="876" duration="1000"/>
    <frame tileid="930" duration="1000"/>
   </animation>
  </tile>
  <tile id="877">
   <animation>
    <frame tileid="877" duration="1000"/>
    <frame tileid="931" duration="1000"/>
   </animation>
  </tile>
  <tile id="878">
   <animation>
    <frame tileid="878" duration="1000"/>
    <frame tileid="932" duration="1000"/>
   </animation>
  </tile>
  <tile id="879">
   <animation>
    <frame tileid="879" duration="1000"/>
    <frame tileid="933" duration="1000"/>
   </animation>
  </tile>
  <tile id="880">
   <animation>
    <frame tileid="880" duration="1000"/>
    <frame tileid="934" duration="1000"/>
   </animation>
  </tile>
  <tile id="881">
   <properties>
    <property name="Water" type="bool" value="true"/>
   </properties>
  </tile>
  <tile id="882">
   <properties>
    <property name="Water" type="bool" value="true"/>
   </properties>
  </tile>
  <tile id="883">
   <properties>
    <property name="Water" type="bool" value="true"/>
   </properties>
  </tile>
  <tile id="886">
   <properties>
    <property name="Water" type="bool" value="true"/>
   </properties>
  </tile>
  <tile id="887">
   <properties>
    <property name="Water" type="bool" value="true"/>
   </properties>
  </tile>
  <tile id="888">
   <properties>
    <property name="Water" type="bool" value="true"/>
   </properties>
  </tile>
  <tile id="891">
   <properties>
    <property name="Type" value="Dirt"/>
   </properties>
  </tile>
  <tile id="892">
   <properties>
    <property name="Type" value="Dirt"/>
   </properties>
  </tile>
  <tile id="893">
   <properties>
    <property name="Type" value="Dirt"/>
   </properties>
  </tile>
  <tile id="894">
   <properties>
    <property name="Type" value="Dirt"/>
   </properties>
  </tile>
  <tile id="895">
   <properties>
    <property name="Type" value="Dirt"/>
   </properties>
  </tile>
  <tile id="896">
   <properties>
    <property name="BeachSpawn" type="bool" value="true"/>
    <property name="Buildable" type="bool" value="true"/>
    <property name="NoSprinklers" type="bool" value="true"/>
    <property name="Type" value="Dirt"/>
   </properties>
  </tile>
  <tile id="897">
   <properties>
    <property name="BeachSpawn" type="bool" value="true"/>
    <property name="Buildable" type="bool" value="true"/>
    <property name="NoSprinklers" type="bool" value="true"/>
    <property name="Type" value="Dirt"/>
   </properties>
  </tile>
  <tile id="898">
   <properties>
    <property name="BeachSpawn" type="bool" value="true"/>
    <property name="Buildable" type="bool" value="true"/>
    <property name="NoSprinklers" type="bool" value="true"/>
    <property name="Type" value="Dirt"/>
   </properties>
  </tile>
  <tile id="899">
   <properties>
    <property name="NoSpawn" value="All"/>
    <property name="Type" value="Wood"/>
   </properties>
  </tile>
  <tile id="900">
   <properties>
    <property name="NoSpawn" value="All"/>
    <property name="Type" value="Wood"/>
   </properties>
  </tile>
  <tile id="901">
   <properties>
    <property name="NoSpawn" value="All"/>
    <property name="Type" value="Wood"/>
   </properties>
  </tile>
  <tile id="908">
   <properties>
    <property name="Water" type="bool" value="true"/>
   </properties>
  </tile>
  <tile id="909">
   <properties>
    <property name="Water" type="bool" value="true"/>
   </properties>
  </tile>
  <tile id="910">
   <properties>
    <property name="Water" type="bool" value="true"/>
   </properties>
  </tile>
  <tile id="911">
   <properties>
    <property name="Water" type="bool" value="true"/>
   </properties>
  </tile>
  <tile id="912">
   <properties>
    <property name="Water" type="bool" value="true"/>
   </properties>
  </tile>
  <tile id="913">
   <properties>
    <property name="Water" type="bool" value="true"/>
   </properties>
  </tile>
  <tile id="914">
   <properties>
    <property name="Water" type="bool" value="true"/>
   </properties>
  </tile>
  <tile id="915">
   <properties>
    <property name="Water" type="bool" value="true"/>
   </properties>
  </tile>
  <tile id="916">
   <properties>
    <property name="Water" type="bool" value="true"/>
   </properties>
  </tile>
  <tile id="917">
   <properties>
    <property name="Water" type="bool" value="true"/>
   </properties>
  </tile>
  <tile id="918">
   <properties>
    <property name="Type" value="Dirt"/>
   </properties>
  </tile>
  <tile id="919">
   <properties>
    <property name="Type" value="Dirt"/>
   </properties>
  </tile>
  <tile id="920">
   <properties>
    <property name="Type" value="Dirt"/>
   </properties>
  </tile>
  <tile id="921">
   <properties>
    <property name="NPCBarrier" type="bool" value="true"/>
    <property name="NoSpawn" value="All"/>
    <property name="Type" value="Wood"/>
   </properties>
  </tile>
  <tile id="922">
   <properties>
    <property name="NPCBarrier" type="bool" value="true"/>
    <property name="NoSpawn" value="All"/>
    <property name="Type" value="Wood"/>
   </properties>
  </tile>
  <tile id="923">
   <properties>
    <property name="BeachSpawn" type="bool" value="true"/>
    <property name="Buildable" type="bool" value="true"/>
    <property name="NoSprinklers" type="bool" value="true"/>
    <property name="Type" value="Dirt"/>
   </properties>
  </tile>
  <tile id="924">
   <properties>
    <property name="BeachSpawn" type="bool" value="true"/>
    <property name="Buildable" type="bool" value="true"/>
    <property name="NoSprinklers" type="bool" value="true"/>
    <property name="Type" value="Dirt"/>
   </properties>
  </tile>
  <tile id="925">
   <properties>
    <property name="BeachSpawn" type="bool" value="true"/>
    <property name="Buildable" type="bool" value="true"/>
    <property name="NoSprinklers" type="bool" value="true"/>
    <property name="Type" value="Dirt"/>
   </properties>
  </tile>
  <tile id="926">
   <properties>
    <property name="NoSpawn" value="All"/>
    <property name="Type" value="Wood"/>
   </properties>
  </tile>
  <tile id="927">
   <properties>
    <property name="NoSpawn" value="All"/>
    <property name="Type" value="Wood"/>
   </properties>
  </tile>
  <tile id="928">
   <properties>
    <property name="NoSpawn" value="All"/>
    <property name="Type" value="Wood"/>
   </properties>
  </tile>
  <tile id="935">
   <properties>
    <property name="Water" type="bool" value="true"/>
   </properties>
  </tile>
  <tile id="936">
   <properties>
    <property name="Water" type="bool" value="true"/>
   </properties>
  </tile>
  <tile id="937">
   <properties>
    <property name="Water" type="bool" value="true"/>
   </properties>
  </tile>
  <tile id="938">
   <properties>
    <property name="Water" type="bool" value="true"/>
   </properties>
  </tile>
  <tile id="939">
   <properties>
    <property name="Water" type="bool" value="true"/>
   </properties>
  </tile>
  <tile id="940">
   <properties>
    <property name="Water" type="bool" value="true"/>
   </properties>
  </tile>
  <tile id="941">
   <properties>
    <property name="Water" type="bool" value="true"/>
   </properties>
  </tile>
  <tile id="942">
   <properties>
    <property name="Water" type="bool" value="true"/>
   </properties>
  </tile>
  <tile id="943">
   <properties>
    <property name="Water" type="bool" value="true"/>
   </properties>
  </tile>
  <tile id="944">
   <properties>
    <property name="Water" type="bool" value="true"/>
   </properties>
  </tile>
  <tile id="945">
   <properties>
    <property name="BeachSpawn" type="bool" value="true"/>
    <property name="Buildable" type="bool" value="true"/>
    <property name="NoSprinklers" type="bool" value="true"/>
    <property name="Type" value="Dirt"/>
   </properties>
  </tile>
  <tile id="946">
   <properties>
    <property name="BeachSpawn" type="bool" value="true"/>
    <property name="Buildable" type="bool" value="true"/>
    <property name="NoSprinklers" type="bool" value="true"/>
    <property name="Type" value="Dirt"/>
   </properties>
  </tile>
  <tile id="947">
   <properties>
    <property name="BeachSpawn" type="bool" value="true"/>
    <property name="Buildable" type="bool" value="true"/>
    <property name="NoSprinklers" type="bool" value="true"/>
    <property name="Type" value="Dirt"/>
   </properties>
  </tile>
  <tile id="948">
   <properties>
    <property name="NPCBarrier" type="bool" value="true"/>
    <property name="NoSpawn" value="All"/>
    <property name="Type" value="Wood"/>
   </properties>
  </tile>
  <tile id="949">
   <properties>
    <property name="NPCBarrier" type="bool" value="true"/>
    <property name="NoSpawn" value="All"/>
    <property name="Type" value="Wood"/>
   </properties>
  </tile>
  <tile id="956">
   <properties>
    <property name="BeachSpawn" type="bool" value="true"/>
    <property name="Buildable" type="bool" value="true"/>
    <property name="NoSprinklers" type="bool" value="true"/>
    <property name="Type" value="Dirt"/>
   </properties>
  </tile>
  <tile id="957">
   <properties>
    <property name="BeachSpawn" type="bool" value="true"/>
    <property name="Buildable" type="bool" value="true"/>
    <property name="NoSprinklers" type="bool" value="true"/>
    <property name="Type" value="Dirt"/>
   </properties>
  </tile>
  <tile id="958">
   <properties>
    <property name="BeachSpawn" type="bool" value="true"/>
    <property name="Buildable" type="bool" value="true"/>
    <property name="NoSprinklers" type="bool" value="true"/>
    <property name="Type" value="Dirt"/>
   </properties>
  </tile>
  <tile id="959">
   <properties>
    <property name="BeachSpawn" type="bool" value="true"/>
    <property name="Buildable" type="bool" value="true"/>
    <property name="NoSprinklers" type="bool" value="true"/>
    <property name="Type" value="Dirt"/>
   </properties>
  </tile>
  <tile id="960">
   <properties>
    <property name="BeachSpawn" type="bool" value="true"/>
    <property name="Buildable" type="bool" value="true"/>
    <property name="NoSprinklers" type="bool" value="true"/>
    <property name="Type" value="Dirt"/>
   </properties>
  </tile>
  <tile id="961">
   <properties>
    <property name="BeachSpawn" type="bool" value="true"/>
    <property name="Buildable" type="bool" value="true"/>
    <property name="NoSprinklers" type="bool" value="true"/>
    <property name="Type" value="Dirt"/>
   </properties>
  </tile>
  <tile id="962">
   <properties>
    <property name="Water" type="bool" value="true"/>
   </properties>
  </tile>
  <tile id="963">
   <properties>
    <property name="Water" type="bool" value="true"/>
   </properties>
  </tile>
  <tile id="964">
   <properties>
    <property name="Water" type="bool" value="true"/>
   </properties>
  </tile>
  <tile id="965">
   <properties>
    <property name="Water" type="bool" value="true"/>
   </properties>
  </tile>
  <tile id="966">
   <properties>
    <property name="Water" type="bool" value="true"/>
   </properties>
  </tile>
  <tile id="967">
   <properties>
    <property name="Water" type="bool" value="true"/>
   </properties>
  </tile>
  <tile id="968">
   <properties>
    <property name="Water" type="bool" value="true"/>
   </properties>
  </tile>
  <tile id="969">
   <properties>
    <property name="Water" type="bool" value="true"/>
   </properties>
  </tile>
  <tile id="970">
   <properties>
    <property name="Water" type="bool" value="true"/>
   </properties>
  </tile>
  <tile id="971">
   <properties>
    <property name="Water" type="bool" value="true"/>
   </properties>
  </tile>
  <tile id="972">
   <properties>
    <property name="BeachSpawn" type="bool" value="true"/>
    <property name="Buildable" type="bool" value="true"/>
    <property name="NoSprinklers" type="bool" value="true"/>
    <property name="Type" value="Dirt"/>
   </properties>
  </tile>
  <tile id="973">
   <properties>
    <property name="BeachSpawn" type="bool" value="true"/>
    <property name="Buildable" type="bool" value="true"/>
    <property name="NoSprinklers" type="bool" value="true"/>
    <property name="Type" value="Dirt"/>
   </properties>
  </tile>
  <tile id="974">
   <properties>
    <property name="BeachSpawn" type="bool" value="true"/>
    <property name="Buildable" type="bool" value="true"/>
    <property name="NoSprinklers" type="bool" value="true"/>
    <property name="Type" value="Dirt"/>
   </properties>
  </tile>
  <tile id="975">
   <properties>
    <property name="NPCBarrier" type="bool" value="true"/>
    <property name="NoSpawn" value="All"/>
    <property name="Type" value="Wood"/>
   </properties>
  </tile>
  <tile id="976">
   <properties>
    <property name="NPCBarrier" type="bool" value="true"/>
    <property name="NoSpawn" value="All"/>
    <property name="Type" value="Wood"/>
   </properties>
  </tile>
  <tile id="980">
   <properties>
    <property name="NPCBarrier" type="bool" value="true"/>
    <property name="NoSpawn" value="All"/>
    <property name="Type" value="Wood"/>
   </properties>
  </tile>
  <tile id="981">
   <properties>
    <property name="NPCBarrier" type="bool" value="true"/>
    <property name="NoSpawn" value="All"/>
    <property name="Type" value="Wood"/>
   </properties>
  </tile>
  <tile id="982">
   <properties>
    <property name="NPCBarrier" type="bool" value="true"/>
    <property name="NoSpawn" value="All"/>
    <property name="Type" value="Wood"/>
   </properties>
  </tile>
  <tile id="983">
   <properties>
    <property name="BeachSpawn" type="bool" value="true"/>
    <property name="Buildable" type="bool" value="true"/>
    <property name="NoSprinklers" type="bool" value="true"/>
    <property name="Type" value="Dirt"/>
   </properties>
  </tile>
  <tile id="984">
   <properties>
    <property name="BeachSpawn" type="bool" value="true"/>
    <property name="Buildable" type="bool" value="true"/>
    <property name="NoSprinklers" type="bool" value="true"/>
    <property name="Type" value="Dirt"/>
   </properties>
  </tile>
  <tile id="985">
   <properties>
    <property name="BeachSpawn" type="bool" value="true"/>
    <property name="Buildable" type="bool" value="true"/>
    <property name="NoSprinklers" type="bool" value="true"/>
    <property name="Type" value="Dirt"/>
   </properties>
  </tile>
  <tile id="986">
   <properties>
    <property name="BeachSpawn" type="bool" value="true"/>
    <property name="Buildable" type="bool" value="true"/>
    <property name="NoSprinklers" type="bool" value="true"/>
    <property name="Type" value="Dirt"/>
   </properties>
  </tile>
  <tile id="987">
   <properties>
    <property name="BeachSpawn" type="bool" value="true"/>
    <property name="Buildable" type="bool" value="true"/>
    <property name="NoSprinklers" type="bool" value="true"/>
    <property name="Type" value="Dirt"/>
   </properties>
  </tile>
  <tile id="988">
   <properties>
    <property name="BeachSpawn" type="bool" value="true"/>
    <property name="Buildable" type="bool" value="true"/>
    <property name="NoSprinklers" type="bool" value="true"/>
    <property name="Type" value="Dirt"/>
   </properties>
  </tile>
  <tile id="989">
   <properties>
    <property name="Water" type="bool" value="true"/>
   </properties>
  </tile>
  <tile id="990">
   <properties>
    <property name="Water" type="bool" value="true"/>
   </properties>
  </tile>
  <tile id="991">
   <properties>
    <property name="Water" type="bool" value="true"/>
   </properties>
  </tile>
  <tile id="992">
   <properties>
    <property name="Water" type="bool" value="true"/>
   </properties>
  </tile>
  <tile id="993">
   <properties>
    <property name="Water" type="bool" value="true"/>
   </properties>
  </tile>
  <tile id="994">
   <properties>
    <property name="Water" type="bool" value="true"/>
   </properties>
  </tile>
  <tile id="995">
   <properties>
    <property name="Water" type="bool" value="true"/>
   </properties>
  </tile>
  <tile id="996">
   <properties>
    <property name="Water" type="bool" value="true"/>
   </properties>
  </tile>
  <tile id="997">
   <properties>
    <property name="Water" type="bool" value="true"/>
   </properties>
  </tile>
  <tile id="998">
   <properties>
    <property name="Water" type="bool" value="true"/>
   </properties>
  </tile>
  <tile id="999">
   <properties>
    <property name="BeachSpawn" type="bool" value="true"/>
    <property name="Buildable" type="bool" value="true"/>
    <property name="Diggable" type="bool" value="true"/>
    <property name="NoSprinklers" type="bool" value="true"/>
    <property name="Type" value="Dirt"/>
   </properties>
  </tile>
  <tile id="1000">
   <properties>
    <property name="BeachSpawn" type="bool" value="true"/>
    <property name="Buildable" type="bool" value="true"/>
    <property name="Diggable" type="bool" value="true"/>
    <property name="NoSprinklers" type="bool" value="true"/>
    <property name="Type" value="Dirt"/>
   </properties>
  </tile>
  <tile id="1001">
   <properties>
    <property name="BeachSpawn" type="bool" value="true"/>
    <property name="Buildable" type="bool" value="true"/>
    <property name="Diggable" type="bool" value="true"/>
    <property name="NoSprinklers" type="bool" value="true"/>
    <property name="Type" value="Dirt"/>
   </properties>
  </tile>
  <tile id="1002">
   <properties>
    <property name="BeachSpawn" type="bool" value="true"/>
    <property name="Buildable" type="bool" value="true"/>
    <property name="Diggable" type="bool" value="true"/>
    <property name="NoSprinklers" type="bool" value="true"/>
    <property name="Type" value="Dirt"/>
   </properties>
  </tile>
  <tile id="1003">
   <properties>
    <property name="BeachSpawn" type="bool" value="true"/>
    <property name="Buildable" type="bool" value="true"/>
    <property name="Diggable" type="bool" value="true"/>
    <property name="NoSprinklers" type="bool" value="true"/>
    <property name="Type" value="Dirt"/>
   </properties>
  </tile>
  <tile id="1004">
   <properties>
    <property name="BeachSpawn" type="bool" value="true"/>
    <property name="Buildable" type="bool" value="true"/>
    <property name="Diggable" type="bool" value="true"/>
    <property name="NoSprinklers" type="bool" value="true"/>
    <property name="Type" value="Dirt"/>
   </properties>
  </tile>
  <tile id="1005">
   <properties>
    <property name="BeachSpawn" type="bool" value="true"/>
    <property name="Buildable" type="bool" value="true"/>
    <property name="Diggable" type="bool" value="true"/>
    <property name="NoSprinklers" type="bool" value="true"/>
    <property name="Type" value="Dirt"/>
   </properties>
  </tile>
  <tile id="1006">
   <properties>
    <property name="BeachSpawn" type="bool" value="true"/>
    <property name="Buildable" type="bool" value="true"/>
    <property name="Diggable" type="bool" value="true"/>
    <property name="NoSprinklers" type="bool" value="true"/>
    <property name="Type" value="Dirt"/>
   </properties>
  </tile>
  <tile id="1007">
   <properties>
    <property name="NoSprinklers" type="bool" value="true"/>
    <property name="Passable" type="bool" value="true"/>
    <property name="Type" value="Dirt"/>
   </properties>
   <animation>
    <frame tileid="1007" duration="250"/>
    <frame tileid="1007" duration="250"/>
    <frame tileid="1007" duration="250"/>
    <frame tileid="1007" duration="250"/>
    <frame tileid="1008" duration="250"/>
    <frame tileid="1009" duration="250"/>
    <frame tileid="1010" duration="250"/>
    <frame tileid="1010" duration="250"/>
    <frame tileid="1011" duration="250"/>
    <frame tileid="1012" duration="250"/>
    <frame tileid="1013" duration="250"/>
    <frame tileid="1007" duration="250"/>
    <frame tileid="1007" duration="250"/>
   </animation>
  </tile>
  <tile id="1008">
   <properties>
    <property name="NoSprinklers" type="bool" value="true"/>
    <property name="Passable" type="bool" value="true"/>
    <property name="Type" value="Dirt"/>
   </properties>
  </tile>
  <tile id="1009">
   <properties>
    <property name="NoSprinklers" type="bool" value="true"/>
    <property name="Passable" type="bool" value="true"/>
    <property name="Type" value="Dirt"/>
   </properties>
  </tile>
  <tile id="1010">
   <properties>
    <property name="NoSprinklers" type="bool" value="true"/>
    <property name="Passable" type="bool" value="true"/>
    <property name="Type" value="Dirt"/>
   </properties>
  </tile>
  <tile id="1011">
   <properties>
    <property name="NoSprinklers" type="bool" value="true"/>
    <property name="Passable" type="bool" value="true"/>
    <property name="Type" value="Dirt"/>
   </properties>
  </tile>
  <tile id="1012">
   <properties>
    <property name="NoSprinklers" type="bool" value="true"/>
    <property name="Passable" type="bool" value="true"/>
    <property name="Type" value="Dirt"/>
   </properties>
  </tile>
  <tile id="1013">
   <properties>
    <property name="NoSprinklers" type="bool" value="true"/>
    <property name="Passable" type="bool" value="true"/>
    <property name="Type" value="Dirt"/>
   </properties>
  </tile>
  <tile id="1014">
   <properties>
    <property name="NoSprinklers" type="bool" value="true"/>
    <property name="Passable" type="bool" value="true"/>
    <property name="Type" value="Dirt"/>
   </properties>
   <animation>
    <frame tileid="1014" duration="250"/>
    <frame tileid="1014" duration="250"/>
    <frame tileid="1014" duration="250"/>
    <frame tileid="1014" duration="250"/>
    <frame tileid="1041" duration="250"/>
    <frame tileid="1041" duration="250"/>
    <frame tileid="1068" duration="250"/>
    <frame tileid="1068" duration="250"/>
    <frame tileid="1041" duration="250"/>
    <frame tileid="1041" duration="250"/>
    <frame tileid="1014" duration="250"/>
    <frame tileid="1014" duration="250"/>
    <frame tileid="1014" duration="250"/>
   </animation>
  </tile>
  <tile id="1015">
   <properties>
    <property name="NoSprinklers" type="bool" value="true"/>
    <property name="Passable" type="bool" value="true"/>
    <property name="Type" value="Dirt"/>
   </properties>
   <animation>
    <frame tileid="1015" duration="250"/>
    <frame tileid="1015" duration="250"/>
    <frame tileid="1015" duration="250"/>
    <frame tileid="1015" duration="250"/>
    <frame tileid="1042" duration="250"/>
    <frame tileid="1042" duration="250"/>
    <frame tileid="1069" duration="250"/>
    <frame tileid="1069" duration="250"/>
    <frame tileid="1042" duration="250"/>
    <frame tileid="1042" duration="250"/>
    <frame tileid="1015" duration="250"/>
    <frame tileid="1015" duration="250"/>
    <frame tileid="1015" duration="250"/>
   </animation>
  </tile>
  <tile id="1016">
   <properties>
    <property name="Water" type="bool" value="true"/>
   </properties>
  </tile>
  <tile id="1017">
   <properties>
    <property name="Water" type="bool" value="true"/>
   </properties>
  </tile>
  <tile id="1018">
   <properties>
    <property name="Water" type="bool" value="true"/>
   </properties>
  </tile>
  <tile id="1021">
   <properties>
    <property name="Water" type="bool" value="true"/>
   </properties>
  </tile>
  <tile id="1022">
   <properties>
    <property name="Water" type="bool" value="true"/>
   </properties>
  </tile>
  <tile id="1023">
   <properties>
    <property name="Water" type="bool" value="true"/>
   </properties>
  </tile>
  <tile id="1026">
   <properties>
    <property name="BeachSpawn" type="bool" value="true"/>
    <property name="Buildable" type="bool" value="true"/>
    <property name="Diggable" type="bool" value="true"/>
    <property name="NoSprinklers" type="bool" value="true"/>
    <property name="Type" value="Dirt"/>
   </properties>
  </tile>
  <tile id="1027">
   <properties>
    <property name="BeachSpawn" type="bool" value="true"/>
    <property name="Buildable" type="bool" value="true"/>
    <property name="Diggable" type="bool" value="true"/>
    <property name="NoSprinklers" type="bool" value="true"/>
    <property name="Type" value="Dirt"/>
   </properties>
  </tile>
  <tile id="1028">
   <properties>
    <property name="BeachSpawn" type="bool" value="true"/>
    <property name="Buildable" type="bool" value="true"/>
    <property name="Diggable" type="bool" value="true"/>
    <property name="NoSprinklers" type="bool" value="true"/>
    <property name="Type" value="Dirt"/>
   </properties>
  </tile>
  <tile id="1029">
   <properties>
    <property name="BeachSpawn" type="bool" value="true"/>
    <property name="Buildable" type="bool" value="true"/>
    <property name="Diggable" type="bool" value="true"/>
    <property name="NoSprinklers" type="bool" value="true"/>
    <property name="Type" value="Dirt"/>
   </properties>
  </tile>
  <tile id="1030">
   <properties>
    <property name="BeachSpawn" type="bool" value="true"/>
    <property name="Buildable" type="bool" value="true"/>
    <property name="Diggable" type="bool" value="true"/>
    <property name="NoSprinklers" type="bool" value="true"/>
    <property name="Type" value="Dirt"/>
   </properties>
  </tile>
  <tile id="1031">
   <properties>
    <property name="BeachSpawn" type="bool" value="true"/>
    <property name="Buildable" type="bool" value="true"/>
    <property name="Diggable" type="bool" value="true"/>
    <property name="NoSprinklers" type="bool" value="true"/>
    <property name="Type" value="Dirt"/>
   </properties>
  </tile>
  <tile id="1032">
   <properties>
    <property name="BeachSpawn" type="bool" value="true"/>
    <property name="Buildable" type="bool" value="true"/>
    <property name="Diggable" type="bool" value="true"/>
    <property name="NoSprinklers" type="bool" value="true"/>
    <property name="Type" value="Dirt"/>
   </properties>
  </tile>
  <tile id="1033">
   <properties>
    <property name="BeachSpawn" type="bool" value="true"/>
    <property name="Buildable" type="bool" value="true"/>
    <property name="Diggable" type="bool" value="true"/>
    <property name="NoSprinklers" type="bool" value="true"/>
    <property name="Type" value="Dirt"/>
   </properties>
  </tile>
  <tile id="1034">
   <properties>
    <property name="NoSprinklers" type="bool" value="true"/>
    <property name="Passable" type="bool" value="true"/>
    <property name="Type" value="Dirt"/>
   </properties>
   <animation>
    <frame tileid="1034" duration="250"/>
    <frame tileid="1034" duration="250"/>
    <frame tileid="1034" duration="250"/>
    <frame tileid="1034" duration="250"/>
    <frame tileid="1035" duration="250"/>
    <frame tileid="1036" duration="250"/>
    <frame tileid="1037" duration="250"/>
    <frame tileid="1037" duration="250"/>
    <frame tileid="1038" duration="250"/>
    <frame tileid="1039" duration="250"/>
    <frame tileid="1040" duration="250"/>
    <frame tileid="1034" duration="250"/>
    <frame tileid="1034" duration="250"/>
   </animation>
  </tile>
  <tile id="1035">
   <properties>
    <property name="NoSprinklers" type="bool" value="true"/>
    <property name="Passable" type="bool" value="true"/>
    <property name="Type" value="Dirt"/>
   </properties>
  </tile>
  <tile id="1036">
   <properties>
    <property name="NoSprinklers" type="bool" value="true"/>
    <property name="Passable" type="bool" value="true"/>
    <property name="Type" value="Dirt"/>
   </properties>
  </tile>
  <tile id="1037">
   <properties>
    <property name="NoSprinklers" type="bool" value="true"/>
    <property name="Passable" type="bool" value="true"/>
    <property name="Type" value="Dirt"/>
   </properties>
  </tile>
  <tile id="1038">
   <properties>
    <property name="NoSprinklers" type="bool" value="true"/>
    <property name="Passable" type="bool" value="true"/>
    <property name="Type" value="Dirt"/>
   </properties>
  </tile>
  <tile id="1039">
   <properties>
    <property name="NoSprinklers" type="bool" value="true"/>
    <property name="Passable" type="bool" value="true"/>
    <property name="Type" value="Dirt"/>
   </properties>
  </tile>
  <tile id="1040">
   <properties>
    <property name="NoSprinklers" type="bool" value="true"/>
    <property name="Passable" type="bool" value="true"/>
    <property name="Type" value="Dirt"/>
   </properties>
  </tile>
  <tile id="1041">
   <properties>
    <property name="NoSprinklers" type="bool" value="true"/>
    <property name="Passable" type="bool" value="true"/>
    <property name="Type" value="Dirt"/>
   </properties>
  </tile>
  <tile id="1042">
   <properties>
    <property name="NoSprinklers" type="bool" value="true"/>
    <property name="Passable" type="bool" value="true"/>
    <property name="Type" value="Dirt"/>
   </properties>
  </tile>
  <tile id="1043">
   <properties>
    <property name="Water" type="bool" value="true"/>
   </properties>
  </tile>
  <tile id="1044">
   <properties>
    <property name="Water" type="bool" value="true"/>
   </properties>
  </tile>
  <tile id="1045">
   <properties>
    <property name="Water" type="bool" value="true"/>
   </properties>
  </tile>
  <tile id="1046">
   <properties>
    <property name="Water" type="bool" value="true"/>
   </properties>
  </tile>
  <tile id="1047">
   <properties>
    <property name="Water" type="bool" value="true"/>
   </properties>
  </tile>
  <tile id="1048">
   <properties>
    <property name="Water" type="bool" value="true"/>
   </properties>
  </tile>
  <tile id="1049">
   <properties>
    <property name="Water" type="bool" value="true"/>
   </properties>
  </tile>
  <tile id="1050">
   <properties>
    <property name="Water" type="bool" value="true"/>
   </properties>
  </tile>
  <tile id="1051">
   <properties>
    <property name="Water" type="bool" value="true"/>
   </properties>
  </tile>
  <tile id="1052">
   <properties>
    <property name="Water" type="bool" value="true"/>
   </properties>
  </tile>
  <tile id="1053">
   <properties>
    <property name="BeachSpawn" type="bool" value="true"/>
    <property name="Buildable" type="bool" value="true"/>
    <property name="Diggable" type="bool" value="true"/>
    <property name="NoSprinklers" type="bool" value="true"/>
    <property name="Type" value="Dirt"/>
   </properties>
  </tile>
  <tile id="1054">
   <properties>
    <property name="BeachSpawn" type="bool" value="true"/>
    <property name="Buildable" type="bool" value="true"/>
    <property name="Diggable" type="bool" value="true"/>
    <property name="NoSprinklers" type="bool" value="true"/>
    <property name="Type" value="Dirt"/>
   </properties>
  </tile>
  <tile id="1055">
   <properties>
    <property name="BeachSpawn" type="bool" value="true"/>
    <property name="Buildable" type="bool" value="true"/>
    <property name="Diggable" type="bool" value="true"/>
    <property name="NoSprinklers" type="bool" value="true"/>
    <property name="Type" value="Dirt"/>
   </properties>
  </tile>
  <tile id="1056">
   <properties>
    <property name="BeachSpawn" type="bool" value="true"/>
    <property name="Buildable" type="bool" value="true"/>
    <property name="Diggable" type="bool" value="true"/>
    <property name="NoSprinklers" type="bool" value="true"/>
    <property name="Type" value="Dirt"/>
   </properties>
  </tile>
  <tile id="1057">
   <properties>
    <property name="BeachSpawn" type="bool" value="true"/>
    <property name="Buildable" type="bool" value="true"/>
    <property name="Diggable" type="bool" value="true"/>
    <property name="NoSprinklers" type="bool" value="true"/>
    <property name="Type" value="Dirt"/>
   </properties>
  </tile>
  <tile id="1058">
   <properties>
    <property name="BeachSpawn" type="bool" value="true"/>
    <property name="Buildable" type="bool" value="true"/>
    <property name="Diggable" type="bool" value="true"/>
    <property name="NoSprinklers" type="bool" value="true"/>
    <property name="Type" value="Dirt"/>
   </properties>
  </tile>
  <tile id="1059">
   <properties>
    <property name="BeachSpawn" type="bool" value="true"/>
    <property name="Buildable" type="bool" value="true"/>
    <property name="Diggable" type="bool" value="true"/>
    <property name="NoSprinklers" type="bool" value="true"/>
    <property name="Type" value="Dirt"/>
   </properties>
  </tile>
  <tile id="1060">
   <properties>
    <property name="BeachSpawn" type="bool" value="true"/>
    <property name="Buildable" type="bool" value="true"/>
    <property name="Diggable" type="bool" value="true"/>
    <property name="NoSprinklers" type="bool" value="true"/>
    <property name="Type" value="Dirt"/>
   </properties>
  </tile>
  <tile id="1061">
   <properties>
    <property name="NoSprinklers" type="bool" value="true"/>
    <property name="Passable" type="bool" value="true"/>
    <property name="Type" value="Dirt"/>
   </properties>
   <animation>
    <frame tileid="1061" duration="250"/>
    <frame tileid="1061" duration="250"/>
    <frame tileid="1061" duration="250"/>
    <frame tileid="1061" duration="250"/>
    <frame tileid="1062" duration="250"/>
    <frame tileid="1063" duration="250"/>
    <frame tileid="1064" duration="250"/>
    <frame tileid="1064" duration="250"/>
    <frame tileid="1065" duration="250"/>
    <frame tileid="1066" duration="250"/>
    <frame tileid="1067" duration="250"/>
    <frame tileid="1061" duration="250"/>
    <frame tileid="1061" duration="250"/>
   </animation>
  </tile>
  <tile id="1062">
   <properties>
    <property name="NoSprinklers" type="bool" value="true"/>
    <property name="Passable" type="bool" value="true"/>
    <property name="Type" value="Dirt"/>
   </properties>
  </tile>
  <tile id="1063">
   <properties>
    <property name="NoSprinklers" type="bool" value="true"/>
    <property name="Passable" type="bool" value="true"/>
    <property name="Type" value="Dirt"/>
   </properties>
  </tile>
  <tile id="1064">
   <properties>
    <property name="NoSprinklers" type="bool" value="true"/>
    <property name="Passable" type="bool" value="true"/>
    <property name="Type" value="Dirt"/>
   </properties>
  </tile>
  <tile id="1065">
   <properties>
    <property name="NoSprinklers" type="bool" value="true"/>
    <property name="Passable" type="bool" value="true"/>
    <property name="Type" value="Dirt"/>
   </properties>
  </tile>
  <tile id="1066">
   <properties>
    <property name="NoSprinklers" type="bool" value="true"/>
    <property name="Passable" type="bool" value="true"/>
    <property name="Type" value="Dirt"/>
   </properties>
  </tile>
  <tile id="1067">
   <properties>
    <property name="NoSprinklers" type="bool" value="true"/>
    <property name="Passable" type="bool" value="true"/>
    <property name="Type" value="Dirt"/>
   </properties>
  </tile>
  <tile id="1068">
   <properties>
    <property name="NoSprinklers" type="bool" value="true"/>
    <property name="Passable" type="bool" value="true"/>
    <property name="Type" value="Dirt"/>
   </properties>
  </tile>
  <tile id="1069">
   <properties>
    <property name="NoSprinklers" type="bool" value="true"/>
    <property name="Passable" type="bool" value="true"/>
    <property name="Type" value="Dirt"/>
   </properties>
  </tile>
  <tile id="1070">
   <properties>
    <property name="Water" type="bool" value="true"/>
   </properties>
  </tile>
  <tile id="1071">
   <properties>
    <property name="Water" type="bool" value="true"/>
   </properties>
  </tile>
  <tile id="1072">
   <properties>
    <property name="Water" type="bool" value="true"/>
   </properties>
  </tile>
  <tile id="1073">
   <properties>
    <property name="Water" type="bool" value="true"/>
   </properties>
  </tile>
  <tile id="1074">
   <properties>
    <property name="Water" type="bool" value="true"/>
   </properties>
  </tile>
  <tile id="1075">
   <properties>
    <property name="Water" type="bool" value="true"/>
   </properties>
  </tile>
  <tile id="1076">
   <properties>
    <property name="Water" type="bool" value="true"/>
   </properties>
  </tile>
  <tile id="1077">
   <properties>
    <property name="Water" type="bool" value="true"/>
   </properties>
  </tile>
  <tile id="1078">
   <properties>
    <property name="Water" type="bool" value="true"/>
   </properties>
  </tile>
  <tile id="1079">
   <properties>
    <property name="Water" type="bool" value="true"/>
   </properties>
  </tile>
  <tile id="1080">
   <properties>
    <property name="BeachSpawn" type="bool" value="true"/>
    <property name="Buildable" type="bool" value="true"/>
    <property name="Diggable" type="bool" value="true"/>
    <property name="NoSprinklers" type="bool" value="true"/>
    <property name="Type" value="Dirt"/>
   </properties>
  </tile>
  <tile id="1081">
   <properties>
    <property name="BeachSpawn" type="bool" value="true"/>
    <property name="Buildable" type="bool" value="true"/>
    <property name="Diggable" type="bool" value="true"/>
    <property name="NoSprinklers" type="bool" value="true"/>
    <property name="Type" value="Dirt"/>
   </properties>
  </tile>
  <tile id="1082">
   <properties>
    <property name="BeachSpawn" type="bool" value="true"/>
    <property name="Buildable" type="bool" value="true"/>
    <property name="Diggable" type="bool" value="true"/>
    <property name="NoSprinklers" type="bool" value="true"/>
    <property name="Type" value="Dirt"/>
   </properties>
  </tile>
  <tile id="1083">
   <properties>
    <property name="BeachSpawn" type="bool" value="true"/>
    <property name="Buildable" type="bool" value="true"/>
    <property name="Diggable" type="bool" value="true"/>
    <property name="NoSprinklers" type="bool" value="true"/>
    <property name="Type" value="Dirt"/>
   </properties>
  </tile>
  <tile id="1084">
   <properties>
    <property name="BeachSpawn" type="bool" value="true"/>
    <property name="Buildable" type="bool" value="true"/>
    <property name="Diggable" type="bool" value="true"/>
    <property name="NoSprinklers" type="bool" value="true"/>
    <property name="Type" value="Dirt"/>
   </properties>
  </tile>
  <tile id="1085">
   <properties>
    <property name="BeachSpawn" type="bool" value="true"/>
    <property name="Buildable" type="bool" value="true"/>
    <property name="Diggable" type="bool" value="true"/>
    <property name="NoSprinklers" type="bool" value="true"/>
    <property name="Type" value="Dirt"/>
   </properties>
  </tile>
  <tile id="1086">
   <properties>
    <property name="BeachSpawn" type="bool" value="true"/>
    <property name="Buildable" type="bool" value="true"/>
    <property name="Diggable" type="bool" value="true"/>
    <property name="NoSprinklers" type="bool" value="true"/>
    <property name="Type" value="Dirt"/>
   </properties>
  </tile>
  <tile id="1087">
   <properties>
    <property name="BeachSpawn" type="bool" value="true"/>
    <property name="Buildable" type="bool" value="true"/>
    <property name="Diggable" type="bool" value="true"/>
    <property name="NoSprinklers" type="bool" value="true"/>
    <property name="Type" value="Dirt"/>
   </properties>
  </tile>
  <tile id="1088">
   <properties>
    <property name="NoSprinklers" type="bool" value="true"/>
    <property name="Passable" type="bool" value="true"/>
    <property name="Type" value="Dirt"/>
   </properties>
   <animation>
    <frame tileid="1088" duration="250"/>
    <frame tileid="1088" duration="250"/>
    <frame tileid="1088" duration="250"/>
    <frame tileid="1088" duration="250"/>
    <frame tileid="1089" duration="250"/>
    <frame tileid="1090" duration="250"/>
    <frame tileid="1091" duration="250"/>
    <frame tileid="1091" duration="250"/>
    <frame tileid="1092" duration="250"/>
    <frame tileid="1093" duration="250"/>
    <frame tileid="1094" duration="250"/>
    <frame tileid="1088" duration="250"/>
    <frame tileid="1088" duration="250"/>
   </animation>
  </tile>
  <tile id="1089">
   <properties>
    <property name="NoSprinklers" type="bool" value="true"/>
    <property name="Passable" type="bool" value="true"/>
    <property name="Type" value="Dirt"/>
   </properties>
  </tile>
  <tile id="1090">
   <properties>
    <property name="NoSprinklers" type="bool" value="true"/>
    <property name="Passable" type="bool" value="true"/>
    <property name="Type" value="Dirt"/>
   </properties>
  </tile>
  <tile id="1091">
   <properties>
    <property name="NoSprinklers" type="bool" value="true"/>
    <property name="Passable" type="bool" value="true"/>
    <property name="Type" value="Dirt"/>
   </properties>
  </tile>
  <tile id="1092">
   <properties>
    <property name="NoSprinklers" type="bool" value="true"/>
    <property name="Passable" type="bool" value="true"/>
    <property name="Type" value="Dirt"/>
   </properties>
  </tile>
  <tile id="1093">
   <properties>
    <property name="NoSprinklers" type="bool" value="true"/>
    <property name="Passable" type="bool" value="true"/>
    <property name="Type" value="Dirt"/>
   </properties>
  </tile>
  <tile id="1094">
   <properties>
    <property name="NoSprinklers" type="bool" value="true"/>
    <property name="Passable" type="bool" value="true"/>
    <property name="Type" value="Dirt"/>
   </properties>
  </tile>
  <tile id="1095">
   <properties>
    <property name="BeachSpawn" type="bool" value="true"/>
    <property name="Buildable" type="bool" value="true"/>
    <property name="Diggable" type="bool" value="true"/>
    <property name="NoSprinklers" type="bool" value="true"/>
    <property name="Type" value="Dirt"/>
   </properties>
  </tile>
  <tile id="1096">
   <properties>
    <property name="BeachSpawn" type="bool" value="true"/>
    <property name="Buildable" type="bool" value="true"/>
    <property name="Diggable" type="bool" value="true"/>
    <property name="NoSprinklers" type="bool" value="true"/>
    <property name="Type" value="Dirt"/>
   </properties>
  </tile>
  <tile id="1097">
   <properties>
    <property name="Water" type="bool" value="true"/>
   </properties>
  </tile>
  <tile id="1098">
   <properties>
    <property name="Water" type="bool" value="true"/>
   </properties>
  </tile>
  <tile id="1099">
   <properties>
    <property name="Water" type="bool" value="true"/>
   </properties>
  </tile>
  <tile id="1100">
   <properties>
    <property name="Water" type="bool" value="true"/>
   </properties>
  </tile>
  <tile id="1101">
   <properties>
    <property name="Water" type="bool" value="true"/>
   </properties>
  </tile>
  <tile id="1102">
   <properties>
    <property name="Water" type="bool" value="true"/>
   </properties>
  </tile>
  <tile id="1103">
   <properties>
    <property name="Water" type="bool" value="true"/>
   </properties>
  </tile>
  <tile id="1104">
   <properties>
    <property name="Water" type="bool" value="true"/>
   </properties>
  </tile>
  <tile id="1105">
   <properties>
    <property name="Water" type="bool" value="true"/>
   </properties>
  </tile>
  <tile id="1106">
   <properties>
    <property name="Water" type="bool" value="true"/>
   </properties>
  </tile>
  <tile id="1107">
   <properties>
    <property name="BeachSpawn" type="bool" value="true"/>
    <property name="Buildable" type="bool" value="true"/>
    <property name="Diggable" type="bool" value="true"/>
    <property name="NoSprinklers" type="bool" value="true"/>
    <property name="Type" value="Dirt"/>
   </properties>
  </tile>
  <tile id="1108">
   <properties>
    <property name="BeachSpawn" type="bool" value="true"/>
    <property name="Buildable" type="bool" value="true"/>
    <property name="Diggable" type="bool" value="true"/>
    <property name="NoSprinklers" type="bool" value="true"/>
    <property name="Type" value="Dirt"/>
   </properties>
  </tile>
  <tile id="1109">
   <properties>
    <property name="BeachSpawn" type="bool" value="true"/>
    <property name="Buildable" type="bool" value="true"/>
    <property name="Diggable" type="bool" value="true"/>
    <property name="NoSprinklers" type="bool" value="true"/>
    <property name="Type" value="Dirt"/>
   </properties>
  </tile>
  <tile id="1110">
   <properties>
    <property name="BeachSpawn" type="bool" value="true"/>
    <property name="Buildable" type="bool" value="true"/>
    <property name="Diggable" type="bool" value="true"/>
    <property name="NoSprinklers" type="bool" value="true"/>
    <property name="Type" value="Dirt"/>
   </properties>
  </tile>
  <tile id="1111">
   <properties>
    <property name="BeachSpawn" type="bool" value="true"/>
    <property name="Buildable" type="bool" value="true"/>
    <property name="Diggable" type="bool" value="true"/>
    <property name="NoSprinklers" type="bool" value="true"/>
    <property name="Type" value="Dirt"/>
   </properties>
  </tile>
  <tile id="1112">
   <properties>
    <property name="BeachSpawn" type="bool" value="true"/>
    <property name="Buildable" type="bool" value="true"/>
    <property name="Diggable" type="bool" value="true"/>
    <property name="NoSprinklers" type="bool" value="true"/>
    <property name="Type" value="Dirt"/>
   </properties>
  </tile>
  <tile id="1113">
   <properties>
    <property name="BeachSpawn" type="bool" value="true"/>
    <property name="Buildable" type="bool" value="true"/>
    <property name="Diggable" type="bool" value="true"/>
    <property name="NoSprinklers" type="bool" value="true"/>
    <property name="Type" value="Dirt"/>
   </properties>
  </tile>
  <tile id="1114">
   <properties>
    <property name="BeachSpawn" type="bool" value="true"/>
    <property name="Buildable" type="bool" value="true"/>
    <property name="Diggable" type="bool" value="true"/>
    <property name="NoSprinklers" type="bool" value="true"/>
    <property name="Type" value="Dirt"/>
   </properties>
  </tile>
  <tile id="1115">
   <properties>
    <property name="NoSprinklers" type="bool" value="true"/>
    <property name="Passable" type="bool" value="true"/>
    <property name="Type" value="Dirt"/>
   </properties>
   <animation>
    <frame tileid="1115" duration="250"/>
    <frame tileid="1115" duration="250"/>
    <frame tileid="1115" duration="250"/>
    <frame tileid="1115" duration="250"/>
    <frame tileid="1116" duration="250"/>
    <frame tileid="1117" duration="250"/>
    <frame tileid="1118" duration="250"/>
    <frame tileid="1118" duration="250"/>
    <frame tileid="1119" duration="250"/>
    <frame tileid="1120" duration="250"/>
    <frame tileid="1121" duration="250"/>
    <frame tileid="1115" duration="250"/>
    <frame tileid="1115" duration="250"/>
   </animation>
  </tile>
  <tile id="1116">
   <properties>
    <property name="NoSprinklers" type="bool" value="true"/>
    <property name="Passable" type="bool" value="true"/>
    <property name="Type" value="Dirt"/>
   </properties>
  </tile>
  <tile id="1117">
   <properties>
    <property name="NoSprinklers" type="bool" value="true"/>
    <property name="Passable" type="bool" value="true"/>
    <property name="Type" value="Dirt"/>
   </properties>
  </tile>
  <tile id="1118">
   <properties>
    <property name="NoSprinklers" type="bool" value="true"/>
    <property name="Passable" type="bool" value="true"/>
    <property name="Type" value="Dirt"/>
   </properties>
  </tile>
  <tile id="1119">
   <properties>
    <property name="NoSprinklers" type="bool" value="true"/>
    <property name="Passable" type="bool" value="true"/>
    <property name="Type" value="Dirt"/>
   </properties>
  </tile>
  <tile id="1120">
   <properties>
    <property name="NoSprinklers" type="bool" value="true"/>
    <property name="Passable" type="bool" value="true"/>
    <property name="Type" value="Dirt"/>
   </properties>
  </tile>
  <tile id="1121">
   <properties>
    <property name="NoSprinklers" type="bool" value="true"/>
    <property name="Passable" type="bool" value="true"/>
    <property name="Type" value="Dirt"/>
   </properties>
  </tile>
  <tile id="1122">
   <properties>
    <property name="BeachSpawn" type="bool" value="true"/>
    <property name="Buildable" type="bool" value="true"/>
    <property name="Diggable" type="bool" value="true"/>
    <property name="NoSprinklers" type="bool" value="true"/>
    <property name="Type" value="Dirt"/>
   </properties>
  </tile>
  <tile id="1123">
   <properties>
    <property name="BeachSpawn" type="bool" value="true"/>
    <property name="Buildable" type="bool" value="true"/>
    <property name="Diggable" type="bool" value="true"/>
    <property name="NoSprinklers" type="bool" value="true"/>
    <property name="Type" value="Dirt"/>
   </properties>
  </tile>
  <tile id="1124">
   <properties>
    <property name="Water" type="bool" value="true"/>
   </properties>
  </tile>
  <tile id="1125">
   <properties>
    <property name="Water" type="bool" value="true"/>
   </properties>
  </tile>
  <tile id="1126">
   <properties>
    <property name="Water" type="bool" value="true"/>
   </properties>
  </tile>
  <tile id="1127">
   <properties>
    <property name="Water" type="bool" value="true"/>
   </properties>
  </tile>
  <tile id="1128">
   <properties>
    <property name="Water" type="bool" value="true"/>
   </properties>
  </tile>
  <tile id="1129">
   <properties>
    <property name="Water" type="bool" value="true"/>
   </properties>
  </tile>
  <tile id="1130">
   <properties>
    <property name="Water" type="bool" value="true"/>
   </properties>
  </tile>
  <tile id="1131">
   <properties>
    <property name="Water" type="bool" value="true"/>
   </properties>
  </tile>
  <tile id="1132">
   <properties>
    <property name="Water" type="bool" value="true"/>
   </properties>
  </tile>
  <tile id="1133">
   <properties>
    <property name="Water" type="bool" value="true"/>
   </properties>
  </tile>
  <tile id="1134">
   <properties>
    <property name="BeachSpawn" type="bool" value="true"/>
    <property name="Buildable" type="bool" value="true"/>
    <property name="Diggable" type="bool" value="true"/>
    <property name="NoSprinklers" type="bool" value="true"/>
    <property name="Type" value="Dirt"/>
   </properties>
  </tile>
  <tile id="1135">
   <properties>
    <property name="BeachSpawn" type="bool" value="true"/>
    <property name="Buildable" type="bool" value="true"/>
    <property name="Diggable" type="bool" value="true"/>
    <property name="NoSprinklers" type="bool" value="true"/>
    <property name="Type" value="Dirt"/>
   </properties>
  </tile>
  <tile id="1136">
   <properties>
    <property name="BeachSpawn" type="bool" value="true"/>
    <property name="Buildable" type="bool" value="true"/>
    <property name="Diggable" type="bool" value="true"/>
    <property name="NoSprinklers" type="bool" value="true"/>
    <property name="Type" value="Dirt"/>
   </properties>
  </tile>
  <tile id="1137">
   <properties>
    <property name="BeachSpawn" type="bool" value="true"/>
    <property name="Buildable" type="bool" value="true"/>
    <property name="Diggable" type="bool" value="true"/>
    <property name="NoSprinklers" type="bool" value="true"/>
    <property name="Type" value="Dirt"/>
   </properties>
  </tile>
  <tile id="1138">
   <properties>
    <property name="BeachSpawn" type="bool" value="true"/>
    <property name="Buildable" type="bool" value="true"/>
    <property name="Diggable" type="bool" value="true"/>
    <property name="NoSprinklers" type="bool" value="true"/>
    <property name="Type" value="Dirt"/>
   </properties>
  </tile>
  <tile id="1139">
   <properties>
    <property name="BeachSpawn" type="bool" value="true"/>
    <property name="Buildable" type="bool" value="true"/>
    <property name="Diggable" type="bool" value="true"/>
    <property name="NoSprinklers" type="bool" value="true"/>
    <property name="Type" value="Dirt"/>
   </properties>
  </tile>
  <tile id="1140">
   <properties>
    <property name="BeachSpawn" type="bool" value="true"/>
    <property name="Buildable" type="bool" value="true"/>
    <property name="Diggable" type="bool" value="true"/>
    <property name="NoSprinklers" type="bool" value="true"/>
    <property name="Type" value="Dirt"/>
   </properties>
  </tile>
  <tile id="1141">
   <properties>
    <property name="BeachSpawn" type="bool" value="true"/>
    <property name="Buildable" type="bool" value="true"/>
    <property name="Diggable" type="bool" value="true"/>
    <property name="NoSprinklers" type="bool" value="true"/>
    <property name="Type" value="Dirt"/>
   </properties>
  </tile>
  <tile id="1142">
   <properties>
    <property name="NoSprinklers" type="bool" value="true"/>
    <property name="Passable" type="bool" value="true"/>
    <property name="Type" value="Dirt"/>
   </properties>
   <animation>
    <frame tileid="1142" duration="250"/>
    <frame tileid="1142" duration="250"/>
    <frame tileid="1142" duration="250"/>
    <frame tileid="1142" duration="250"/>
    <frame tileid="1143" duration="250"/>
    <frame tileid="1144" duration="250"/>
    <frame tileid="1145" duration="250"/>
    <frame tileid="1145" duration="250"/>
    <frame tileid="1146" duration="250"/>
    <frame tileid="1147" duration="250"/>
    <frame tileid="1148" duration="250"/>
    <frame tileid="1142" duration="250"/>
    <frame tileid="1142" duration="250"/>
   </animation>
  </tile>
  <tile id="1143">
   <properties>
    <property name="NoSprinklers" type="bool" value="true"/>
    <property name="Passable" type="bool" value="true"/>
    <property name="Type" value="Dirt"/>
   </properties>
  </tile>
  <tile id="1144">
   <properties>
    <property name="NoSprinklers" type="bool" value="true"/>
    <property name="Passable" type="bool" value="true"/>
    <property name="Type" value="Dirt"/>
   </properties>
  </tile>
  <tile id="1145">
   <properties>
    <property name="NoSprinklers" type="bool" value="true"/>
    <property name="Passable" type="bool" value="true"/>
    <property name="Type" value="Dirt"/>
   </properties>
  </tile>
  <tile id="1146">
   <properties>
    <property name="NoSprinklers" type="bool" value="true"/>
    <property name="Passable" type="bool" value="true"/>
    <property name="Type" value="Dirt"/>
   </properties>
  </tile>
  <tile id="1147">
   <properties>
    <property name="NoSprinklers" type="bool" value="true"/>
    <property name="Passable" type="bool" value="true"/>
    <property name="Type" value="Dirt"/>
   </properties>
  </tile>
  <tile id="1148">
   <properties>
    <property name="NoSprinklers" type="bool" value="true"/>
    <property name="Passable" type="bool" value="true"/>
    <property name="Type" value="Dirt"/>
   </properties>
  </tile>
  <tile id="1149">
   <properties>
    <property name="BeachSpawn" type="bool" value="true"/>
    <property name="Buildable" type="bool" value="true"/>
    <property name="Diggable" type="bool" value="true"/>
    <property name="NoSprinklers" type="bool" value="true"/>
    <property name="Type" value="Dirt"/>
   </properties>
  </tile>
  <tile id="1150">
   <properties>
    <property name="BeachSpawn" type="bool" value="true"/>
    <property name="Buildable" type="bool" value="true"/>
    <property name="Diggable" type="bool" value="true"/>
    <property name="NoSprinklers" type="bool" value="true"/>
    <property name="Type" value="Dirt"/>
   </properties>
  </tile>
  <tile id="1151">
   <properties>
    <property name="Water" type="bool" value="true"/>
   </properties>
  </tile>
  <tile id="1152">
   <properties>
    <property name="Water" type="bool" value="true"/>
   </properties>
  </tile>
  <tile id="1153">
   <properties>
    <property name="Water" type="bool" value="true"/>
   </properties>
  </tile>
  <tile id="1157">
   <properties>
    <property name="Water" type="bool" value="true"/>
   </properties>
  </tile>
  <tile id="1158">
   <properties>
    <property name="Water" type="bool" value="true"/>
   </properties>
  </tile>
  <tile id="1159">
   <animation>
    <frame tileid="1159" duration="1000"/>
    <frame tileid="1186" duration="1000"/>
   </animation>
  </tile>
  <tile id="1160">
   <animation>
    <frame tileid="1160" duration="1000"/>
    <frame tileid="1187" duration="1000"/>
   </animation>
  </tile>
  <tile id="1161">
   <properties>
    <property name="NoSprinklers" type="bool" value="true"/>
    <property name="Passable" type="bool" value="true"/>
    <property name="Type" value="Dirt"/>
   </properties>
   <animation>
    <frame tileid="1161" duration="250"/>
    <frame tileid="1161" duration="250"/>
    <frame tileid="1161" duration="250"/>
    <frame tileid="1161" duration="250"/>
    <frame tileid="1162" duration="250"/>
    <frame tileid="1163" duration="250"/>
    <frame tileid="1164" duration="250"/>
    <frame tileid="1164" duration="250"/>
    <frame tileid="1165" duration="250"/>
    <frame tileid="1166" duration="250"/>
    <frame tileid="1167" duration="250"/>
    <frame tileid="1161" duration="250"/>
    <frame tileid="1161" duration="250"/>
   </animation>
  </tile>
  <tile id="1162">
   <properties>
    <property name="NoSprinklers" type="bool" value="true"/>
    <property name="Passable" type="bool" value="true"/>
    <property name="Type" value="Dirt"/>
   </properties>
  </tile>
  <tile id="1163">
   <properties>
    <property name="NoSprinklers" type="bool" value="true"/>
    <property name="Passable" type="bool" value="true"/>
    <property name="Type" value="Dirt"/>
   </properties>
  </tile>
  <tile id="1164">
   <properties>
    <property name="NoSprinklers" type="bool" value="true"/>
    <property name="Passable" type="bool" value="true"/>
    <property name="Type" value="Dirt"/>
   </properties>
  </tile>
  <tile id="1165">
   <properties>
    <property name="NoSprinklers" type="bool" value="true"/>
    <property name="Passable" type="bool" value="true"/>
    <property name="Type" value="Dirt"/>
   </properties>
  </tile>
  <tile id="1166">
   <properties>
    <property name="NoSprinklers" type="bool" value="true"/>
    <property name="Passable" type="bool" value="true"/>
    <property name="Type" value="Dirt"/>
   </properties>
  </tile>
  <tile id="1167">
   <properties>
    <property name="NoSprinklers" type="bool" value="true"/>
    <property name="Passable" type="bool" value="true"/>
    <property name="Type" value="Dirt"/>
   </properties>
  </tile>
  <tile id="1168">
   <properties>
    <property name="NoSprinklers" type="bool" value="true"/>
    <property name="Passable" type="bool" value="true"/>
    <property name="Type" value="Dirt"/>
   </properties>
   <animation>
    <frame tileid="1168" duration="250"/>
    <frame tileid="1168" duration="250"/>
    <frame tileid="1168" duration="250"/>
    <frame tileid="1168" duration="250"/>
    <frame tileid="1169" duration="250"/>
    <frame tileid="1170" duration="250"/>
    <frame tileid="1171" duration="250"/>
    <frame tileid="1171" duration="250"/>
    <frame tileid="1172" duration="250"/>
    <frame tileid="1173" duration="250"/>
    <frame tileid="1174" duration="250"/>
    <frame tileid="1168" duration="250"/>
    <frame tileid="1168" duration="250"/>
   </animation>
  </tile>
  <tile id="1169">
   <properties>
    <property name="NoSprinklers" type="bool" value="true"/>
    <property name="Passable" type="bool" value="true"/>
    <property name="Type" value="Dirt"/>
   </properties>
  </tile>
  <tile id="1170">
   <properties>
    <property name="NoSprinklers" type="bool" value="true"/>
    <property name="Passable" type="bool" value="true"/>
    <property name="Type" value="Dirt"/>
   </properties>
  </tile>
  <tile id="1171">
   <properties>
    <property name="NoSprinklers" type="bool" value="true"/>
    <property name="Passable" type="bool" value="true"/>
    <property name="Type" value="Dirt"/>
   </properties>
  </tile>
  <tile id="1172">
   <properties>
    <property name="NoSprinklers" type="bool" value="true"/>
    <property name="Passable" type="bool" value="true"/>
    <property name="Type" value="Dirt"/>
   </properties>
  </tile>
  <tile id="1173">
   <properties>
    <property name="NoSprinklers" type="bool" value="true"/>
    <property name="Passable" type="bool" value="true"/>
    <property name="Type" value="Dirt"/>
   </properties>
  </tile>
  <tile id="1174">
   <properties>
    <property name="NoSprinklers" type="bool" value="true"/>
    <property name="Passable" type="bool" value="true"/>
    <property name="Type" value="Dirt"/>
   </properties>
  </tile>
  <tile id="1175">
   <properties>
    <property name="BeachSpawn" type="bool" value="true"/>
    <property name="Buildable" type="bool" value="true"/>
    <property name="Diggable" type="bool" value="true"/>
    <property name="NoSprinklers" type="bool" value="true"/>
    <property name="Type" value="Dirt"/>
   </properties>
  </tile>
  <tile id="1176">
   <properties>
    <property name="BeachSpawn" type="bool" value="true"/>
    <property name="Buildable" type="bool" value="true"/>
    <property name="Diggable" type="bool" value="true"/>
    <property name="NoSprinklers" type="bool" value="true"/>
    <property name="Type" value="Dirt"/>
   </properties>
  </tile>
  <tile id="1177">
   <properties>
    <property name="BeachSpawn" type="bool" value="true"/>
    <property name="Buildable" type="bool" value="true"/>
    <property name="Diggable" type="bool" value="true"/>
    <property name="NoSprinklers" type="bool" value="true"/>
    <property name="Type" value="Dirt"/>
   </properties>
  </tile>
  <tile id="1178">
   <properties>
    <property name="BeachSpawn" type="bool" value="true"/>
    <property name="Buildable" type="bool" value="true"/>
    <property name="Diggable" type="bool" value="true"/>
    <property name="NoSprinklers" type="bool" value="true"/>
    <property name="Type" value="Dirt"/>
   </properties>
  </tile>
  <tile id="1179">
   <properties>
    <property name="BeachSpawn" type="bool" value="true"/>
    <property name="Buildable" type="bool" value="true"/>
    <property name="Diggable" type="bool" value="true"/>
    <property name="NoSprinklers" type="bool" value="true"/>
    <property name="Type" value="Dirt"/>
   </properties>
  </tile>
  <tile id="1180">
   <properties>
    <property name="BeachSpawn" type="bool" value="true"/>
    <property name="Buildable" type="bool" value="true"/>
    <property name="Diggable" type="bool" value="true"/>
    <property name="NoSprinklers" type="bool" value="true"/>
    <property name="Type" value="Dirt"/>
   </properties>
  </tile>
  <tile id="1183">
   <properties>
    <property name="NPCBarrier" type="bool" value="true"/>
    <property name="NoSpawn" value="All"/>
    <property name="Type" value="Wood"/>
   </properties>
  </tile>
  <tile id="1184">
   <properties>
    <property name="NPCBarrier" type="bool" value="true"/>
    <property name="NoSpawn" value="All"/>
    <property name="Type" value="Wood"/>
   </properties>
  </tile>
  <tile id="1185">
   <properties>
    <property name="NPCBarrier" type="bool" value="true"/>
    <property name="NoSpawn" value="All"/>
    <property name="Type" value="Wood"/>
   </properties>
  </tile>
  <tile id="1188">
   <properties>
    <property name="NoSprinklers" type="bool" value="true"/>
    <property name="Passable" type="bool" value="true"/>
    <property name="Type" value="Dirt"/>
   </properties>
   <animation>
    <frame tileid="1188" duration="250"/>
    <frame tileid="1188" duration="250"/>
    <frame tileid="1188" duration="250"/>
    <frame tileid="1188" duration="250"/>
    <frame tileid="1189" duration="250"/>
    <frame tileid="1190" duration="250"/>
    <frame tileid="1191" duration="250"/>
    <frame tileid="1191" duration="250"/>
    <frame tileid="1192" duration="250"/>
    <frame tileid="1193" duration="250"/>
    <frame tileid="1194" duration="250"/>
    <frame tileid="1188" duration="250"/>
    <frame tileid="1188" duration="250"/>
   </animation>
  </tile>
  <tile id="1189">
   <properties>
    <property name="NoSprinklers" type="bool" value="true"/>
    <property name="Passable" type="bool" value="true"/>
    <property name="Type" value="Dirt"/>
   </properties>
  </tile>
  <tile id="1190">
   <properties>
    <property name="NoSprinklers" type="bool" value="true"/>
    <property name="Passable" type="bool" value="true"/>
    <property name="Type" value="Dirt"/>
   </properties>
  </tile>
  <tile id="1191">
   <properties>
    <property name="NoSprinklers" type="bool" value="true"/>
    <property name="Passable" type="bool" value="true"/>
    <property name="Type" value="Dirt"/>
   </properties>
  </tile>
  <tile id="1192">
   <properties>
    <property name="NoSprinklers" type="bool" value="true"/>
    <property name="Passable" type="bool" value="true"/>
    <property name="Type" value="Dirt"/>
   </properties>
  </tile>
  <tile id="1193">
   <properties>
    <property name="NoSprinklers" type="bool" value="true"/>
    <property name="Passable" type="bool" value="true"/>
    <property name="Type" value="Dirt"/>
   </properties>
  </tile>
  <tile id="1194">
   <properties>
    <property name="NoSprinklers" type="bool" value="true"/>
    <property name="Passable" type="bool" value="true"/>
    <property name="Type" value="Dirt"/>
   </properties>
  </tile>
  <tile id="1195">
   <properties>
    <property name="NoSprinklers" type="bool" value="true"/>
    <property name="Passable" type="bool" value="true"/>
    <property name="Type" value="Dirt"/>
   </properties>
   <animation>
    <frame tileid="1195" duration="250"/>
    <frame tileid="1195" duration="250"/>
    <frame tileid="1195" duration="250"/>
    <frame tileid="1195" duration="250"/>
    <frame tileid="1196" duration="250"/>
    <frame tileid="1197" duration="250"/>
    <frame tileid="1198" duration="250"/>
    <frame tileid="1198" duration="250"/>
    <frame tileid="1199" duration="250"/>
    <frame tileid="1200" duration="250"/>
    <frame tileid="1201" duration="250"/>
    <frame tileid="1195" duration="250"/>
    <frame tileid="1195" duration="250"/>
   </animation>
  </tile>
  <tile id="1196">
   <properties>
    <property name="NoSprinklers" type="bool" value="true"/>
    <property name="Passable" type="bool" value="true"/>
    <property name="Type" value="Dirt"/>
   </properties>
  </tile>
  <tile id="1197">
   <properties>
    <property name="NoSprinklers" type="bool" value="true"/>
    <property name="Passable" type="bool" value="true"/>
    <property name="Type" value="Dirt"/>
   </properties>
  </tile>
  <tile id="1198">
   <properties>
    <property name="NoSprinklers" type="bool" value="true"/>
    <property name="Passable" type="bool" value="true"/>
    <property name="Type" value="Dirt"/>
   </properties>
  </tile>
  <tile id="1199">
   <properties>
    <property name="NoSprinklers" type="bool" value="true"/>
    <property name="Passable" type="bool" value="true"/>
    <property name="Type" value="Dirt"/>
   </properties>
  </tile>
  <tile id="1200">
   <properties>
    <property name="NoSprinklers" type="bool" value="true"/>
    <property name="Passable" type="bool" value="true"/>
    <property name="Type" value="Dirt"/>
   </properties>
  </tile>
  <tile id="1201">
   <properties>
    <property name="NoSprinklers" type="bool" value="true"/>
    <property name="Passable" type="bool" value="true"/>
    <property name="Type" value="Dirt"/>
   </properties>
  </tile>
  <tile id="1202">
   <properties>
    <property name="BeachSpawn" type="bool" value="true"/>
    <property name="Buildable" type="bool" value="true"/>
    <property name="Diggable" type="bool" value="true"/>
    <property name="NoSprinklers" type="bool" value="true"/>
    <property name="Type" value="Dirt"/>
   </properties>
  </tile>
  <tile id="1203">
   <properties>
    <property name="BeachSpawn" type="bool" value="true"/>
    <property name="Buildable" type="bool" value="true"/>
    <property name="Diggable" type="bool" value="true"/>
    <property name="NoSprinklers" type="bool" value="true"/>
    <property name="Type" value="Dirt"/>
   </properties>
  </tile>
  <tile id="1204">
   <properties>
    <property name="BeachSpawn" type="bool" value="true"/>
    <property name="Buildable" type="bool" value="true"/>
    <property name="Diggable" type="bool" value="true"/>
    <property name="NoSprinklers" type="bool" value="true"/>
    <property name="Type" value="Dirt"/>
   </properties>
  </tile>
  <tile id="1205">
   <properties>
    <property name="BeachSpawn" type="bool" value="true"/>
    <property name="Buildable" type="bool" value="true"/>
    <property name="Diggable" type="bool" value="true"/>
    <property name="NoSprinklers" type="bool" value="true"/>
    <property name="Type" value="Dirt"/>
   </properties>
  </tile>
  <tile id="1206">
   <properties>
    <property name="BeachSpawn" type="bool" value="true"/>
    <property name="Buildable" type="bool" value="true"/>
    <property name="Diggable" type="bool" value="true"/>
    <property name="NoSprinklers" type="bool" value="true"/>
    <property name="Type" value="Dirt"/>
   </properties>
  </tile>
  <tile id="1207">
   <properties>
    <property name="BeachSpawn" type="bool" value="true"/>
    <property name="Buildable" type="bool" value="true"/>
    <property name="Diggable" type="bool" value="true"/>
    <property name="NoSprinklers" type="bool" value="true"/>
    <property name="Type" value="Dirt"/>
   </properties>
  </tile>
  <tile id="1208">
   <properties>
    <property name="NoSpawn" value="All"/>
    <property name="Type" value="Wood"/>
   </properties>
  </tile>
  <tile id="1209">
   <properties>
    <property name="NoSpawn" value="All"/>
    <property name="Type" value="Wood"/>
   </properties>
  </tile>
  <tile id="1210">
   <properties>
    <property name="NoSpawn" value="All"/>
    <property name="Type" value="Wood"/>
   </properties>
  </tile>
  <tile id="1211">
   <properties>
    <property name="NoSpawn" value="All"/>
    <property name="Type" value="Wood"/>
   </properties>
  </tile>
  <tile id="1215">
   <properties>
    <property name="NoSprinklers" type="bool" value="true"/>
    <property name="Passable" type="bool" value="true"/>
    <property name="Type" value="Dirt"/>
   </properties>
   <animation>
    <frame tileid="1215" duration="250"/>
    <frame tileid="1215" duration="250"/>
    <frame tileid="1215" duration="250"/>
    <frame tileid="1215" duration="250"/>
    <frame tileid="1216" duration="250"/>
    <frame tileid="1217" duration="250"/>
    <frame tileid="1218" duration="250"/>
    <frame tileid="1218" duration="250"/>
    <frame tileid="1219" duration="250"/>
    <frame tileid="1220" duration="250"/>
    <frame tileid="1221" duration="250"/>
    <frame tileid="1215" duration="250"/>
    <frame tileid="1215" duration="250"/>
   </animation>
  </tile>
  <tile id="1216">
   <properties>
    <property name="NoSprinklers" type="bool" value="true"/>
    <property name="Passable" type="bool" value="true"/>
    <property name="Type" value="Dirt"/>
   </properties>
  </tile>
  <tile id="1217">
   <properties>
    <property name="NoSprinklers" type="bool" value="true"/>
    <property name="Passable" type="bool" value="true"/>
    <property name="Type" value="Dirt"/>
   </properties>
  </tile>
  <tile id="1218">
   <properties>
    <property name="NoSprinklers" type="bool" value="true"/>
    <property name="Passable" type="bool" value="true"/>
    <property name="Type" value="Dirt"/>
   </properties>
  </tile>
  <tile id="1219">
   <properties>
    <property name="NoSprinklers" type="bool" value="true"/>
    <property name="Passable" type="bool" value="true"/>
    <property name="Type" value="Dirt"/>
   </properties>
  </tile>
  <tile id="1220">
   <properties>
    <property name="NoSprinklers" type="bool" value="true"/>
    <property name="Passable" type="bool" value="true"/>
    <property name="Type" value="Dirt"/>
   </properties>
  </tile>
  <tile id="1221">
   <properties>
    <property name="NoSprinklers" type="bool" value="true"/>
    <property name="Passable" type="bool" value="true"/>
    <property name="Type" value="Dirt"/>
   </properties>
  </tile>
  <tile id="1222">
   <properties>
    <property name="NoSprinklers" type="bool" value="true"/>
    <property name="Passable" type="bool" value="true"/>
    <property name="Type" value="Dirt"/>
   </properties>
   <animation>
    <frame tileid="1222" duration="250"/>
    <frame tileid="1222" duration="250"/>
    <frame tileid="1222" duration="250"/>
    <frame tileid="1222" duration="250"/>
    <frame tileid="1223" duration="250"/>
    <frame tileid="1224" duration="250"/>
    <frame tileid="1225" duration="250"/>
    <frame tileid="1225" duration="250"/>
    <frame tileid="1226" duration="250"/>
    <frame tileid="1227" duration="250"/>
    <frame tileid="1228" duration="250"/>
    <frame tileid="1222" duration="250"/>
    <frame tileid="1222" duration="250"/>
   </animation>
  </tile>
  <tile id="1223">
   <properties>
    <property name="NoSprinklers" type="bool" value="true"/>
    <property name="Passable" type="bool" value="true"/>
    <property name="Type" value="Dirt"/>
   </properties>
  </tile>
  <tile id="1224">
   <properties>
    <property name="NoSprinklers" type="bool" value="true"/>
    <property name="Passable" type="bool" value="true"/>
    <property name="Type" value="Dirt"/>
   </properties>
  </tile>
  <tile id="1225">
   <properties>
    <property name="NoSprinklers" type="bool" value="true"/>
    <property name="Passable" type="bool" value="true"/>
    <property name="Type" value="Dirt"/>
   </properties>
  </tile>
  <tile id="1226">
   <properties>
    <property name="NoSprinklers" type="bool" value="true"/>
    <property name="Passable" type="bool" value="true"/>
    <property name="Type" value="Dirt"/>
   </properties>
  </tile>
  <tile id="1227">
   <properties>
    <property name="NoSprinklers" type="bool" value="true"/>
    <property name="Passable" type="bool" value="true"/>
    <property name="Type" value="Dirt"/>
   </properties>
  </tile>
  <tile id="1228">
   <properties>
    <property name="NoSprinklers" type="bool" value="true"/>
    <property name="Passable" type="bool" value="true"/>
    <property name="Type" value="Dirt"/>
   </properties>
  </tile>
  <tile id="1229">
   <properties>
    <property name="BeachSpawn" type="bool" value="true"/>
    <property name="Buildable" type="bool" value="true"/>
    <property name="Diggable" type="bool" value="true"/>
    <property name="NoSprinklers" type="bool" value="true"/>
    <property name="Type" value="Dirt"/>
   </properties>
  </tile>
  <tile id="1230">
   <properties>
    <property name="BeachSpawn" type="bool" value="true"/>
    <property name="Buildable" type="bool" value="true"/>
    <property name="Diggable" type="bool" value="true"/>
    <property name="NoSprinklers" type="bool" value="true"/>
    <property name="Type" value="Dirt"/>
   </properties>
  </tile>
  <tile id="1231">
   <properties>
    <property name="BeachSpawn" type="bool" value="true"/>
    <property name="Buildable" type="bool" value="true"/>
    <property name="Diggable" type="bool" value="true"/>
    <property name="NoSprinklers" type="bool" value="true"/>
    <property name="Type" value="Dirt"/>
   </properties>
  </tile>
  <tile id="1232">
   <properties>
    <property name="BeachSpawn" type="bool" value="true"/>
    <property name="Buildable" type="bool" value="true"/>
    <property name="Diggable" type="bool" value="true"/>
    <property name="NoSprinklers" type="bool" value="true"/>
    <property name="Type" value="Dirt"/>
   </properties>
  </tile>
  <tile id="1233">
   <properties>
    <property name="BeachSpawn" type="bool" value="true"/>
    <property name="Buildable" type="bool" value="true"/>
    <property name="Diggable" type="bool" value="true"/>
    <property name="NoSprinklers" type="bool" value="true"/>
    <property name="Type" value="Dirt"/>
   </properties>
  </tile>
  <tile id="1234">
   <properties>
    <property name="BeachSpawn" type="bool" value="true"/>
    <property name="Buildable" type="bool" value="true"/>
    <property name="Diggable" type="bool" value="true"/>
    <property name="NoSprinklers" type="bool" value="true"/>
    <property name="Type" value="Dirt"/>
   </properties>
  </tile>
  <tile id="1235">
   <properties>
    <property name="NoSpawn" value="All"/>
    <property name="Type" value="Wood"/>
   </properties>
  </tile>
  <tile id="1236">
   <properties>
    <property name="NoSpawn" value="All"/>
    <property name="Type" value="Wood"/>
   </properties>
  </tile>
  <tile id="1237">
   <properties>
    <property name="NoSpawn" value="All"/>
    <property name="Type" value="Wood"/>
   </properties>
  </tile>
  <tile id="1238">
   <properties>
    <property name="NoSpawn" value="All"/>
    <property name="Type" value="Wood"/>
   </properties>
  </tile>
  <tile id="1242">
   <properties>
    <property name="NoSprinklers" type="bool" value="true"/>
    <property name="Passable" type="bool" value="true"/>
    <property name="Type" value="Dirt"/>
   </properties>
   <animation>
    <frame tileid="1242" duration="250"/>
    <frame tileid="1242" duration="250"/>
    <frame tileid="1242" duration="250"/>
    <frame tileid="1242" duration="250"/>
    <frame tileid="1243" duration="250"/>
    <frame tileid="1244" duration="250"/>
    <frame tileid="1245" duration="250"/>
    <frame tileid="1245" duration="250"/>
    <frame tileid="1246" duration="250"/>
    <frame tileid="1247" duration="250"/>
    <frame tileid="1248" duration="250"/>
    <frame tileid="1242" duration="250"/>
    <frame tileid="1242" duration="250"/>
   </animation>
  </tile>
  <tile id="1243">
   <properties>
    <property name="NoSprinklers" type="bool" value="true"/>
    <property name="Passable" type="bool" value="true"/>
    <property name="Type" value="Dirt"/>
   </properties>
  </tile>
  <tile id="1244">
   <properties>
    <property name="NoSprinklers" type="bool" value="true"/>
    <property name="Passable" type="bool" value="true"/>
    <property name="Type" value="Dirt"/>
   </properties>
  </tile>
  <tile id="1245">
   <properties>
    <property name="NoSprinklers" type="bool" value="true"/>
    <property name="Passable" type="bool" value="true"/>
    <property name="Type" value="Dirt"/>
   </properties>
  </tile>
  <tile id="1246">
   <properties>
    <property name="NoSprinklers" type="bool" value="true"/>
    <property name="Passable" type="bool" value="true"/>
    <property name="Type" value="Dirt"/>
   </properties>
  </tile>
  <tile id="1247">
   <properties>
    <property name="NoSprinklers" type="bool" value="true"/>
    <property name="Passable" type="bool" value="true"/>
    <property name="Type" value="Dirt"/>
   </properties>
  </tile>
  <tile id="1248">
   <properties>
    <property name="NoSprinklers" type="bool" value="true"/>
    <property name="Passable" type="bool" value="true"/>
    <property name="Type" value="Dirt"/>
   </properties>
  </tile>
  <tile id="1249">
   <properties>
    <property name="NoSprinklers" type="bool" value="true"/>
    <property name="Passable" type="bool" value="true"/>
    <property name="Type" value="Dirt"/>
   </properties>
   <animation>
    <frame tileid="1249" duration="250"/>
    <frame tileid="1249" duration="250"/>
    <frame tileid="1249" duration="250"/>
    <frame tileid="1249" duration="250"/>
    <frame tileid="1250" duration="250"/>
    <frame tileid="1251" duration="250"/>
    <frame tileid="1252" duration="250"/>
    <frame tileid="1252" duration="250"/>
    <frame tileid="1253" duration="250"/>
    <frame tileid="1254" duration="250"/>
    <frame tileid="1255" duration="250"/>
    <frame tileid="1249" duration="250"/>
    <frame tileid="1249" duration="250"/>
   </animation>
  </tile>
  <tile id="1250">
   <properties>
    <property name="NoSprinklers" type="bool" value="true"/>
    <property name="Passable" type="bool" value="true"/>
    <property name="Type" value="Dirt"/>
   </properties>
  </tile>
  <tile id="1251">
   <properties>
    <property name="NoSprinklers" type="bool" value="true"/>
    <property name="Passable" type="bool" value="true"/>
    <property name="Type" value="Dirt"/>
   </properties>
  </tile>
  <tile id="1252">
   <properties>
    <property name="NoSprinklers" type="bool" value="true"/>
    <property name="Passable" type="bool" value="true"/>
    <property name="Type" value="Dirt"/>
   </properties>
  </tile>
  <tile id="1253">
   <properties>
    <property name="NoSprinklers" type="bool" value="true"/>
    <property name="Passable" type="bool" value="true"/>
    <property name="Type" value="Dirt"/>
   </properties>
  </tile>
  <tile id="1254">
   <properties>
    <property name="NoSprinklers" type="bool" value="true"/>
    <property name="Passable" type="bool" value="true"/>
    <property name="Type" value="Dirt"/>
   </properties>
  </tile>
  <tile id="1255">
   <properties>
    <property name="NoSprinklers" type="bool" value="true"/>
    <property name="Passable" type="bool" value="true"/>
    <property name="Type" value="Dirt"/>
   </properties>
  </tile>
  <tile id="1256">
   <properties>
    <property name="BeachSpawn" type="bool" value="true"/>
    <property name="Buildable" type="bool" value="true"/>
    <property name="Diggable" type="bool" value="true"/>
    <property name="NoSprinklers" type="bool" value="true"/>
    <property name="Type" value="Dirt"/>
   </properties>
  </tile>
  <tile id="1257">
   <properties>
    <property name="BeachSpawn" type="bool" value="true"/>
    <property name="Buildable" type="bool" value="true"/>
    <property name="Diggable" type="bool" value="true"/>
    <property name="NoSprinklers" type="bool" value="true"/>
    <property name="Type" value="Dirt"/>
   </properties>
  </tile>
  <tile id="1258">
   <properties>
    <property name="BeachSpawn" type="bool" value="true"/>
    <property name="Buildable" type="bool" value="true"/>
    <property name="Diggable" type="bool" value="true"/>
    <property name="NoSprinklers" type="bool" value="true"/>
    <property name="Type" value="Dirt"/>
   </properties>
  </tile>
  <tile id="1259">
   <properties>
    <property name="BeachSpawn" type="bool" value="true"/>
    <property name="Buildable" type="bool" value="true"/>
    <property name="Diggable" type="bool" value="true"/>
    <property name="NoSprinklers" type="bool" value="true"/>
    <property name="Type" value="Dirt"/>
   </properties>
  </tile>
  <tile id="1262">
   <properties>
    <property name="NoSpawn" value="All"/>
    <property name="Type" value="Wood"/>
   </properties>
  </tile>
  <tile id="1263">
   <properties>
    <property name="NoSpawn" value="All"/>
    <property name="Type" value="Wood"/>
   </properties>
  </tile>
  <tile id="1264">
   <properties>
    <property name="NoSpawn" value="All"/>
    <property name="Type" value="Wood"/>
   </properties>
  </tile>
  <tile id="1265">
   <properties>
    <property name="NoSpawn" value="All"/>
    <property name="Type" value="Wood"/>
   </properties>
  </tile>
  <tile id="1269">
   <properties>
    <property name="BeachSpawn" type="bool" value="true"/>
    <property name="Buildable" type="bool" value="true"/>
    <property name="Diggable" type="bool" value="true"/>
    <property name="NoSprinklers" type="bool" value="true"/>
    <property name="Type" value="Dirt"/>
   </properties>
  </tile>
  <tile id="1270">
   <properties>
    <property name="BeachSpawn" type="bool" value="true"/>
    <property name="Buildable" type="bool" value="true"/>
    <property name="Diggable" type="bool" value="true"/>
    <property name="NoSprinklers" type="bool" value="true"/>
    <property name="Type" value="Dirt"/>
   </properties>
  </tile>
  <tile id="1271">
   <properties>
    <property name="BeachSpawn" type="bool" value="true"/>
    <property name="Buildable" type="bool" value="true"/>
    <property name="Diggable" type="bool" value="true"/>
    <property name="NoSprinklers" type="bool" value="true"/>
    <property name="Type" value="Dirt"/>
   </properties>
  </tile>
  <tile id="1272">
   <properties>
    <property name="BeachSpawn" type="bool" value="true"/>
    <property name="Buildable" type="bool" value="true"/>
    <property name="Diggable" type="bool" value="true"/>
    <property name="NoSprinklers" type="bool" value="true"/>
    <property name="Type" value="Dirt"/>
   </properties>
  </tile>
  <tile id="1273">
   <properties>
    <property name="BeachSpawn" type="bool" value="true"/>
    <property name="Buildable" type="bool" value="true"/>
    <property name="NoSprinklers" type="bool" value="true"/>
    <property name="Type" value="Stone"/>
   </properties>
  </tile>
  <tile id="1274">
   <properties>
    <property name="BeachSpawn" type="bool" value="true"/>
    <property name="Buildable" type="bool" value="true"/>
    <property name="Diggable" type="bool" value="true"/>
    <property name="NoSprinklers" type="bool" value="true"/>
    <property name="Type" value="Dirt"/>
   </properties>
  </tile>
  <tile id="1275">
   <properties>
    <property name="BeachSpawn" type="bool" value="true"/>
    <property name="Buildable" type="bool" value="true"/>
    <property name="Diggable" type="bool" value="true"/>
    <property name="NoSprinklers" type="bool" value="true"/>
    <property name="Type" value="Dirt"/>
   </properties>
  </tile>
  <tile id="1276">
   <properties>
    <property name="BeachSpawn" type="bool" value="true"/>
    <property name="Buildable" type="bool" value="true"/>
    <property name="Diggable" type="bool" value="true"/>
    <property name="NoSprinklers" type="bool" value="true"/>
    <property name="Type" value="Dirt"/>
   </properties>
  </tile>
  <tile id="1277">
   <properties>
    <property name="BeachSpawn" type="bool" value="true"/>
    <property name="Buildable" type="bool" value="true"/>
    <property name="NoSprinklers" type="bool" value="true"/>
    <property name="Type" value="Stone"/>
   </properties>
  </tile>
  <tile id="1278">
   <properties>
    <property name="BeachSpawn" type="bool" value="true"/>
    <property name="Buildable" type="bool" value="true"/>
    <property name="Diggable" type="bool" value="true"/>
    <property name="NoSprinklers" type="bool" value="true"/>
    <property name="Type" value="Dirt"/>
   </properties>
  </tile>
  <tile id="1279">
   <properties>
    <property name="BeachSpawn" type="bool" value="true"/>
    <property name="Buildable" type="bool" value="true"/>
    <property name="Diggable" type="bool" value="true"/>
    <property name="NoSprinklers" type="bool" value="true"/>
    <property name="Type" value="Dirt"/>
   </properties>
  </tile>
  <tile id="1280">
   <properties>
    <property name="BeachSpawn" type="bool" value="true"/>
    <property name="Buildable" type="bool" value="true"/>
    <property name="Diggable" type="bool" value="true"/>
    <property name="NoSprinklers" type="bool" value="true"/>
    <property name="Type" value="Dirt"/>
   </properties>
  </tile>
  <tile id="1281">
   <properties>
    <property name="BeachSpawn" type="bool" value="true"/>
    <property name="Buildable" type="bool" value="true"/>
    <property name="NoSprinklers" type="bool" value="true"/>
    <property name="Type" value="Stone"/>
   </properties>
  </tile>
  <tile id="1282">
   <properties>
    <property name="BeachSpawn" type="bool" value="true"/>
    <property name="Buildable" type="bool" value="true"/>
    <property name="Diggable" type="bool" value="true"/>
    <property name="NoSprinklers" type="bool" value="true"/>
    <property name="Type" value="Dirt"/>
   </properties>
  </tile>
  <tile id="1283">
   <properties>
    <property name="BeachSpawn" type="bool" value="true"/>
    <property name="Buildable" type="bool" value="true"/>
    <property name="Diggable" type="bool" value="true"/>
    <property name="NoSprinklers" type="bool" value="true"/>
    <property name="Type" value="Dirt"/>
   </properties>
  </tile>
  <tile id="1284">
   <properties>
    <property name="BeachSpawn" type="bool" value="true"/>
    <property name="Buildable" type="bool" value="true"/>
    <property name="Diggable" type="bool" value="true"/>
    <property name="NoSprinklers" type="bool" value="true"/>
    <property name="Type" value="Dirt"/>
   </properties>
  </tile>
  <tile id="1285">
   <properties>
    <property name="BeachSpawn" type="bool" value="true"/>
    <property name="Buildable" type="bool" value="true"/>
    <property name="Diggable" type="bool" value="true"/>
    <property name="NoSprinklers" type="bool" value="true"/>
    <property name="Type" value="Dirt"/>
   </properties>
  </tile>
  <tile id="1286">
   <properties>
    <property name="BeachSpawn" type="bool" value="true"/>
    <property name="Buildable" type="bool" value="true"/>
    <property name="Diggable" type="bool" value="true"/>
    <property name="NoSprinklers" type="bool" value="true"/>
    <property name="Type" value="Dirt"/>
   </properties>
  </tile>
  <tile id="1290">
   <animation>
    <frame tileid="1290" duration="100"/>
    <frame tileid="1291" duration="100"/>
    <frame tileid="1292" duration="100"/>
    <frame tileid="1293" duration="100"/>
    <frame tileid="1294" duration="100"/>
    <frame tileid="1295" duration="100"/>
   </animation>
  </tile>
  <tile id="1296">
   <properties>
    <property name="BeachSpawn" type="bool" value="true"/>
    <property name="Buildable" type="bool" value="true"/>
    <property name="Diggable" type="bool" value="true"/>
    <property name="NoSprinklers" type="bool" value="true"/>
    <property name="Type" value="Dirt"/>
   </properties>
  </tile>
  <tile id="1297">
   <properties>
    <property name="BeachSpawn" type="bool" value="true"/>
    <property name="Buildable" type="bool" value="true"/>
    <property name="Diggable" type="bool" value="true"/>
    <property name="NoSprinklers" type="bool" value="true"/>
    <property name="Type" value="Dirt"/>
   </properties>
  </tile>
  <tile id="1298">
   <properties>
    <property name="BeachSpawn" type="bool" value="true"/>
    <property name="Buildable" type="bool" value="true"/>
    <property name="Diggable" type="bool" value="true"/>
    <property name="NoSprinklers" type="bool" value="true"/>
    <property name="Type" value="Dirt"/>
   </properties>
  </tile>
  <tile id="1299">
   <properties>
    <property name="BeachSpawn" type="bool" value="true"/>
    <property name="Buildable" type="bool" value="true"/>
    <property name="Diggable" type="bool" value="true"/>
    <property name="NoSprinklers" type="bool" value="true"/>
    <property name="Type" value="Dirt"/>
   </properties>
  </tile>
  <tile id="1300">
   <properties>
    <property name="BeachSpawn" type="bool" value="true"/>
    <property name="Buildable" type="bool" value="true"/>
    <property name="NoSprinklers" type="bool" value="true"/>
    <property name="Type" value="Stone"/>
   </properties>
  </tile>
  <tile id="1301">
   <properties>
    <property name="BeachSpawn" type="bool" value="true"/>
    <property name="Buildable" type="bool" value="true"/>
    <property name="Diggable" type="bool" value="true"/>
    <property name="NoSprinklers" type="bool" value="true"/>
    <property name="Type" value="Dirt"/>
   </properties>
  </tile>
  <tile id="1302">
   <properties>
    <property name="BeachSpawn" type="bool" value="true"/>
    <property name="Buildable" type="bool" value="true"/>
    <property name="Diggable" type="bool" value="true"/>
    <property name="NoSprinklers" type="bool" value="true"/>
    <property name="Type" value="Dirt"/>
   </properties>
  </tile>
  <tile id="1303">
   <properties>
    <property name="BeachSpawn" type="bool" value="true"/>
    <property name="Buildable" type="bool" value="true"/>
    <property name="Diggable" type="bool" value="true"/>
    <property name="NoSprinklers" type="bool" value="true"/>
    <property name="Type" value="Dirt"/>
   </properties>
  </tile>
  <tile id="1304">
   <properties>
    <property name="BeachSpawn" type="bool" value="true"/>
    <property name="Buildable" type="bool" value="true"/>
    <property name="NoSprinklers" type="bool" value="true"/>
    <property name="Type" value="Stone"/>
   </properties>
  </tile>
  <tile id="1305">
   <properties>
    <property name="BeachSpawn" type="bool" value="true"/>
    <property name="Buildable" type="bool" value="true"/>
    <property name="Diggable" type="bool" value="true"/>
    <property name="NoSprinklers" type="bool" value="true"/>
    <property name="Type" value="Dirt"/>
   </properties>
  </tile>
  <tile id="1306">
   <properties>
    <property name="BeachSpawn" type="bool" value="true"/>
    <property name="Buildable" type="bool" value="true"/>
    <property name="Diggable" type="bool" value="true"/>
    <property name="NoSprinklers" type="bool" value="true"/>
    <property name="Type" value="Dirt"/>
   </properties>
  </tile>
  <tile id="1307">
   <properties>
    <property name="BeachSpawn" type="bool" value="true"/>
    <property name="Buildable" type="bool" value="true"/>
    <property name="Diggable" type="bool" value="true"/>
    <property name="NoSprinklers" type="bool" value="true"/>
    <property name="Type" value="Dirt"/>
   </properties>
  </tile>
  <tile id="1308">
   <properties>
    <property name="BeachSpawn" type="bool" value="true"/>
    <property name="Buildable" type="bool" value="true"/>
    <property name="NoSprinklers" type="bool" value="true"/>
    <property name="Type" value="Stone"/>
   </properties>
  </tile>
  <tile id="1309">
   <properties>
    <property name="BeachSpawn" type="bool" value="true"/>
    <property name="Buildable" type="bool" value="true"/>
    <property name="Diggable" type="bool" value="true"/>
    <property name="NoSprinklers" type="bool" value="true"/>
    <property name="Type" value="Dirt"/>
   </properties>
  </tile>
  <tile id="1310">
   <properties>
    <property name="BeachSpawn" type="bool" value="true"/>
    <property name="Buildable" type="bool" value="true"/>
    <property name="Diggable" type="bool" value="true"/>
    <property name="NoSprinklers" type="bool" value="true"/>
    <property name="Type" value="Dirt"/>
   </properties>
  </tile>
  <tile id="1311">
   <properties>
    <property name="BeachSpawn" type="bool" value="true"/>
    <property name="Buildable" type="bool" value="true"/>
    <property name="Diggable" type="bool" value="true"/>
    <property name="NoSprinklers" type="bool" value="true"/>
    <property name="Type" value="Dirt"/>
   </properties>
  </tile>
  <tile id="1317">
   <animation>
    <frame tileid="1317" duration="100"/>
    <frame tileid="1318" duration="100"/>
    <frame tileid="1319" duration="100"/>
    <frame tileid="1320" duration="100"/>
    <frame tileid="1321" duration="100"/>
    <frame tileid="1322" duration="100"/>
   </animation>
  </tile>
 </tileset>
 <tileset firstgid="12630" name="x12 - spring_ATK_AToMS_foliage" tilewidth="16" tileheight="16" tilecount="925" columns="25">
  <image source="spring_ATK_AToMS_foliage.png" width="400" height="592"/>
 </tileset>
 <tileset firstgid="13555" name="x13 - spring_ATK_AToMS_EXmisc" tilewidth="16" tileheight="16" tilecount="675" columns="25">
  <image source="spring_ATK_AToMS_EXmisc.png" width="400" height="432"/>
  <tile id="0">
   <properties>
    <property name="NoSpawn" value="All"/>
    <property name="Type" value="Wood"/>
   </properties>
  </tile>
  <tile id="1">
   <properties>
    <property name="NoSpawn" value="All"/>
    <property name="Type" value="Wood"/>
   </properties>
  </tile>
  <tile id="2">
   <properties>
    <property name="NoSpawn" value="All"/>
    <property name="Type" value="Wood"/>
   </properties>
  </tile>
  <tile id="3">
   <properties>
    <property name="NoSpawn" value="All"/>
    <property name="Type" value="Wood"/>
   </properties>
  </tile>
  <tile id="4">
   <properties>
    <property name="NoSpawn" value="All"/>
    <property name="Type" value="Wood"/>
   </properties>
  </tile>
  <tile id="5">
   <properties>
    <property name="NoSpawn" value="All"/>
    <property name="Type" value="Wood"/>
   </properties>
  </tile>
  <tile id="6">
   <properties>
    <property name="NoSpawn" value="All"/>
    <property name="Type" value="Wood"/>
   </properties>
  </tile>
  <tile id="7">
   <properties>
    <property name="NoSpawn" value="All"/>
    <property name="Type" value="Wood"/>
   </properties>
  </tile>
  <tile id="8">
   <properties>
    <property name="NoSpawn" value="All"/>
    <property name="Type" value="Wood"/>
   </properties>
  </tile>
  <tile id="9">
   <properties>
    <property name="NoSpawn" value="All"/>
    <property name="Type" value="Wood"/>
   </properties>
  </tile>
  <tile id="10">
   <properties>
    <property name="NoSpawn" value="All"/>
    <property name="Type" value="Wood"/>
   </properties>
  </tile>
  <tile id="11">
   <properties>
    <property name="NoSpawn" value="All"/>
    <property name="Type" value="Wood"/>
   </properties>
  </tile>
  <tile id="12">
   <properties>
    <property name="NoSpawn" value="All"/>
    <property name="Type" value="Wood"/>
   </properties>
  </tile>
  <tile id="13">
   <properties>
    <property name="NoSpawn" value="All"/>
    <property name="Type" value="Wood"/>
   </properties>
  </tile>
  <tile id="14">
   <properties>
    <property name="NoSpawn" value="All"/>
    <property name="Type" value="Wood"/>
   </properties>
  </tile>
  <tile id="15">
   <properties>
    <property name="NoSpawn" value="All"/>
    <property name="Type" value="Wood"/>
   </properties>
  </tile>
  <tile id="16">
   <properties>
    <property name="NoSpawn" value="All"/>
    <property name="Type" value="Wood"/>
   </properties>
  </tile>
  <tile id="17">
   <properties>
    <property name="NoSpawn" value="All"/>
    <property name="Type" value="Wood"/>
   </properties>
  </tile>
  <tile id="18">
   <properties>
    <property name="NoSpawn" value="All"/>
    <property name="Type" value="Wood"/>
   </properties>
  </tile>
  <tile id="19">
   <properties>
    <property name="NoSpawn" value="All"/>
    <property name="Type" value="Wood"/>
   </properties>
  </tile>
  <tile id="20">
   <properties>
    <property name="NoSpawn" value="All"/>
    <property name="Type" value="Wood"/>
   </properties>
  </tile>
  <tile id="21">
   <properties>
    <property name="NoSpawn" value="All"/>
    <property name="Type" value="Wood"/>
   </properties>
  </tile>
  <tile id="22">
   <properties>
    <property name="NoSpawn" value="All"/>
    <property name="Type" value="Wood"/>
   </properties>
  </tile>
  <tile id="23">
   <properties>
    <property name="NoSpawn" value="All"/>
    <property name="Type" value="Wood"/>
   </properties>
  </tile>
  <tile id="25">
   <properties>
    <property name="NoSpawn" value="All"/>
    <property name="Type" value="Wood"/>
   </properties>
  </tile>
  <tile id="26">
   <properties>
    <property name="NoSpawn" value="All"/>
    <property name="Type" value="Wood"/>
   </properties>
  </tile>
  <tile id="27">
   <properties>
    <property name="NoSpawn" value="All"/>
    <property name="Type" value="Wood"/>
   </properties>
  </tile>
  <tile id="28">
   <properties>
    <property name="NoSpawn" value="All"/>
    <property name="Type" value="Wood"/>
   </properties>
  </tile>
  <tile id="29">
   <properties>
    <property name="NoSpawn" value="All"/>
    <property name="Type" value="Wood"/>
   </properties>
  </tile>
  <tile id="30">
   <properties>
    <property name="NoSpawn" value="All"/>
    <property name="Type" value="Wood"/>
   </properties>
  </tile>
  <tile id="31">
   <properties>
    <property name="NoSpawn" value="All"/>
    <property name="Type" value="Wood"/>
   </properties>
  </tile>
  <tile id="32">
   <properties>
    <property name="NoSpawn" value="All"/>
    <property name="Type" value="Wood"/>
   </properties>
  </tile>
  <tile id="33">
   <properties>
    <property name="NoSpawn" value="All"/>
    <property name="Type" value="Wood"/>
   </properties>
  </tile>
  <tile id="34">
   <properties>
    <property name="NoSpawn" value="All"/>
    <property name="Type" value="Wood"/>
   </properties>
  </tile>
  <tile id="35">
   <properties>
    <property name="NoSpawn" value="All"/>
    <property name="Type" value="Wood"/>
   </properties>
  </tile>
  <tile id="36">
   <properties>
    <property name="NoSpawn" value="All"/>
    <property name="Type" value="Wood"/>
   </properties>
  </tile>
  <tile id="37">
   <properties>
    <property name="NoSpawn" value="All"/>
    <property name="Type" value="Wood"/>
   </properties>
  </tile>
  <tile id="38">
   <properties>
    <property name="NoSpawn" value="All"/>
    <property name="Type" value="Wood"/>
   </properties>
  </tile>
  <tile id="39">
   <properties>
    <property name="NoSpawn" value="All"/>
    <property name="Type" value="Wood"/>
   </properties>
  </tile>
  <tile id="40">
   <properties>
    <property name="NoSpawn" value="All"/>
    <property name="Type" value="Wood"/>
   </properties>
  </tile>
  <tile id="41">
   <properties>
    <property name="NoSpawn" value="All"/>
    <property name="Type" value="Wood"/>
   </properties>
  </tile>
  <tile id="42">
   <properties>
    <property name="NoSpawn" value="All"/>
    <property name="Type" value="Wood"/>
   </properties>
  </tile>
  <tile id="43">
   <properties>
    <property name="NoSpawn" value="All"/>
    <property name="Type" value="Wood"/>
   </properties>
  </tile>
  <tile id="44">
   <properties>
    <property name="NoSpawn" value="All"/>
    <property name="Type" value="Wood"/>
   </properties>
  </tile>
  <tile id="45">
   <properties>
    <property name="NoSpawn" value="All"/>
    <property name="Type" value="Wood"/>
   </properties>
  </tile>
  <tile id="46">
   <properties>
    <property name="NoSpawn" value="All"/>
    <property name="Type" value="Wood"/>
   </properties>
  </tile>
  <tile id="47">
   <properties>
    <property name="NoSpawn" value="All"/>
    <property name="Type" value="Wood"/>
   </properties>
  </tile>
  <tile id="48">
   <properties>
    <property name="NoSpawn" value="All"/>
    <property name="Type" value="Wood"/>
   </properties>
  </tile>
  <tile id="50">
   <properties>
    <property name="NoSpawn" value="All"/>
    <property name="Type" value="Wood"/>
   </properties>
  </tile>
  <tile id="51">
   <properties>
    <property name="NoSpawn" value="All"/>
    <property name="Type" value="Wood"/>
   </properties>
  </tile>
  <tile id="52">
   <properties>
    <property name="NoSpawn" value="All"/>
    <property name="Type" value="Wood"/>
   </properties>
  </tile>
  <tile id="53">
   <properties>
    <property name="NoSpawn" value="All"/>
    <property name="Type" value="Wood"/>
   </properties>
  </tile>
  <tile id="54">
   <properties>
    <property name="NoSpawn" value="All"/>
    <property name="Type" value="Wood"/>
   </properties>
  </tile>
  <tile id="55">
   <properties>
    <property name="NoSpawn" value="All"/>
    <property name="Type" value="Wood"/>
   </properties>
  </tile>
  <tile id="56">
   <properties>
    <property name="NoSpawn" value="All"/>
    <property name="Type" value="Wood"/>
   </properties>
  </tile>
  <tile id="57">
   <properties>
    <property name="NoSpawn" value="All"/>
    <property name="Type" value="Wood"/>
   </properties>
  </tile>
  <tile id="58">
   <properties>
    <property name="NoSpawn" value="All"/>
    <property name="Type" value="Wood"/>
   </properties>
  </tile>
  <tile id="59">
   <properties>
    <property name="NoSpawn" value="All"/>
    <property name="Type" value="Wood"/>
   </properties>
  </tile>
  <tile id="60">
   <properties>
    <property name="NoSpawn" value="All"/>
    <property name="Type" value="Wood"/>
   </properties>
  </tile>
  <tile id="61">
   <properties>
    <property name="NoSpawn" value="All"/>
    <property name="Type" value="Wood"/>
   </properties>
  </tile>
  <tile id="62">
   <properties>
    <property name="NoSpawn" value="All"/>
    <property name="Type" value="Wood"/>
   </properties>
  </tile>
  <tile id="63">
   <properties>
    <property name="NoSpawn" value="All"/>
    <property name="Type" value="Wood"/>
   </properties>
  </tile>
  <tile id="64">
   <properties>
    <property name="NoSpawn" value="All"/>
    <property name="Type" value="Wood"/>
   </properties>
  </tile>
  <tile id="65">
   <properties>
    <property name="NoSpawn" value="All"/>
    <property name="Type" value="Wood"/>
   </properties>
  </tile>
  <tile id="66">
   <properties>
    <property name="NoSpawn" value="All"/>
    <property name="Type" value="Wood"/>
   </properties>
  </tile>
  <tile id="67">
   <properties>
    <property name="NoSpawn" value="All"/>
    <property name="Type" value="Wood"/>
   </properties>
  </tile>
  <tile id="68">
   <properties>
    <property name="NoSpawn" value="All"/>
    <property name="Type" value="Wood"/>
   </properties>
  </tile>
  <tile id="69">
   <properties>
    <property name="NoSpawn" value="All"/>
    <property name="Type" value="Wood"/>
   </properties>
  </tile>
  <tile id="70">
   <properties>
    <property name="NoSpawn" value="All"/>
    <property name="Type" value="Wood"/>
   </properties>
  </tile>
  <tile id="71">
   <properties>
    <property name="NoSpawn" value="All"/>
    <property name="Type" value="Wood"/>
   </properties>
  </tile>
  <tile id="72">
   <properties>
    <property name="NoSpawn" value="All"/>
    <property name="Type" value="Wood"/>
   </properties>
  </tile>
  <tile id="73">
   <properties>
    <property name="NoSpawn" value="All"/>
    <property name="Type" value="Wood"/>
   </properties>
  </tile>
  <tile id="75">
   <properties>
    <property name="NoSpawn" value="All"/>
    <property name="Type" value="Wood"/>
   </properties>
  </tile>
  <tile id="76">
   <properties>
    <property name="NoSpawn" value="All"/>
    <property name="Type" value="Wood"/>
   </properties>
  </tile>
  <tile id="77">
   <properties>
    <property name="NoSpawn" value="All"/>
    <property name="Type" value="Wood"/>
   </properties>
  </tile>
  <tile id="78">
   <properties>
    <property name="NoSpawn" value="All"/>
    <property name="Type" value="Wood"/>
   </properties>
  </tile>
  <tile id="79">
   <properties>
    <property name="NoSpawn" value="All"/>
    <property name="Type" value="Wood"/>
   </properties>
  </tile>
  <tile id="80">
   <properties>
    <property name="NoSpawn" value="All"/>
    <property name="Type" value="Wood"/>
   </properties>
  </tile>
  <tile id="81">
   <properties>
    <property name="NoSpawn" value="All"/>
    <property name="Type" value="Wood"/>
   </properties>
  </tile>
  <tile id="82">
   <properties>
    <property name="NoSpawn" value="All"/>
    <property name="Type" value="Wood"/>
   </properties>
  </tile>
  <tile id="83">
   <properties>
    <property name="NoSpawn" value="All"/>
    <property name="Type" value="Wood"/>
   </properties>
  </tile>
  <tile id="84">
   <properties>
    <property name="NoSpawn" value="All"/>
    <property name="Type" value="Wood"/>
   </properties>
  </tile>
  <tile id="85">
   <properties>
    <property name="NoSpawn" value="All"/>
    <property name="Type" value="Wood"/>
   </properties>
  </tile>
  <tile id="86">
   <properties>
    <property name="NoSpawn" value="All"/>
    <property name="Type" value="Wood"/>
   </properties>
  </tile>
  <tile id="87">
   <properties>
    <property name="NoSpawn" value="All"/>
    <property name="Type" value="Wood"/>
   </properties>
  </tile>
  <tile id="88">
   <properties>
    <property name="NoSpawn" value="All"/>
    <property name="Type" value="Wood"/>
   </properties>
  </tile>
  <tile id="89">
   <properties>
    <property name="NoSpawn" value="All"/>
    <property name="Type" value="Wood"/>
   </properties>
  </tile>
  <tile id="90">
   <properties>
    <property name="NoSpawn" value="All"/>
    <property name="Type" value="Wood"/>
   </properties>
  </tile>
  <tile id="91">
   <properties>
    <property name="NoSpawn" value="All"/>
    <property name="Type" value="Wood"/>
   </properties>
  </tile>
  <tile id="92">
   <properties>
    <property name="NoSpawn" value="All"/>
    <property name="Type" value="Wood"/>
   </properties>
  </tile>
  <tile id="93">
   <properties>
    <property name="NoSpawn" value="All"/>
    <property name="Type" value="Wood"/>
   </properties>
  </tile>
  <tile id="94">
   <properties>
    <property name="NoSpawn" value="All"/>
    <property name="Type" value="Wood"/>
   </properties>
  </tile>
  <tile id="95">
   <properties>
    <property name="NoSpawn" value="All"/>
    <property name="Type" value="Wood"/>
   </properties>
  </tile>
  <tile id="96">
   <properties>
    <property name="NoSpawn" value="All"/>
    <property name="Type" value="Wood"/>
   </properties>
  </tile>
  <tile id="97">
   <properties>
    <property name="NoSpawn" value="All"/>
    <property name="Type" value="Wood"/>
   </properties>
  </tile>
  <tile id="98">
   <properties>
    <property name="NoSpawn" value="All"/>
    <property name="Type" value="Wood"/>
   </properties>
  </tile>
  <tile id="100">
   <properties>
    <property name="NoSpawn" value="All"/>
    <property name="Type" value="Wood"/>
   </properties>
  </tile>
  <tile id="101">
   <properties>
    <property name="NoSpawn" value="All"/>
    <property name="Type" value="Wood"/>
   </properties>
  </tile>
  <tile id="102">
   <properties>
    <property name="NoSpawn" value="All"/>
    <property name="Type" value="Wood"/>
   </properties>
  </tile>
  <tile id="103">
   <properties>
    <property name="NoSpawn" value="All"/>
    <property name="Type" value="Wood"/>
   </properties>
  </tile>
  <tile id="104">
   <properties>
    <property name="NoSpawn" value="All"/>
    <property name="Type" value="Wood"/>
   </properties>
  </tile>
  <tile id="105">
   <properties>
    <property name="NoSpawn" value="All"/>
    <property name="Type" value="Wood"/>
   </properties>
  </tile>
  <tile id="106">
   <properties>
    <property name="NoSpawn" value="All"/>
    <property name="Type" value="Wood"/>
   </properties>
  </tile>
  <tile id="107">
   <properties>
    <property name="NoSpawn" value="All"/>
    <property name="Type" value="Wood"/>
   </properties>
  </tile>
  <tile id="108">
   <properties>
    <property name="NoSpawn" value="All"/>
    <property name="Type" value="Wood"/>
   </properties>
  </tile>
  <tile id="109">
   <properties>
    <property name="NoSpawn" value="All"/>
    <property name="Type" value="Wood"/>
   </properties>
  </tile>
  <tile id="110">
   <properties>
    <property name="NoSpawn" value="All"/>
    <property name="Type" value="Wood"/>
   </properties>
  </tile>
  <tile id="111">
   <properties>
    <property name="NoSpawn" value="All"/>
    <property name="Type" value="Wood"/>
   </properties>
  </tile>
  <tile id="112">
   <properties>
    <property name="NoSpawn" value="All"/>
    <property name="Type" value="Wood"/>
   </properties>
  </tile>
  <tile id="113">
   <properties>
    <property name="NoSpawn" value="All"/>
    <property name="Type" value="Wood"/>
   </properties>
  </tile>
  <tile id="114">
   <properties>
    <property name="NoSpawn" value="All"/>
    <property name="Type" value="Wood"/>
   </properties>
  </tile>
  <tile id="115">
   <properties>
    <property name="NoSpawn" value="All"/>
    <property name="Type" value="Wood"/>
   </properties>
  </tile>
  <tile id="116">
   <properties>
    <property name="NoSpawn" value="All"/>
    <property name="Type" value="Wood"/>
   </properties>
  </tile>
  <tile id="117">
   <properties>
    <property name="NoSpawn" value="All"/>
    <property name="Type" value="Wood"/>
   </properties>
  </tile>
  <tile id="118">
   <properties>
    <property name="NoSpawn" value="All"/>
    <property name="Type" value="Wood"/>
   </properties>
  </tile>
  <tile id="119">
   <properties>
    <property name="NoSpawn" value="All"/>
    <property name="Type" value="Wood"/>
   </properties>
  </tile>
  <tile id="120">
   <properties>
    <property name="NoSpawn" value="All"/>
    <property name="Type" value="Wood"/>
   </properties>
  </tile>
  <tile id="121">
   <properties>
    <property name="NoSpawn" value="All"/>
    <property name="Type" value="Wood"/>
   </properties>
  </tile>
  <tile id="122">
   <properties>
    <property name="NoSpawn" value="All"/>
    <property name="Type" value="Wood"/>
   </properties>
  </tile>
  <tile id="123">
   <properties>
    <property name="NoSpawn" value="All"/>
    <property name="Type" value="Wood"/>
   </properties>
  </tile>
  <tile id="144">
   <properties>
    <property name="NPCBarrier" type="bool" value="true"/>
    <property name="NoFurniture" value="total"/>
    <property name="NoSpawn" value="All"/>
   </properties>
  </tile>
  <tile id="145">
   <properties>
    <property name="NPCBarrier" type="bool" value="true"/>
    <property name="NoFurniture" value="total"/>
    <property name="NoSpawn" value="All"/>
   </properties>
  </tile>
  <tile id="146">
   <properties>
    <property name="NPCBarrier" type="bool" value="true"/>
    <property name="NoSpawn" value="All"/>
    <property name="Passable" type="bool" value="true"/>
    <property name="Type" value="Wood"/>
   </properties>
  </tile>
  <tile id="147">
   <properties>
    <property name="NPCBarrier" type="bool" value="true"/>
    <property name="NoSpawn" value="All"/>
    <property name="Passable" type="bool" value="true"/>
    <property name="Type" value="Wood"/>
   </properties>
  </tile>
  <tile id="148">
   <properties>
    <property name="NPCBarrier" type="bool" value="true"/>
    <property name="NoSpawn" value="All"/>
    <property name="Passable" type="bool" value="true"/>
    <property name="Type" value="Wood"/>
   </properties>
  </tile>
  <tile id="169">
   <properties>
    <property name="NPCBarrier" type="bool" value="true"/>
    <property name="NoFurniture" value="total"/>
    <property name="NoSpawn" value="All"/>
   </properties>
  </tile>
  <tile id="170">
   <properties>
    <property name="NPCBarrier" type="bool" value="true"/>
    <property name="NoFurniture" value="total"/>
    <property name="NoSpawn" value="All"/>
   </properties>
  </tile>
  <tile id="171">
   <properties>
    <property name="NPCBarrier" type="bool" value="true"/>
    <property name="NoSpawn" value="All"/>
    <property name="Passable" type="bool" value="true"/>
    <property name="Type" value="Wood"/>
   </properties>
  </tile>
  <tile id="172">
   <properties>
    <property name="NPCBarrier" type="bool" value="true"/>
    <property name="NoSpawn" value="All"/>
    <property name="Passable" type="bool" value="true"/>
    <property name="Type" value="Wood"/>
   </properties>
  </tile>
  <tile id="173">
   <properties>
    <property name="NPCBarrier" type="bool" value="true"/>
    <property name="NoSpawn" value="All"/>
    <property name="Passable" type="bool" value="true"/>
    <property name="Type" value="Wood"/>
   </properties>
  </tile>
  <tile id="194">
   <properties>
    <property name="NPCBarrier" type="bool" value="true"/>
    <property name="NoFurniture" value="total"/>
    <property name="NoSpawn" value="All"/>
   </properties>
  </tile>
  <tile id="195">
   <properties>
    <property name="NPCBarrier" type="bool" value="true"/>
    <property name="NoFurniture" value="total"/>
    <property name="NoSpawn" value="All"/>
   </properties>
  </tile>
  <tile id="196">
   <properties>
    <property name="NPCBarrier" type="bool" value="true"/>
    <property name="NoSpawn" value="All"/>
    <property name="Passable" type="bool" value="true"/>
    <property name="Type" value="Wood"/>
   </properties>
  </tile>
  <tile id="197">
   <properties>
    <property name="NPCBarrier" type="bool" value="true"/>
    <property name="NoSpawn" value="All"/>
    <property name="Passable" type="bool" value="true"/>
    <property name="Type" value="Wood"/>
   </properties>
  </tile>
  <tile id="198">
   <properties>
    <property name="NPCBarrier" type="bool" value="true"/>
    <property name="NoSpawn" value="All"/>
    <property name="Passable" type="bool" value="true"/>
    <property name="Type" value="Wood"/>
   </properties>
  </tile>
  <tile id="219">
   <properties>
    <property name="NPCBarrier" type="bool" value="true"/>
    <property name="NoFurniture" value="total"/>
    <property name="NoSpawn" value="All"/>
   </properties>
  </tile>
  <tile id="220">
   <properties>
    <property name="NPCBarrier" type="bool" value="true"/>
    <property name="NoFurniture" value="total"/>
    <property name="NoSpawn" value="All"/>
   </properties>
  </tile>
  <tile id="343">
   <properties>
    <property name="NPCBarrier" type="bool" value="true"/>
    <property name="NoFurniture" value="total"/>
    <property name="NoSpawn" value="All"/>
    <property name="Type" value="Stone"/>
   </properties>
  </tile>
  <tile id="344">
   <properties>
    <property name="NPCBarrier" type="bool" value="true"/>
    <property name="NoFurniture" value="total"/>
    <property name="NoSpawn" value="All"/>
    <property name="Type" value="Stone"/>
   </properties>
  </tile>
  <tile id="345">
   <properties>
    <property name="NPCBarrier" type="bool" value="true"/>
    <property name="NoFurniture" value="total"/>
    <property name="NoSpawn" value="All"/>
    <property name="Type" value="Stone"/>
   </properties>
  </tile>
  <tile id="368">
   <properties>
    <property name="NPCBarrier" type="bool" value="true"/>
    <property name="NoFurniture" value="total"/>
    <property name="NoSpawn" value="All"/>
    <property name="Type" value="Stone"/>
   </properties>
  </tile>
  <tile id="369">
   <properties>
    <property name="NPCBarrier" type="bool" value="true"/>
    <property name="NoFurniture" value="total"/>
    <property name="NoSpawn" value="All"/>
    <property name="Type" value="Stone"/>
   </properties>
  </tile>
  <tile id="370">
   <properties>
    <property name="NPCBarrier" type="bool" value="true"/>
    <property name="NoFurniture" value="total"/>
    <property name="NoSpawn" value="All"/>
    <property name="Type" value="Stone"/>
   </properties>
  </tile>
  <tile id="418">
   <properties>
    <property name="NPCBarrier" type="bool" value="true"/>
    <property name="NoFurniture" value="total"/>
    <property name="NoSpawn" value="All"/>
    <property name="Type" value="Stone"/>
   </properties>
  </tile>
  <tile id="419">
   <properties>
    <property name="NPCBarrier" type="bool" value="true"/>
    <property name="NoFurniture" value="total"/>
    <property name="NoSpawn" value="All"/>
    <property name="Type" value="Stone"/>
   </properties>
  </tile>
  <tile id="420">
   <properties>
    <property name="NPCBarrier" type="bool" value="true"/>
    <property name="NoFurniture" value="total"/>
    <property name="NoSpawn" value="All"/>
    <property name="Type" value="Stone"/>
   </properties>
  </tile>
  <tile id="443">
   <properties>
    <property name="NPCBarrier" type="bool" value="true"/>
    <property name="NoFurniture" value="total"/>
    <property name="NoSpawn" value="All"/>
    <property name="Type" value="Stone"/>
   </properties>
  </tile>
  <tile id="444">
   <properties>
    <property name="NPCBarrier" type="bool" value="true"/>
    <property name="NoFurniture" value="total"/>
    <property name="NoSpawn" value="All"/>
    <property name="Type" value="Stone"/>
   </properties>
  </tile>
  <tile id="445">
   <properties>
    <property name="NPCBarrier" type="bool" value="true"/>
    <property name="NoFurniture" value="total"/>
    <property name="NoSpawn" value="All"/>
    <property name="Type" value="Stone"/>
   </properties>
  </tile>
  <tile id="493">
   <properties>
    <property name="NPCBarrier" type="bool" value="true"/>
    <property name="NoFurniture" value="total"/>
    <property name="NoSpawn" value="All"/>
    <property name="Type" value="Wood"/>
   </properties>
  </tile>
  <tile id="494">
   <properties>
    <property name="NPCBarrier" type="bool" value="true"/>
    <property name="NoFurniture" value="total"/>
    <property name="NoSpawn" value="All"/>
    <property name="Type" value="Wood"/>
   </properties>
  </tile>
  <tile id="495">
   <properties>
    <property name="NPCBarrier" type="bool" value="true"/>
    <property name="NoFurniture" value="total"/>
    <property name="NoSpawn" value="All"/>
    <property name="Type" value="Wood"/>
   </properties>
  </tile>
  <tile id="518">
   <properties>
    <property name="NPCBarrier" type="bool" value="true"/>
    <property name="NoFurniture" value="total"/>
    <property name="NoSpawn" value="All"/>
    <property name="Type" value="Wood"/>
   </properties>
  </tile>
  <tile id="519">
   <properties>
    <property name="NPCBarrier" type="bool" value="true"/>
    <property name="NoFurniture" value="total"/>
    <property name="NoSpawn" value="All"/>
    <property name="Type" value="Wood"/>
   </properties>
  </tile>
  <tile id="520">
   <properties>
    <property name="NPCBarrier" type="bool" value="true"/>
    <property name="NoFurniture" value="total"/>
    <property name="NoSpawn" value="All"/>
    <property name="Type" value="Wood"/>
   </properties>
  </tile>
 </tileset>
 <layer id="1" name="Back" width="80" height="45">
  <data encoding="csv">
1344,1345,1367,1292,1367,1345,1367,1346,1336,1336,1295,1295,1295,1339,1339,0,1344,1345,1367,1292,1367,1345,1367,1346,1336,1336,1295,1295,1295,1339,1339,0,1344,1345,1367,1292,1367,1345,1367,1346,1336,1336,1295,1295,1295,1339,1339,0,416,416,416,1737,1737,416,416,416,0,416,416,416,1737,1737,416,416,416,0,416,416,416,1737,1737,416,416,416,0,290,1737,1737,1737,0,
1336,1368,1345,1367,1345,1367,1343,1336,1336,1293,2147484968,1320,1320,1318,1336,0,1336,1368,1345,1367,1345,1367,1343,1336,1336,1293,2147484968,1320,1320,1318,1336,0,1336,1368,1345,1367,1345,1367,1343,1336,1336,1293,2147484968,1320,1320,1318,1336,0,416,2147484013,1737,1737,1737,1737,416,416,0,416,2147484013,1737,1737,1737,1737,416,416,0,416,2147484013,1737,1737,1737,1737,416,416,0,267,1737,1737,1737,0,
1336,1336,1370,1370,1370,1370,1336,1737,1737,1737,1737,2147484990,1367,2147484968,1318,0,1336,1336,1370,1370,1370,1370,1336,1737,1737,1737,1737,2147484990,1367,2147484968,1318,0,1336,1336,1370,1370,1370,1370,1336,1737,1737,1737,1737,2147484990,1367,2147484968,1318,0,421,1737,1737,1737,1737,1737,1737,416,0,421,1737,1737,1737,1737,1737,1737,416,0,421,1737,1737,1737,1737,1737,1737,416,0,404,1737,1737,1737,0,
1336,1336,1336,1336,1336,1336,1737,1737,1737,1737,1737,1737,2147484965,1345,2147484968,0,1336,1336,1336,1336,1336,1336,1737,1737,1737,1737,1737,1737,2147484965,1345,2147484968,0,1336,1336,1336,1336,1336,1336,1737,1737,1737,1737,1737,1737,2147484965,1345,2147484968,0,447,1737,1737,1737,1737,1737,1737,416,0,447,1737,1737,1737,1737,1737,1737,416,0,447,1737,1737,1737,1737,1737,1737,416,0,404,1737,1737,1737,0,
2147484985,1336,1336,1336,1336,1306,7521,7522,7523,1737,1737,1737,1367,1367,1345,0,2147484985,1336,1336,1336,1336,1306,7529,7530,7531,1737,1737,1737,1367,1367,1345,0,2147484985,1336,1336,1336,1336,1306,7537,7538,7539,1737,1737,1737,1367,1367,1345,0,422,1737,1737,1737,1737,1737,1737,416,0,422,1737,1737,1737,1737,1737,1737,416,0,422,1737,1737,1737,1737,1737,1737,416,0,404,1737,1737,1737,0,
1339,1336,1336,1336,1307,1331,7545,7546,7547,7548,1737,1737,652,1345,1367,0,1339,1336,1336,1336,1307,1331,7553,7554,7555,7556,1737,1737,652,1345,1367,0,1339,1336,1336,1336,1307,1331,7561,7562,7563,7564,1737,1737,652,1345,1367,0,471,1737,1737,1737,1737,1737,1737,441,0,471,1737,1737,1737,1737,1737,1737,441,0,471,1737,1737,1737,1737,1737,1737,441,0,404,1737,1737,1737,0,
1336,1336,1336,1336,1336,1388,1737,1737,1737,1737,1737,1737,652,1367,1345,0,1336,1336,1336,1336,1336,1388,1737,1737,1737,1737,1737,1737,652,1367,1345,0,1336,1336,1336,1336,1336,1388,1737,1737,1737,1737,1737,1737,652,1367,1345,0,370,1737,1737,1737,1737,1737,1737,240,0,370,1737,1737,1737,1737,1737,1737,240,0,370,1737,1737,1737,1737,1737,1737,240,0,404,1737,1737,1737,0,
1336,1336,2147484984,1336,1336,652,1737,1737,1737,1737,1737,1737,652,652,1367,0,1336,1336,2147484984,1336,1336,652,1737,1737,1737,1737,1737,1737,652,652,1367,0,1336,1336,2147484984,1336,1336,652,1737,1737,1737,1737,1737,1737,652,652,1367,0,441,1737,1737,1737,1737,1737,1737,240,0,441,1737,1737,1737,1737,1737,1737,240,0,441,1737,1737,1737,1737,1737,1737,240,0,404,1737,1737,1737,0,
1336,1336,652,675,243,316,1737,1737,1737,1737,1737,1737,652,1737,1368,0,1336,1336,652,675,243,316,1737,1737,1737,1737,1737,1737,652,1737,1368,0,1336,1336,652,675,243,316,1737,1737,1737,1737,1737,1737,652,1737,1368,0,240,240,240,240,240,240,240,240,0,240,240,240,240,240,240,240,240,0,240,240,240,240,240,240,240,240,0,627,1737,1737,1737,0,
1336,1336,679,272,293,240,269,316,316,316,317,652,652,1308,1306,0,1336,1336,679,272,293,240,269,316,316,316,317,652,652,1308,1306,0,1336,1336,679,272,293,240,269,316,316,316,317,652,652,1308,1306,0,240,240,240,265,2147483913,240,240,240,0,240,240,240,265,2147483913,240,240,240,0,240,240,240,265,2147483913,240,240,240,0,291,291,272,653,0,
1336,652,652,243,318,215,265,244,245,270,2147483890,2147484302,652,1333,1331,0,1336,652,652,243,318,215,265,244,245,270,2147483890,2147484302,652,1333,1331,0,1336,652,652,243,318,215,265,244,245,270,2147483890,2147484302,652,1333,1331,0,240,240,2147483863,290,2147483915,268,240,240,0,240,240,2147483863,290,2147483915,268,240,240,0,240,240,2147483863,290,2147483915,268,240,240,0,652,654,291,653,0,
1336,652,652,242,2147483918,270,2147483890,652,241,291,652,652,652,1336,1336,0,1336,652,652,242,2147483918,270,2147483890,652,241,291,652,652,652,1336,1336,0,1336,652,652,242,2147483918,270,2147483890,652,241,291,652,652,652,1336,1336,0,240,240,265,267,629,293,240,2147483968,0,240,240,265,267,629,293,240,2147483968,0,240,240,265,267,629,293,240,2147483968,0,241,241,241,653,0,
0,0,0,0,0,0,0,0,0,0,0,0,0,0,0,0,0,0,0,0,0,0,0,0,0,0,0,0,0,0,0,0,0,0,0,0,0,0,0,0,0,0,0,0,0,0,0,0,265,266,267,675,625,242,266,244,0,265,266,267,675,625,242,266,244,0,265,266,267,675,625,242,266,244,0,241,679,241,653,0,
1367,1367,2147484968,2147484968,1320,1318,1293,1320,1345,1343,240,240,1737,1737,0,1367,1367,2147484968,2147484968,1320,1318,1293,1320,1345,1343,240,240,1737,1737,0,1367,1367,2147484968,2147484968,1320,1318,1293,1320,1345,1343,240,240,1737,1737,0,1737,1737,0,0,0,0,0,0,0,0,0,0,0,0,0,0,0,0,0,0,0,0,0,0,0,0,0,0,0,0,241,292,292,653,0,
1368,2147484990,1345,1345,1345,2147484968,1320,1345,1343,1307,1309,1310,240,240,0,1368,2147484990,1345,1345,1345,2147484968,1320,1345,1343,1307,1309,1310,240,240,0,1368,2147484990,1345,1345,1345,2147484968,1320,1345,1343,1307,1309,1310,240,240,0,1737,1737,0,0,0,0,0,0,0,0,0,0,0,0,0,0,0,0,0,0,0,0,0,0,0,0,0,0,0,0,241,291,292,653,0,
1387,1370,1370,1737,1737,1737,1737,1292,1318,1332,1334,1335,1309,1309,0,1387,1370,1370,1737,1737,1737,1737,1292,1318,1332,1334,1335,1309,1309,0,1387,1370,1370,1737,1737,1737,1737,1292,1318,1332,1334,1335,1309,1309,0,240,240,0,0,0,0,0,0,0,0,0,0,0,0,0,0,0,0,0,0,0,0,0,0,0,0,0,0,0,0,315,317,625,653,0,
1295,1295,1737,1737,1737,1737,1737,1737,2147484968,1318,1295,2147484979,1334,1334,0,1295,1295,1737,1737,1737,1737,1737,1737,2147484968,1318,1295,2147484979,1334,1334,0,1295,1295,1737,1737,1737,1737,1737,1737,2147484968,1318,1295,2147484979,1334,1334,0,0,0,0,0,0,0,0,0,0,0,0,0,0,0,0,0,0,0,0,0,0,0,0,0,0,0,0,0,0,0,0,0,0,0,0,
1320,1320,1737,1737,1737,1737,1737,1737,1367,2147484968,1320,1318,1296,1336,0,1320,1320,1737,1737,1737,1737,1737,1737,1367,2147484968,1320,1318,1296,1336,0,1320,1320,1737,1737,1737,1737,1737,1737,1367,2147484968,1320,1318,1296,1336,0,294,269,2147483917,2147483942,316,316,317,292,292,243,318,265,244,245,270,2147483914,266,268,265,266,268,340,340,340,340,340,240,240,2147483966,2147483963,240,240,1737,1737,1737,
1345,1292,1737,1737,1737,1737,1737,1737,340,1345,1367,1367,1346,1388,0,1345,1292,1737,1737,1737,1737,1737,1737,340,1345,1367,1367,1346,1388,0,1345,1292,1737,1737,1737,1737,1737,1737,340,1345,1367,1367,1346,1388,0,265,268,340,265,266,2147483914,267,292,292,293,340,315,316,317,2147483894,243,317,293,315,2147483891,242,268,340,265,268,265,266,2147483914,268,2147483863,240,240,1737,1737,0,
1345,340,1737,1737,1737,1737,1737,1737,340,1370,1368,1317,1346,1336,0,1345,340,1737,1737,1737,1737,1737,1737,340,1370,1368,1317,1346,1336,0,1345,340,1737,1737,1737,1737,1737,1737,340,1370,1368,1317,1346,1336,0,267,293,340,315,294,295,269,317,272,242,266,268,340,315,317,1073742117,2147483941,2147483915,266,2147483890,291,293,340,315,318,290,291,2147483895,242,244,245,245,1737,1737,1737,
1370,340,1737,1737,1737,1737,1737,1737,340,340,215,340,1336,1336,0,1370,340,1737,1737,1737,1737,1737,1737,340,340,215,340,1336,1336,0,1370,340,1737,1737,1737,1737,1737,1737,340,340,215,340,1336,1336,0,246,2147483915,266,268,340,216,340,290,243,317,296,293,340,340,290,293,315,317,291,243,316,318,265,266,268,315,316,317,292,292,292,292,1737,1737,1737,
1387,340,1737,1737,1737,1737,1737,1737,340,467,340,319,340,340,0,1387,340,1737,1737,1737,1737,1737,1737,340,467,340,319,340,340,0,1387,340,1737,1737,1737,1737,1737,1737,340,467,340,319,340,340,0,1310,243,317,293,340,265,266,267,242,267,243,318,340,320,315,318,265,267,243,318,265,266,267,291,242,268,265,267,292,292,292,292,1737,1737,1737,
340,340,340,340,340,340,340,340,340,340,340,340,467,340,0,340,340,340,340,340,340,340,340,340,340,340,340,467,340,0,340,340,340,340,340,340,340,340,340,340,340,340,467,340,0,1335,293,315,318,340,315,317,243,316,317,2147483915,244,245,270,2147483914,266,267,243,318,215,315,317,553,292,291,242,267,292,2147483944,292,1737,1737,1737,1737,1737,
0,0,0,0,0,0,0,0,0,0,0,0,0,0,0,0,0,0,0,0,0,0,0,0,0,0,0,0,0,0,0,0,0,0,0,0,0,0,0,0,0,0,0,0,0,2147484979,242,244,245,2147483893,270,2147483890,293,265,267,2147483965,316,2147483891,291,292,292,291,2147483915,244,245,270,2147483890,292,292,292,292,291,650,675,292,1737,1737,1737,1737,1737,
0,0,2147483964,316,0,0,0,2147483964,316,0,0,0,2147483964,316,0,0,0,2147483964,316,0,0,0,2147483964,316,0,0,0,2147483964,316,0,0,0,465,340,340,340,340,0,0,0,0,0,0,0,0,1307,1310,679,243,294,295,269,318,290,291,2147483915,268,290,292,291,292,292,292,291,292,292,291,292,2147484273,2147484311,292,292,292,292,292,1737,1737,1737,1737,1737,
0,0,2147483964,316,0,0,0,2147483964,316,0,0,0,2147483964,316,0,0,0,2147483964,316,0,0,0,2147483964,316,0,0,0,2147483964,316,0,0,0,0,0,0,0,0,0,0,0,0,0,0,0,0,1332,1335,629,293,340,2147483863,340,340,315,317,578,2147483915,2147483890,243,316,317,292,292,292,292,291,292,650,675,292,1737,1737,1737,1737,390,1737,445,1737,1737,1737,
0,0,0,0,0,0,0,0,0,0,0,0,0,0,0,0,0,0,0,0,0,0,0,0,0,0,0,0,0,0,0,0,0,0,0,0,0,0,0,0,0,0,0,0,0,1318,1295,292,2147483915,268,340,2147483968,340,340,290,292,292,243,318,2147483864,290,271,292,292,292,654,625,292,2147484277,292,1737,1737,1737,368,393,444,445,1737,1737,1737,
0,0,2147483964,316,0,0,0,2147483964,316,0,0,0,2147483964,316,0,0,0,2147483964,316,0,0,0,2147483964,316,0,391,0,0,0,0,0,0,0,0,0,0,0,0,0,0,0,0,0,0,0,2147484968,2147484968,292,2147483894,242,266,268,265,266,267,292,292,293,265,268,315,294,295,317,629,663,664,675,663,292,1737,1737,1737,1737,420,397,1737,1737,1737,1737,
0,0,2147483964,316,0,0,0,2147483964,316,0,0,0,2147483964,316,0,0,0,2147483964,316,0,0,0,2147483964,316,0,0,0,0,0,0,0,0,0,0,0,0,0,0,0,0,0,0,0,0,0,1368,1345,291,291,243,316,318,315,294,2147483943,295,269,318,290,242,268,340,340,290,292,292,1737,391,1737,1737,1737,1737,1737,445,445,1737,1737,1737,1737,1737,
0,0,0,0,0,0,0,0,0,0,0,0,0,0,0,0,0,0,0,0,0,0,0,0,0,0,0,0,0,0,0,0,0,0,0,0,0,0,0,0,0,0,0,0,0,1737,1737,295,269,318,265,268,340,340,340,340,340,265,267,243,318,340,265,267,292,292,1737,416,416,1737,1737,1737,1737,445,1737,1737,1737,1737,1737,1737,
1737,416,1737,1737,1737,1737,1737,1737,1737,1737,1737,1737,1737,1737,290,1737,1737,1737,1737,1737,1737,1737,1737,1737,1737,1737,0,0,0,0,0,0,0,0,0,0,0,0,0,0,0,0,0,0,0,0,0,0,0,0,0,0,0,0,0,0,0,0,0,0,0,0,0,0,0,0,0,0,0,0,0,0,0,0,0,0,0,0,0,0,
1737,416,1737,1737,1737,1737,1737,1737,1737,1737,1737,1737,1737,1737,267,1737,1737,1737,268,1737,1737,1737,1737,1737,1737,1737,0,0,0,0,0,0,0,0,0,0,0,0,0,0,0,0,0,0,0,0,0,0,0,0,0,0,0,0,0,0,0,0,0,0,0,0,0,0,0,0,0,0,0,0,0,0,0,0,0,0,0,0,0,0,
411,416,1737,1737,1737,1737,1737,1737,1737,1737,1737,1737,1737,1737,810,1737,1737,1737,293,1737,1737,1737,1737,1737,1737,1737,0,0,0,0,0,0,0,0,0,0,0,0,0,0,0,0,0,0,0,0,0,0,0,0,0,0,0,0,0,0,0,0,0,0,0,0,0,0,0,0,0,0,0,0,0,0,0,0,0,0,0,0,0,0,
2147484231,157,1737,1737,1737,416,1737,1737,1737,1737,1737,1737,1737,1737,377,1737,1737,1737,377,1737,1737,1737,1737,1737,1737,1737,0,0,0,0,0,0,0,0,0,0,0,0,0,0,0,0,0,0,0,0,0,0,0,0,0,0,0,0,0,0,0,0,0,0,0,0,0,0,0,0,0,0,0,0,0,0,0,0,0,0,0,0,0,0,
416,416,1737,1737,1737,1737,1737,1737,1737,1737,1737,1737,1737,1737,377,1737,1737,1737,377,1737,1737,1737,1737,1737,1737,1737,0,0,0,0,0,0,0,0,0,0,0,0,0,0,0,0,0,0,0,0,0,0,0,0,0,0,0,0,0,0,0,0,0,0,0,0,0,0,0,0,0,0,0,0,0,0,0,0,0,0,0,0,0,0,
416,416,1737,1737,1011,1737,1737,1737,1737,1737,158,1737,1737,392,377,1737,1737,1737,377,1737,1737,391,391,1737,1737,1737,0,0,0,0,0,0,0,0,0,0,0,0,0,0,0,0,0,0,0,0,0,0,0,0,0,0,0,0,0,0,0,0,0,0,0,0,0,0,0,0,0,0,0,0,0,0,0,0,0,0,0,0,0,0,
416,416,444,445,1737,1737,1737,1737,1737,445,1737,1737,365,1737,377,1737,1737,1737,377,1737,1737,416,1737,1737,1737,1737,0,0,0,0,0,0,0,0,0,0,0,0,0,0,0,0,0,0,0,0,0,0,0,0,0,0,0,0,0,0,0,0,0,0,0,0,0,0,0,0,0,0,0,0,0,0,0,0,0,0,0,0,0,0,
416,394,469,470,1737,1737,1737,1737,1737,1011,1737,418,1737,1737,377,1737,1737,1737,377,1737,1737,416,1737,1737,1737,1737,0,0,0,0,0,0,0,0,0,0,0,0,0,0,0,0,0,0,0,0,0,0,0,0,0,0,0,0,0,0,0,0,0,0,0,0,0,0,0,0,0,0,0,0,0,0,0,0,0,0,0,0,0,0,
416,394,1737,1737,1737,1737,1737,1737,1737,1011,1737,1737,1737,1737,602,1737,1737,1737,602,1737,1737,1737,444,221,1737,1737,0,0,0,0,0,0,0,0,0,0,0,0,0,0,0,0,0,0,0,0,0,0,0,0,0,0,0,0,0,0,0,0,0,0,0,0,0,0,0,0,0,0,0,0,0,0,0,0,0,0,0,0,0,0,
416,394,1737,1737,1737,1737,1737,1737,1737,1737,1737,1737,1737,240,602,601,654,653,602,1737,1737,1737,469,470,1737,1737,0,0,0,0,0,0,0,0,0,0,0,0,0,0,0,0,0,0,0,0,0,0,0,0,0,0,0,0,0,0,0,0,0,0,0,0,0,0,0,0,0,0,0,0,0,0,0,0,0,0,0,0,0,0,
416,394,1737,1737,1737,1737,1737,1737,1737,1737,1737,1737,1737,1737,602,651,241,653,602,1737,1737,1737,1737,416,416,1737,0,0,0,0,0,0,0,0,0,0,0,0,0,0,0,0,0,0,0,0,0,0,0,0,0,0,0,0,0,0,0,0,0,0,0,0,0,0,0,0,0,0,0,0,0,0,0,0,0,0,0,0,0,0,
441,441,1737,1737,1737,441,468,1737,1737,1737,1737,1737,1737,1737,621,651,241,653,621,1737,1737,1737,1737,416,416,1737,0,0,0,0,0,0,0,0,0,0,0,0,0,0,0,0,0,0,0,0,0,0,0,0,0,0,0,0,0,0,0,0,0,0,0,0,0,0,0,0,0,0,0,0,0,0,0,0,0,0,0,0,0,0,
340,321,1737,1737,442,390,1737,1737,416,1737,1737,1737,1737,1737,621,651,241,653,621,1737,1737,1737,1737,1737,416,1737,0,0,0,0,0,0,0,0,0,0,0,0,0,0,0,0,0,0,0,0,0,0,0,0,0,0,0,0,0,0,0,0,0,0,0,0,0,0,0,0,0,0,0,0,0,0,0,0,0,0,0,0,0,0,
1737,1737,1737,1737,340,440,441,441,1737,441,442,1737,1737,1737,621,651,292,653,621,1737,1737,1737,1737,1737,416,416,0,0,0,0,0,0,0,0,0,0,0,0,0,0,0,0,0,0,0,0,0,0,0,0,0,0,0,0,0,0,0,0,0,0,0,0,0,0,0,0,0,0,0,0,0,0,0,0,0,0,0,0,0,0,
1737,1737,1737,405,1737,1737,1737,1737,1737,340,340,558,1737,1737,621,683,292,653,621,1737,1737,1737,1737,1737,416,416,0,0,0,0,0,0,0,0,0,0,0,0,0,0,0,0,0,0,0,0,0,0,0,0,0,0,0,0,0,0,0,0,0,0,0,0,0,0,0,0,0,0,0,0,0,0,0,0,0,0,0,0,0,0
</data>
 </layer>
 <layer id="11" name="Back2" width="80" height="45">
  <data encoding="csv">
0,0,0,0,0,0,0,0,0,0,0,0,0,0,0,0,0,0,0,0,0,0,0,0,0,0,0,0,0,0,0,0,0,0,0,0,0,0,0,0,0,0,0,0,0,0,0,0,0,0,0,0,0,0,0,0,0,0,0,0,0,0,0,0,0,0,0,0,0,0,0,0,0,0,0,0,0,0,0,0,
0,0,0,0,0,0,0,0,0,0,0,0,0,0,0,0,0,0,0,0,0,0,0,0,0,0,0,0,0,0,0,0,0,0,0,0,0,0,0,0,0,0,0,0,0,0,0,0,0,0,0,0,0,0,0,0,0,0,0,0,0,0,0,0,0,0,0,0,0,0,0,0,0,0,0,0,0,0,0,0,
0,0,0,0,0,0,0,0,0,0,0,0,0,0,0,0,0,0,0,0,0,0,0,0,0,0,0,0,0,0,0,0,0,0,0,0,0,0,0,0,0,0,0,0,0,0,0,0,0,0,0,0,0,0,0,0,0,0,0,0,0,0,0,0,0,0,0,0,0,0,0,0,0,0,0,0,0,0,0,0,
0,0,0,0,0,0,0,0,0,0,0,0,0,0,0,0,0,0,0,0,0,0,0,0,0,0,0,0,0,0,0,0,0,0,0,0,0,0,0,0,0,0,0,0,0,0,0,0,0,0,0,0,0,0,0,0,0,0,0,0,0,0,0,0,0,0,0,0,0,0,0,0,0,0,0,0,0,0,0,0,
0,0,0,0,0,0,0,0,0,0,0,0,0,0,0,0,0,0,0,0,0,0,0,0,0,0,0,0,0,0,0,0,0,0,0,0,0,0,0,0,0,0,0,0,0,0,0,0,0,0,0,0,0,0,0,0,0,0,0,0,0,0,0,0,0,0,0,0,0,0,0,0,0,0,0,0,0,0,0,0,
0,0,0,0,0,0,0,0,0,0,0,0,0,0,0,0,0,0,0,0,0,0,0,0,0,0,0,0,0,0,0,0,0,0,0,0,0,0,0,0,0,0,0,0,0,0,0,0,0,0,0,0,0,0,0,0,0,0,0,0,0,0,0,0,0,0,0,0,0,0,0,0,0,0,0,0,0,0,0,0,
0,0,0,0,0,0,0,0,0,0,0,0,0,0,0,0,0,0,0,0,0,0,0,0,0,0,0,0,0,0,0,0,0,0,0,0,0,0,0,0,0,0,0,0,0,0,0,0,0,0,0,0,0,0,0,0,0,0,0,0,0,0,0,0,0,0,0,0,0,0,0,0,0,0,0,0,0,0,0,0,
0,0,0,0,0,0,0,0,0,0,0,0,0,0,0,0,0,0,0,0,0,0,0,0,0,0,0,0,0,0,0,0,0,0,0,0,0,0,0,0,0,0,0,0,0,0,0,0,0,0,0,0,0,0,0,0,0,0,0,0,0,0,0,0,0,0,0,0,0,0,0,0,0,0,0,0,0,0,0,0,
0,0,0,0,0,0,0,0,0,0,0,0,0,0,0,0,0,0,0,0,0,0,0,0,0,0,0,0,0,0,0,0,0,0,0,0,0,0,0,0,0,0,0,0,0,0,0,0,0,0,0,0,0,0,0,0,0,0,0,0,0,0,0,0,0,0,0,0,0,0,0,0,0,0,0,0,0,0,0,0,
0,0,0,0,0,0,0,0,0,0,0,0,0,0,0,0,0,0,0,0,0,0,0,0,0,0,0,0,0,0,0,0,0,0,0,0,0,0,0,0,0,0,0,0,0,0,0,0,0,0,0,0,0,0,0,0,0,0,0,0,0,0,0,0,0,0,0,0,0,0,0,0,0,0,0,0,0,0,0,0,
0,0,0,0,0,0,0,0,0,0,0,0,0,0,0,0,0,0,0,0,0,0,0,0,0,0,0,0,0,0,0,0,0,0,0,0,0,0,0,0,0,0,0,0,0,0,0,0,0,0,0,0,0,0,0,0,0,0,0,0,0,0,0,0,0,0,0,0,0,0,0,0,0,0,0,0,0,0,0,0,
0,0,0,0,0,0,0,0,0,0,0,0,0,0,0,0,0,0,0,0,0,0,0,0,0,0,0,0,0,0,0,0,0,0,0,0,0,0,0,0,0,0,0,0,0,0,0,0,0,0,0,0,0,0,0,0,0,0,0,0,0,0,0,0,0,0,0,0,0,0,0,0,0,0,0,0,0,0,0,0,
0,0,0,0,0,0,0,0,0,0,0,0,0,0,0,0,0,0,0,0,0,0,0,0,0,0,0,0,0,0,0,0,0,0,0,0,0,0,0,0,0,0,0,0,0,0,0,0,0,0,0,0,0,0,0,0,0,0,0,0,0,0,0,0,0,0,0,0,0,0,0,0,0,0,0,0,0,0,0,0,
0,0,0,0,0,0,0,0,0,0,0,0,0,0,0,0,0,0,0,0,0,0,0,0,0,0,0,0,0,0,0,0,0,0,0,0,0,0,0,0,0,0,0,0,0,0,0,0,0,0,0,0,0,0,0,0,0,0,0,0,0,0,0,0,0,0,0,0,0,0,0,0,0,0,0,0,0,0,0,0,
0,0,0,0,0,0,0,0,0,0,0,0,0,0,0,0,0,0,0,0,0,0,0,0,0,0,0,0,0,0,0,0,0,0,0,0,0,0,0,0,0,0,0,0,0,0,0,0,0,0,0,0,0,0,0,0,0,0,0,0,0,0,0,0,0,0,0,0,0,0,0,0,0,0,0,0,0,0,0,0,
0,0,0,0,0,0,0,0,0,0,0,0,0,0,0,0,0,0,0,0,0,0,0,0,0,0,0,0,0,0,0,0,0,0,0,0,0,0,0,0,0,0,0,0,0,0,0,0,0,0,0,0,0,0,0,0,0,0,0,0,0,0,0,0,0,0,0,0,0,0,0,0,0,0,0,0,0,0,0,0,
0,0,0,0,0,0,0,0,0,0,0,0,0,0,0,0,0,0,0,0,0,0,0,0,0,0,0,0,0,0,0,0,0,0,0,0,0,0,0,0,0,0,0,0,0,0,0,0,0,0,0,0,0,0,0,0,0,0,0,0,0,0,0,0,0,0,0,0,0,0,0,0,0,0,0,0,0,0,0,0,
0,0,0,0,0,0,0,0,0,0,0,0,0,0,0,0,0,0,0,0,0,0,0,0,0,0,0,0,0,0,0,0,0,0,0,0,0,0,0,0,0,0,0,0,0,0,0,0,0,0,0,0,0,0,0,0,0,0,0,0,0,0,0,0,0,0,0,0,0,0,0,0,0,0,0,0,0,0,0,0,
0,0,0,0,0,0,0,0,0,0,0,0,0,0,0,0,0,0,0,0,0,0,0,0,0,0,0,0,0,0,0,0,0,0,0,0,0,0,0,0,0,0,0,0,0,0,0,0,0,0,0,0,0,0,0,0,0,0,0,0,0,0,0,0,0,0,0,0,0,0,0,0,0,0,0,0,0,0,0,0,
0,0,0,0,0,0,0,0,0,0,0,0,0,0,0,0,0,0,0,0,0,0,0,0,0,0,0,0,0,0,0,0,0,0,0,0,0,0,0,0,0,0,0,0,0,0,0,0,0,0,0,0,0,0,0,0,0,0,0,0,0,0,0,0,0,0,0,0,0,0,0,0,0,0,0,0,0,0,0,0,
0,0,0,0,0,0,0,0,0,0,0,0,0,0,0,0,0,0,0,0,0,0,0,0,0,0,0,0,0,0,0,0,0,0,0,0,0,0,0,0,0,0,0,0,0,0,0,0,0,0,0,0,0,0,0,0,0,0,0,0,0,0,0,0,0,0,0,0,0,0,0,0,0,0,0,0,0,0,0,0,
0,0,0,0,0,0,0,0,0,0,0,0,0,0,0,0,0,0,0,0,0,0,0,0,0,0,0,0,0,0,0,0,0,0,0,0,0,0,0,0,0,0,0,0,0,0,0,0,0,0,0,0,0,0,0,0,0,0,0,0,0,0,0,0,0,0,0,0,0,0,0,0,0,0,0,0,0,0,0,0,
0,0,0,0,0,0,0,0,0,0,0,0,0,0,0,0,0,0,0,0,0,0,0,0,0,0,0,0,0,0,0,0,0,0,0,0,0,0,0,0,0,0,0,0,0,0,0,0,0,0,0,0,0,0,0,0,0,0,0,0,0,0,0,0,0,0,0,0,0,0,0,0,0,0,0,0,0,0,0,0,
0,0,0,0,0,0,0,0,0,0,0,0,0,0,0,0,0,0,0,0,0,0,0,0,0,0,0,0,0,0,0,0,0,0,0,0,0,0,0,0,0,0,0,0,0,0,0,0,0,0,0,0,0,0,0,0,0,0,0,0,0,0,0,0,0,0,0,0,0,0,0,0,0,0,0,0,0,0,0,0,
0,0,0,0,0,0,0,0,0,0,0,0,0,0,0,0,0,0,0,0,0,0,0,0,0,0,0,0,0,0,0,0,0,0,0,0,0,0,0,0,0,0,0,0,0,0,0,0,0,0,0,0,0,0,0,0,0,0,0,0,0,0,0,0,0,0,0,0,0,0,0,0,0,0,0,0,0,0,0,0,
0,0,0,0,0,0,0,0,0,0,0,0,0,0,0,0,0,0,0,0,0,0,0,0,0,0,0,0,0,0,0,0,0,0,0,0,0,0,0,0,0,0,0,0,0,0,0,0,0,0,0,0,0,0,0,0,0,0,0,0,0,0,0,0,0,0,0,0,0,0,0,0,0,0,0,0,0,0,0,0,
0,0,0,0,0,0,0,0,0,0,0,0,0,0,0,0,0,0,0,0,0,0,0,0,0,0,0,0,0,0,0,0,0,0,0,0,0,0,0,0,0,0,0,0,0,0,0,0,0,0,0,0,0,0,0,0,0,0,0,0,0,0,0,0,0,0,0,0,0,0,0,0,0,0,0,0,0,0,0,0,
0,0,0,0,0,0,0,0,0,0,0,0,0,0,0,0,0,0,0,0,0,0,0,0,0,10701,0,0,0,0,0,0,0,0,0,0,0,0,0,0,0,0,0,0,0,0,0,0,0,0,0,0,0,0,0,0,0,0,0,0,0,0,0,0,0,0,0,0,0,0,0,0,0,0,0,0,0,0,0,0,
0,0,0,0,0,0,0,0,0,0,0,0,0,0,0,0,0,0,0,0,0,0,0,0,0,0,0,0,0,0,0,0,0,0,0,0,0,0,0,0,0,0,0,0,0,0,0,0,0,0,0,0,0,0,0,0,0,0,0,0,0,0,0,0,0,0,0,0,0,0,0,0,0,0,0,0,0,0,0,0,
0,0,0,0,0,0,0,0,0,0,0,0,0,0,0,0,0,0,0,0,0,0,0,0,0,0,0,0,0,0,0,0,0,0,0,0,0,0,0,0,0,0,0,0,0,0,0,0,0,0,0,0,0,0,0,0,0,0,0,0,0,0,0,0,0,0,0,0,0,0,0,0,0,0,0,0,0,0,0,0,
0,0,0,0,0,0,0,0,0,0,0,0,0,0,0,0,0,0,0,0,0,0,0,0,0,0,0,0,0,0,0,0,0,0,0,0,0,0,0,0,0,0,0,0,0,0,0,0,0,0,0,0,0,0,0,0,0,0,0,0,0,0,0,0,0,0,0,0,0,0,0,0,0,0,0,0,0,0,0,0,
0,0,0,0,0,0,0,0,0,0,0,0,0,0,0,0,0,0,0,0,0,0,0,0,0,0,0,0,0,0,0,0,0,0,0,0,0,0,0,0,0,0,0,0,0,0,0,0,0,0,0,0,0,0,0,0,0,0,0,0,0,0,0,0,0,0,0,0,0,0,0,0,0,0,0,0,0,0,0,0,
0,0,0,0,0,0,0,0,0,0,0,0,0,0,0,0,0,0,0,0,0,0,0,0,0,0,0,0,0,0,0,0,0,0,0,0,0,0,0,0,0,0,0,0,0,0,0,0,0,0,0,0,0,0,0,0,0,0,0,0,0,0,0,0,0,0,0,0,0,0,0,0,0,0,0,0,0,0,0,0,
0,0,0,0,0,0,0,0,0,0,0,0,0,0,0,0,0,0,0,0,0,0,0,0,0,0,0,0,0,0,0,0,0,0,0,0,0,0,0,0,0,0,0,0,0,0,0,0,0,0,0,0,0,0,0,0,0,0,0,0,0,0,0,0,0,0,0,0,0,0,0,0,0,0,0,0,0,0,0,0,
0,0,0,0,0,0,0,0,0,0,0,0,0,0,0,0,0,0,0,0,0,0,0,0,0,0,0,0,0,0,0,0,0,0,0,0,0,0,0,0,0,0,0,0,0,0,0,0,0,0,0,0,0,0,0,0,0,0,0,0,0,0,0,0,0,0,0,0,0,0,0,0,0,0,0,0,0,0,0,0,
0,0,0,0,0,0,0,0,0,0,0,0,0,0,0,0,0,0,0,0,0,0,0,0,0,0,0,0,0,0,0,0,0,0,0,0,0,0,0,0,0,0,0,0,0,0,0,0,0,0,0,0,0,0,0,0,0,0,0,0,0,0,0,0,0,0,0,0,0,0,0,0,0,0,0,0,0,0,0,0,
0,0,0,0,0,0,0,0,0,0,0,0,0,0,0,0,0,0,0,0,0,0,0,0,0,0,0,0,0,0,0,0,0,0,0,0,0,0,0,0,0,0,0,0,0,0,0,0,0,0,0,0,0,0,0,0,0,0,0,0,0,0,0,0,0,0,0,0,0,0,0,0,0,0,0,0,0,0,0,0,
0,0,0,0,0,0,0,0,0,0,0,0,0,0,0,0,0,0,0,0,0,0,0,0,0,0,0,0,0,0,0,0,0,0,0,0,0,0,0,0,0,0,0,0,0,0,0,0,0,0,0,0,0,0,0,0,0,0,0,0,0,0,0,0,0,0,0,0,0,0,0,0,0,0,0,0,0,0,0,0,
0,0,0,0,0,0,0,0,0,0,0,0,0,0,0,0,0,0,0,0,0,0,0,0,0,0,0,0,0,0,0,0,0,0,0,0,0,0,0,0,0,0,0,0,0,0,0,0,0,0,0,0,0,0,0,0,0,0,0,0,0,0,0,0,0,0,0,0,0,0,0,0,0,0,0,0,0,0,0,0,
0,0,0,0,0,0,0,0,0,0,0,0,0,0,0,0,0,0,0,0,0,0,0,0,0,0,0,0,0,0,0,0,0,0,0,0,0,0,0,0,0,0,0,0,0,0,0,0,0,0,0,0,0,0,0,0,0,0,0,0,0,0,0,0,0,0,0,0,0,0,0,0,0,0,0,0,0,0,0,0,
0,0,0,0,0,0,0,0,0,0,0,0,0,0,0,0,0,0,0,0,0,0,0,0,0,0,0,0,0,0,0,0,0,0,0,0,0,0,0,0,0,0,0,0,0,0,0,0,0,0,0,0,0,0,0,0,0,0,0,0,0,0,0,0,0,0,0,0,0,0,0,0,0,0,0,0,0,0,0,0,
0,0,0,0,0,0,0,0,0,0,0,0,0,0,0,0,0,0,0,0,0,0,0,0,0,0,0,0,0,0,0,0,0,0,0,0,0,0,0,0,0,0,0,0,0,0,0,0,0,0,0,0,0,0,0,0,0,0,0,0,0,0,0,0,0,0,0,0,0,0,0,0,0,0,0,0,0,0,0,0,
0,0,0,0,0,0,0,0,0,0,0,0,0,0,0,0,0,0,0,0,0,0,0,0,0,0,0,0,0,0,0,0,0,0,0,0,0,0,0,0,0,0,0,0,0,0,0,0,0,0,0,0,0,0,0,0,0,0,0,0,0,0,0,0,0,0,0,0,0,0,0,0,0,0,0,0,0,0,0,0,
0,0,0,0,0,0,0,0,0,0,0,0,0,0,0,0,0,0,0,0,0,0,0,0,0,0,0,0,0,0,0,0,0,0,0,0,0,0,0,0,0,0,0,0,0,0,0,0,0,0,0,0,0,0,0,0,0,0,0,0,0,0,0,0,0,0,0,0,0,0,0,0,0,0,0,0,0,0,0,0,
0,0,0,0,0,0,0,0,0,0,0,0,0,0,0,0,0,0,0,0,0,0,0,0,0,0,0,0,0,0,0,0,0,0,0,0,0,0,0,0,0,0,0,0,0,0,0,0,0,0,0,0,0,0,0,0,0,0,0,0,0,0,0,0,0,0,0,0,0,0,0,0,0,0,0,0,0,0,0,0
</data>
 </layer>
 <layer id="20" name="Back3" width="80" height="45">
  <data encoding="csv">
0,0,0,0,0,0,0,0,0,0,0,0,0,0,0,0,0,0,0,0,0,0,0,0,0,0,0,0,0,0,0,0,0,0,0,0,0,0,0,0,0,0,0,0,0,0,0,0,0,0,0,0,0,0,0,0,0,0,0,0,0,0,0,0,0,0,0,0,0,0,0,0,0,0,0,0,0,0,0,0,
0,0,0,0,0,0,0,0,0,0,0,0,0,0,0,0,0,0,0,0,0,0,0,0,0,0,0,0,0,0,0,0,0,0,0,0,0,0,0,0,0,0,0,0,0,0,0,0,0,0,0,0,0,0,0,0,0,0,0,0,0,0,0,0,0,0,0,0,0,0,0,0,0,0,0,0,0,0,0,0,
0,0,0,0,0,0,0,0,0,0,0,0,0,0,0,0,0,0,0,0,0,0,0,0,0,0,0,0,0,0,0,0,0,0,0,0,0,0,0,0,0,0,0,0,0,0,0,0,0,0,0,0,0,0,0,0,0,0,0,0,0,0,0,0,0,0,0,0,0,0,0,0,0,0,0,0,0,0,0,0,
0,0,0,0,0,0,0,0,0,0,0,0,0,0,0,0,0,0,0,0,0,0,0,0,0,0,0,0,0,0,0,0,0,0,0,0,0,0,0,0,0,0,0,0,0,0,0,0,0,0,0,0,0,0,0,0,0,0,0,0,0,0,0,0,0,0,0,0,0,0,0,0,0,0,0,0,0,0,0,0,
0,0,0,0,0,0,0,0,0,0,0,0,0,0,0,0,0,0,0,0,0,0,0,0,0,0,0,0,0,0,0,0,0,0,0,0,0,0,0,0,0,0,0,0,0,0,0,0,0,0,0,0,0,0,0,0,0,0,0,0,0,0,0,0,0,0,0,0,0,0,0,0,0,0,0,0,0,0,0,0,
0,0,0,0,0,0,0,0,0,0,0,0,0,0,0,0,0,0,0,0,0,0,0,0,0,0,0,0,0,0,0,0,0,0,0,0,0,0,0,0,0,0,0,0,0,0,0,0,0,0,0,0,0,0,0,0,0,0,0,0,0,0,0,0,0,0,0,0,0,0,0,0,0,0,0,0,0,0,0,0,
0,0,0,0,0,0,0,0,0,0,0,0,0,0,0,0,0,0,0,0,0,0,0,0,0,0,0,0,0,0,0,0,0,0,0,0,0,0,0,0,0,0,0,0,0,0,0,0,0,0,0,0,0,0,0,0,0,0,0,0,0,0,0,0,0,0,0,0,0,0,0,0,0,0,0,0,0,0,0,0,
0,0,0,0,0,0,0,0,0,0,0,0,0,0,0,0,0,0,0,0,0,0,0,0,0,0,0,0,0,0,0,0,0,0,0,0,0,0,0,0,0,0,0,0,0,0,0,0,0,0,0,0,0,0,0,0,0,0,0,0,0,0,0,0,0,0,0,0,0,0,0,0,0,0,0,0,0,0,0,0,
0,0,0,0,0,0,0,0,0,0,0,0,0,0,0,0,0,0,0,0,0,0,0,0,0,0,0,0,0,0,0,0,0,0,0,0,0,0,0,0,0,0,0,0,0,0,0,0,0,0,0,0,0,0,0,0,0,0,0,0,0,0,0,0,0,0,0,0,0,0,0,0,0,0,0,0,0,0,0,0,
0,0,0,0,0,0,0,0,0,0,0,0,0,0,0,0,0,0,0,0,0,0,0,0,0,0,0,0,0,0,0,0,0,0,0,0,0,0,0,0,0,0,0,0,0,0,0,0,0,0,0,0,0,0,0,0,0,0,0,0,0,0,0,0,0,0,0,0,0,0,0,0,0,0,0,0,0,0,0,0,
0,0,0,0,0,0,0,0,0,0,0,0,0,0,0,0,0,0,0,0,0,0,0,0,0,0,0,0,0,0,0,0,0,0,0,0,0,0,0,0,0,0,0,0,0,0,0,0,0,0,0,0,0,0,0,0,0,0,0,0,0,0,0,0,0,0,0,0,0,0,0,0,0,0,0,0,0,0,0,0,
0,0,0,0,0,0,0,0,0,0,0,0,0,0,0,0,0,0,0,0,0,0,0,0,0,0,0,0,0,0,0,0,0,0,0,0,0,0,0,0,0,0,0,0,0,0,0,0,0,0,0,0,0,0,0,0,0,0,0,0,0,0,0,0,0,0,0,0,0,0,0,0,0,0,0,0,0,0,0,0,
0,0,0,0,0,0,0,0,0,0,0,0,0,0,0,0,0,0,0,0,0,0,0,0,0,0,0,0,0,0,0,0,0,0,0,0,0,0,0,0,0,0,0,0,0,0,0,0,0,0,0,0,0,0,0,0,0,0,0,0,0,0,0,0,0,0,0,0,0,0,0,0,0,0,0,0,0,0,0,0,
0,0,0,0,0,0,0,0,0,0,0,0,0,0,0,0,0,0,0,0,0,0,0,0,0,0,0,0,0,0,0,0,0,0,0,0,0,0,0,0,0,0,0,0,0,0,0,0,0,0,0,0,0,0,0,0,0,0,0,0,0,0,0,0,0,0,0,0,0,0,0,0,0,0,0,0,0,0,0,0,
0,0,0,0,0,0,0,0,0,0,0,0,0,0,0,0,0,0,0,0,0,0,0,0,0,0,0,0,0,0,0,0,0,0,0,0,0,0,0,0,0,0,0,0,0,0,0,0,0,0,0,0,0,0,0,0,0,0,0,0,0,0,0,0,0,0,0,0,0,0,0,0,0,0,0,0,0,0,0,0,
0,0,0,0,0,0,0,0,0,0,0,0,0,0,0,0,0,0,0,0,0,0,0,0,0,0,0,0,0,0,0,0,0,0,0,0,0,0,0,0,0,0,0,0,0,0,0,0,0,0,0,0,0,0,0,0,0,0,0,0,0,0,0,0,0,0,0,0,0,0,0,0,0,0,0,0,0,0,0,0,
0,0,0,0,0,0,0,0,0,0,0,0,0,0,0,0,0,0,0,0,0,0,0,0,0,0,0,0,0,0,0,0,0,0,0,0,0,0,0,0,0,0,0,0,0,0,0,0,0,0,0,0,0,0,0,0,0,0,0,0,0,0,0,0,0,0,0,0,0,0,0,0,0,0,0,0,0,0,0,0,
0,0,0,0,0,0,0,0,0,0,0,0,0,0,0,0,0,0,0,0,0,0,0,0,0,0,0,0,0,0,0,0,0,0,0,0,0,0,0,0,0,0,0,0,0,0,0,0,0,0,0,0,0,0,0,0,0,0,0,0,0,0,0,0,0,0,0,0,0,0,0,0,0,0,0,0,0,0,0,0,
0,0,0,0,0,0,0,0,0,0,0,0,0,0,0,0,0,0,0,0,0,0,0,0,0,0,0,0,0,0,0,0,0,0,0,0,0,0,0,0,0,0,0,0,0,0,0,0,0,0,0,0,0,0,0,0,0,0,0,0,0,0,0,0,0,0,0,0,0,0,0,0,0,0,0,0,0,0,0,0,
0,0,0,0,0,0,0,0,0,0,0,0,0,0,0,0,0,0,0,0,0,0,0,0,0,0,0,0,0,0,0,0,0,0,0,0,0,0,0,0,0,0,0,0,0,0,0,0,0,0,0,0,0,0,0,0,0,0,0,0,0,0,0,0,0,0,0,0,0,0,0,0,0,0,0,0,0,0,0,0,
0,0,0,0,0,0,0,0,0,0,0,0,0,0,0,0,0,0,0,0,0,0,0,0,0,0,0,0,0,0,0,0,0,0,0,0,0,0,0,0,0,0,0,0,0,0,0,0,0,0,0,0,0,0,0,0,0,0,0,0,0,0,0,0,0,0,0,0,0,0,0,0,0,0,0,0,0,0,0,0,
0,0,0,0,0,0,0,0,0,0,0,0,0,0,0,0,0,0,0,0,0,0,0,0,0,0,0,0,0,0,0,0,0,0,0,0,0,0,0,0,0,0,0,0,0,0,0,0,0,0,0,0,0,0,0,0,0,0,0,0,0,0,0,0,0,0,0,0,0,0,0,0,0,0,0,0,0,0,0,0,
0,0,0,0,0,0,0,0,0,0,0,0,0,0,0,0,0,0,0,0,0,0,0,0,0,0,0,0,0,0,0,0,0,0,0,0,0,0,0,0,0,0,0,0,0,0,0,0,0,0,0,0,0,0,0,0,0,0,0,0,0,0,0,0,0,0,0,0,0,0,0,0,0,0,0,0,0,0,0,0,
0,0,0,0,0,0,0,0,0,0,0,0,0,0,0,0,0,0,0,0,0,0,0,0,0,0,0,0,0,0,0,0,0,0,0,0,0,0,0,0,0,0,0,0,0,0,0,0,0,0,0,0,0,0,0,0,0,0,0,0,0,0,0,0,0,0,0,0,0,0,0,0,0,0,0,0,0,0,0,0,
0,0,0,0,0,0,0,0,0,0,0,0,0,0,0,0,0,0,0,0,0,0,0,0,0,0,0,0,0,0,0,0,0,0,0,0,0,0,0,0,0,0,0,0,0,0,0,0,0,0,0,0,0,0,0,0,0,0,0,0,0,0,0,0,0,0,0,0,0,0,0,0,0,0,0,0,0,0,0,0,
0,0,0,0,0,0,0,0,0,0,0,0,0,0,0,0,0,0,0,0,0,0,0,0,0,0,0,0,0,0,0,0,0,0,0,0,0,0,0,0,0,0,0,0,0,0,0,0,0,0,0,0,0,0,0,0,0,0,0,0,0,0,0,0,0,0,0,0,0,0,0,0,0,0,0,0,0,0,0,0,
0,0,0,0,0,0,0,0,0,0,0,0,0,0,0,0,0,0,0,0,0,0,0,0,0,0,0,0,0,0,0,0,0,0,0,0,0,0,0,0,0,0,0,0,0,0,0,0,0,0,0,0,0,0,0,0,0,0,0,0,0,0,0,0,0,0,0,0,0,0,0,0,0,0,0,0,0,0,0,0,
0,0,0,0,0,0,0,0,0,0,0,0,0,0,0,0,0,0,0,0,0,0,0,0,0,11085,0,0,0,0,0,0,0,0,0,0,0,0,0,0,0,0,0,0,0,0,0,0,0,0,0,0,0,0,0,0,0,0,0,0,0,0,0,0,0,0,0,0,0,0,0,0,0,0,0,0,0,0,0,0,
0,0,0,0,0,0,0,0,0,0,0,0,0,0,0,0,0,0,0,0,0,0,0,0,0,0,0,0,0,0,0,0,0,0,0,0,0,0,0,0,0,0,0,0,0,0,0,0,0,0,0,0,0,0,0,0,0,0,0,0,0,0,0,0,0,0,0,0,0,0,0,0,0,0,0,0,0,0,0,0,
0,0,0,0,0,0,0,0,0,0,0,0,0,0,0,0,0,0,0,0,0,0,0,0,0,0,0,0,0,0,0,0,0,0,0,0,0,0,0,0,0,0,0,0,0,0,0,0,0,0,0,0,0,0,0,0,0,0,0,0,0,0,0,0,0,0,0,0,0,0,0,0,0,0,0,0,0,0,0,0,
0,0,0,0,0,0,0,0,0,0,0,0,0,0,0,0,0,0,0,0,0,0,0,0,0,0,0,0,0,0,0,0,0,0,0,0,0,0,0,0,0,0,0,0,0,0,0,0,0,0,0,0,0,0,0,0,0,0,0,0,0,0,0,0,0,0,0,0,0,0,0,0,0,0,0,0,0,0,0,0,
0,0,0,0,0,0,0,0,0,0,0,0,0,0,0,0,0,0,0,0,0,0,0,0,0,0,0,0,0,0,0,0,0,0,0,0,0,0,0,0,0,0,0,0,0,0,0,0,0,0,0,0,0,0,0,0,0,0,0,0,0,0,0,0,0,0,0,0,0,0,0,0,0,0,0,0,0,0,0,0,
0,0,0,0,0,0,0,0,0,0,0,0,0,0,0,0,0,0,0,0,0,0,0,0,0,0,0,0,0,0,0,0,0,0,0,0,0,0,0,0,0,0,0,0,0,0,0,0,0,0,0,0,0,0,0,0,0,0,0,0,0,0,0,0,0,0,0,0,0,0,0,0,0,0,0,0,0,0,0,0,
0,0,0,0,0,0,0,0,0,0,0,0,0,0,0,0,0,0,0,0,0,0,0,0,0,0,0,0,0,0,0,0,0,0,0,0,0,0,0,0,0,0,0,0,0,0,0,0,0,0,0,0,0,0,0,0,0,0,0,0,0,0,0,0,0,0,0,0,0,0,0,0,0,0,0,0,0,0,0,0,
0,0,0,0,0,0,0,0,0,0,0,0,0,0,0,0,0,0,0,0,0,0,0,0,0,0,0,0,0,0,0,0,0,0,0,0,0,0,0,0,0,0,0,0,0,0,0,0,0,0,0,0,0,0,0,0,0,0,0,0,0,0,0,0,0,0,0,0,0,0,0,0,0,0,0,0,0,0,0,0,
0,0,0,0,0,0,0,0,0,0,0,0,0,0,0,0,0,0,0,0,0,0,0,0,0,0,0,0,0,0,0,0,0,0,0,0,0,0,0,0,0,0,0,0,0,0,0,0,0,0,0,0,0,0,0,0,0,0,0,0,0,0,0,0,0,0,0,0,0,0,0,0,0,0,0,0,0,0,0,0,
0,0,0,0,0,0,0,0,0,0,0,0,0,0,0,0,0,0,0,0,0,0,0,0,0,0,0,0,0,0,0,0,0,0,0,0,0,0,0,0,0,0,0,0,0,0,0,0,0,0,0,0,0,0,0,0,0,0,0,0,0,0,0,0,0,0,0,0,0,0,0,0,0,0,0,0,0,0,0,0,
0,0,0,0,0,0,0,0,0,0,0,0,0,0,0,0,0,0,0,0,0,0,0,0,0,0,0,0,0,0,0,0,0,0,0,0,0,0,0,0,0,0,0,0,0,0,0,0,0,0,0,0,0,0,0,0,0,0,0,0,0,0,0,0,0,0,0,0,0,0,0,0,0,0,0,0,0,0,0,0,
0,0,0,0,0,0,0,0,0,0,0,0,0,0,0,0,0,0,0,0,0,0,0,0,0,0,0,0,0,0,0,0,0,0,0,0,0,0,0,0,0,0,0,0,0,0,0,0,0,0,0,0,0,0,0,0,0,0,0,0,0,0,0,0,0,0,0,0,0,0,0,0,0,0,0,0,0,0,0,0,
0,0,0,0,0,0,0,0,0,0,0,0,0,0,0,0,0,0,0,0,0,0,0,0,0,0,0,0,0,0,0,0,0,0,0,0,0,0,0,0,0,0,0,0,0,0,0,0,0,0,0,0,0,0,0,0,0,0,0,0,0,0,0,0,0,0,0,0,0,0,0,0,0,0,0,0,0,0,0,0,
0,0,0,0,0,0,0,0,0,0,0,0,0,0,0,0,0,0,0,0,0,0,0,0,0,0,0,0,0,0,0,0,0,0,0,0,0,0,0,0,0,0,0,0,0,0,0,0,0,0,0,0,0,0,0,0,0,0,0,0,0,0,0,0,0,0,0,0,0,0,0,0,0,0,0,0,0,0,0,0,
0,0,0,0,0,0,0,0,0,0,0,0,0,0,0,0,0,0,0,0,0,0,0,0,0,0,0,0,0,0,0,0,0,0,0,0,0,0,0,0,0,0,0,0,0,0,0,0,0,0,0,0,0,0,0,0,0,0,0,0,0,0,0,0,0,0,0,0,0,0,0,0,0,0,0,0,0,0,0,0,
0,0,0,0,0,0,0,0,0,0,0,0,0,0,0,0,0,0,0,0,0,0,0,0,0,0,0,0,0,0,0,0,0,0,0,0,0,0,0,0,0,0,0,0,0,0,0,0,0,0,0,0,0,0,0,0,0,0,0,0,0,0,0,0,0,0,0,0,0,0,0,0,0,0,0,0,0,0,0,0,
0,0,0,0,0,0,0,0,0,0,0,0,0,0,0,0,0,0,0,0,0,0,0,0,0,0,0,0,0,0,0,0,0,0,0,0,0,0,0,0,0,0,0,0,0,0,0,0,0,0,0,0,0,0,0,0,0,0,0,0,0,0,0,0,0,0,0,0,0,0,0,0,0,0,0,0,0,0,0,0,
0,0,0,0,0,0,0,0,0,0,0,0,0,0,0,0,0,0,0,0,0,0,0,0,0,0,0,0,0,0,0,0,0,0,0,0,0,0,0,0,0,0,0,0,0,0,0,0,0,0,0,0,0,0,0,0,0,0,0,0,0,0,0,0,0,0,0,0,0,0,0,0,0,0,0,0,0,0,0,0
</data>
 </layer>
 <layer id="2" name="Buildings" width="80" height="45">
  <data encoding="csv">
0,0,0,0,0,0,0,0,0,0,0,0,0,0,0,0,0,0,0,0,0,0,0,0,0,0,0,0,0,0,0,0,0,0,0,0,0,0,0,0,0,0,0,0,0,0,0,0,608,607,608,7451,7452,607,608,607,0,608,607,608,7459,7460,607,608,607,0,608,607,608,7467,7468,607,608,607,0,503,663,553,242,0,
0,0,0,0,0,0,0,0,0,0,0,0,0,0,0,0,0,0,0,0,0,0,0,0,0,0,0,0,0,0,0,0,0,0,0,0,0,0,0,0,0,0,7469,7470,0,0,0,0,4138,4139,7474,7475,7476,7477,7478,7479,0,4138,4139,7482,7483,7484,7485,7486,7487,0,4138,4139,7490,7491,7492,7493,7494,7495,0,459,578,664,629,0,
0,0,0,0,0,7472,0,0,7475,0,7477,7478,7479,0,0,0,0,0,0,0,0,7480,0,0,7483,0,7485,7478,7479,0,0,0,0,0,0,0,0,7488,0,0,7491,0,7493,7494,7495,0,0,0,4170,7497,7498,7499,7500,7501,7502,7503,0,4170,7505,7506,7507,7508,7509,7510,7511,0,4170,7513,7514,7515,7516,7517,7518,7519,0,484,404,404,403,0,
0,0,0,0,0,0,0,0,7499,0,7501,7502,7503,0,0,0,0,0,0,0,0,0,0,0,7507,0,7509,7502,7503,0,0,0,0,0,0,0,0,0,0,0,7515,0,7517,7518,7519,0,0,0,7520,7521,7522,7523,7524,7525,7526,7527,0,7528,7529,7530,7531,7532,7533,7534,7535,0,7536,7537,7538,7539,7540,7541,7542,7543,0,459,404,403,404,0,
0,0,0,0,0,0,7789,7789,7789,0,7525,7526,277,0,0,0,0,0,0,0,0,0,7789,7789,7789,0,7533,7526,277,0,0,0,0,0,0,0,0,0,7789,7789,7789,0,7541,7542,277,0,0,0,7544,7545,7546,7547,7548,7549,7550,7551,0,7552,7553,7554,7555,7556,7557,7558,7559,0,7560,7561,7562,7563,7564,7565,7566,7567,0,484,404,403,403,0,
0,0,0,0,0,0,7773,7773,7773,7823,7549,7550,7551,302,0,0,0,0,0,0,0,0,7773,7773,7773,7823,7557,7550,7559,302,0,0,0,0,0,0,0,0,7773,7773,7773,7823,7565,7566,7567,302,0,0,7568,7569,7570,7571,7572,7573,7574,7575,0,7576,7577,7578,7579,7580,7581,7582,7583,0,7584,7585,7586,7587,7588,7589,7590,7591,0,459,403,404,403,0,
0,0,0,0,0,278,7569,7570,7571,7572,7573,7574,7575,323,0,0,0,0,0,0,0,278,7569,7578,7579,7580,7581,7574,7583,323,0,0,0,0,0,0,0,278,7585,7586,7587,7588,7589,7590,7591,323,0,0,7592,7593,7594,7595,7596,7597,7598,7599,0,7600,7601,7602,7603,7604,7605,7606,7607,0,7608,7609,7610,7611,7612,7613,7614,7615,0,484,404,403,404,0,
0,0,324,324,278,7592,7593,7594,7595,7596,7597,7598,7599,6044,302,0,0,0,324,324,278,7592,7593,7602,7603,7604,7605,7606,7607,6044,302,0,0,0,324,324,278,7608,7609,7610,7611,7612,7613,7614,7615,6044,302,0,7616,7617,7618,7619,7620,7621,7622,7623,0,7624,7625,7626,7627,7628,7629,7630,7631,0,7632,7633,7634,7635,7636,7637,7638,7639,0,459,403,404,403,0,
0,303,0,0,0,7616,7617,7618,7619,7620,7621,7622,7623,663,298,0,0,303,0,0,0,7624,7625,7626,7627,7628,7629,7630,7631,663,298,0,0,303,0,0,0,7632,7633,7634,7635,7636,7637,7638,7639,663,298,0,7640,7641,7642,7643,7644,7645,7646,7647,0,7648,7649,7650,7651,7652,7653,7654,7655,0,7656,7657,7658,7659,7660,7661,7662,7663,0,484,627,627,628,0,
0,325,0,0,0,7640,7641,7642,7643,7644,7645,7646,7647,248,348,0,0,325,0,0,0,7648,7649,7650,7651,7652,7653,7654,7655,248,348,0,0,325,0,0,0,7656,7657,7658,7659,7660,7661,7662,7663,248,348,0,0,0,0,0,0,0,0,0,0,0,0,0,0,0,0,0,0,0,0,0,0,0,0,0,0,0,0,459,0,0,0,0,
0,198,0,0,0,0,0,0,0,0,0,0,0,273,0,0,0,198,0,0,0,0,0,0,0,0,0,0,0,273,0,0,0,198,0,0,0,0,0,0,0,0,0,0,0,273,0,0,0,0,0,0,0,0,0,0,0,0,0,0,0,0,0,0,0,0,0,0,0,0,0,0,0,0,0,484,0,0,0,0,
0,223,0,0,0,0,0,0,0,0,0,0,0,323,324,0,0,223,0,0,0,0,0,0,0,0,0,0,0,323,324,0,0,223,0,0,0,0,0,0,0,0,0,0,0,323,324,0,0,0,0,0,0,0,0,0,0,0,0,0,0,0,0,0,0,0,0,0,0,0,0,0,0,0,0,509,0,0,0,0,
0,0,0,0,0,0,0,0,0,0,0,0,0,0,0,0,0,0,0,0,0,0,0,0,0,0,0,0,0,0,0,0,0,0,0,0,0,0,0,0,0,0,0,0,0,0,0,0,0,0,0,0,0,0,0,0,0,0,0,0,0,0,0,0,0,0,0,0,0,0,0,0,0,0,0,534,0,0,0,0,
0,0,0,0,0,0,0,0,0,6320,606,604,583,582,0,0,0,0,0,0,0,0,0,0,6320,606,604,583,582,0,0,0,0,0,0,0,0,0,0,6320,606,604,583,582,0,7595,7596,0,0,0,0,0,0,0,0,0,0,0,0,0,0,0,0,0,0,0,0,0,0,0,0,0,0,0,0,559,0,0,0,0,
0,0,0,0,0,0,0,0,0,6287,6319,6140,605,607,0,0,0,0,0,0,0,0,0,0,6287,6319,6140,605,607,0,0,0,0,0,0,0,0,0,0,6287,6319,6140,605,607,0,7619,7620,0,0,0,0,0,0,0,0,0,0,0,0,0,0,0,0,0,0,0,0,0,0,0,0,0,0,0,0,584,0,0,0,0,
0,0,7473,7474,7475,7476,7477,7478,0,0,274,6287,6259,6259,0,0,0,7481,7482,7483,7484,7485,7486,0,0,274,6287,6259,6259,0,0,0,7489,7490,7491,7492,7493,7494,0,0,274,6287,6259,6259,0,7643,7644,0,0,0,0,0,0,0,0,0,0,0,0,0,0,0,0,0,0,0,0,0,0,0,0,0,0,0,0,2147484254,0,0,0,0,
0,7496,7497,7498,7499,7500,7501,7502,0,0,0,0,0,0,0,0,7504,7505,7506,7507,7508,7509,7510,0,0,0,0,0,0,0,0,7512,7513,7514,7515,7516,7517,7518,0,0,0,0,0,0,0,0,0,0,0,0,0,0,0,0,0,0,0,0,0,0,0,0,0,0,0,0,0,0,0,0,0,0,0,0,0,0,0,0,0,0,
0,7520,7521,7522,7523,7524,7525,7526,6226,0,0,0,0,0,0,0,7528,7529,7530,7531,7532,7533,7534,6226,0,0,0,0,0,0,0,7536,7537,7538,7539,7540,7541,7542,6226,0,0,0,0,0,0,0,0,0,0,0,0,0,0,0,0,0,0,0,0,0,0,0,0,0,0,0,0,0,0,0,0,0,0,0,0,0,431,390,391,391,
0,7544,7545,7546,7547,7548,7549,7550,7551,6256,0,0,0,0,0,0,7552,7553,7554,7555,7556,7557,7558,7559,6256,0,0,0,0,0,0,7560,7561,7562,7563,7564,7565,7566,7567,6256,0,0,0,0,0,0,0,0,0,0,0,0,0,0,0,0,0,0,0,0,0,0,0,0,0,0,0,0,0,0,0,0,0,0,0,0,456,415,370,2147484782,
6257,7568,7569,7570,7571,7572,7573,7574,7575,6348,6349,6349,0,0,0,6257,7576,7577,7578,7579,7580,7581,7582,7583,6348,6349,6349,0,0,0,6257,7584,7585,7586,7587,7588,7589,7590,7591,6348,6349,6349,0,0,0,0,0,0,0,0,0,0,0,0,0,0,0,0,0,0,0,0,0,0,0,0,0,0,0,0,0,0,0,0,0,0,481,415,416,2684355570,
6320,7592,7593,7594,7595,7596,7597,7598,7599,0,0,0,6226,6227,0,6320,7600,7601,7602,7603,7604,7605,7606,7607,0,0,0,6226,6227,0,6320,7608,7609,7610,7611,7612,7613,7614,7615,0,0,0,6226,6227,0,0,0,0,0,0,0,0,0,0,0,0,0,0,0,0,0,0,0,0,0,0,0,0,0,0,0,0,0,0,0,0,1073742830,1130,1131,1011,
6350,7616,7617,7618,7619,7620,7621,7622,7623,0,0,0,0,0,0,6350,7624,7625,7626,7627,7628,7629,7630,7631,0,0,0,0,0,0,6350,7632,7633,7634,7635,7636,7637,7638,7639,0,0,0,0,0,0,250,0,0,0,0,0,0,0,0,0,0,0,0,0,0,0,0,0,0,0,0,0,0,0,0,0,0,0,0,0,0,2684355570,1011,1009,2147484657,
0,7640,7641,7642,7643,7644,7645,7646,7647,0,0,0,0,0,0,0,7648,7649,7650,7651,7652,7653,7654,7655,0,0,0,0,0,0,0,7656,7657,7658,7659,7660,7661,7662,7663,0,0,0,0,0,0,275,0,0,0,0,0,0,0,0,0,0,0,0,0,0,0,0,0,0,0,0,0,0,0,0,0,0,0,0,2147484107,215,1009,2147484654,1011,1011,
0,0,0,0,0,0,0,0,0,0,0,0,0,0,0,0,0,0,0,0,0,0,0,0,0,0,0,0,0,0,0,0,0,0,0,0,0,0,0,0,0,0,0,0,0,275,0,0,0,0,0,0,0,0,0,0,0,0,0,0,0,0,0,0,0,0,0,0,0,0,0,0,0,0,2147484132,240,1011,1011,1135,2147484684,
0,0,7643,7644,0,0,0,7643,7644,0,0,0,7643,7644,0,0,0,7643,7644,0,0,0,7643,7644,0,0,0,7643,7644,0,0,0,0,0,0,0,0,0,0,0,0,0,0,0,0,349,250,0,0,0,0,0,0,0,0,0,0,0,0,0,0,0,0,0,0,0,0,0,0,0,0,0,0,0,2147484125,2684355615,1008,1036,2684355690,1011,
0,0,7643,7644,0,0,0,7643,7644,0,0,0,7643,7644,0,0,0,7643,7644,0,0,0,7643,7644,0,0,0,7643,7644,0,0,0,0,0,0,0,0,0,0,0,0,0,0,0,0,0,275,0,0,0,0,0,0,0,0,0,0,0,0,0,0,0,0,0,0,0,0,0,0,2147484107,466,2147483968,240,240,297,444,2147483970,445,1011,445,
0,0,0,0,0,0,0,0,0,0,0,0,0,0,0,0,0,0,0,0,0,0,0,0,0,0,0,0,0,0,0,0,0,0,0,0,0,0,0,0,0,0,0,0,0,0,300,0,0,0,0,0,0,0,0,0,0,0,0,0,0,0,0,0,0,0,0,0,0,2147484132,1131,1011,2684355695,7794,5898,5899,7789,3221226527,3221226533,1011,
0,0,7643,7644,0,0,0,7643,7644,0,0,0,7643,7644,0,0,0,7643,7644,0,0,0,7643,7644,0,0,0,0,0,0,0,0,0,0,0,0,0,0,0,0,0,0,0,0,0,0,300,0,0,0,0,0,0,0,0,0,0,0,0,0,0,0,0,0,0,0,0,0,0,2147484125,1011,416,416,419,5928,5929,1133,1135,536871997,1011,
0,0,7643,7644,0,0,0,7643,7644,0,0,0,7643,7644,0,0,0,7643,7644,0,0,0,7643,7644,0,0,0,0,0,0,0,0,0,0,0,0,0,0,0,0,0,0,0,0,0,324,325,0,0,0,0,0,0,0,0,0,0,0,0,0,0,0,0,0,0,2147484107,390,5842,2147484039,1036,1011,420,420,5904,7789,445,1008,1009,2147484733,2147484684,
0,0,0,0,0,0,0,0,0,0,0,0,0,0,0,0,0,0,0,0,0,0,0,0,0,0,0,0,0,0,0,0,0,0,0,0,0,0,0,0,0,0,0,0,0,243,1011,2147484684,2147484098,2147484097,2147484097,449,449,449,2147484097,499,449,449,449,2147484097,2147484097,449,2147484097,450,450,2147484132,415,5872,7789,1110,397,445,221,5934,445,1061,1036,1036,1011,1011,
240,459,416,416,365,443,391,366,367,368,391,392,240,240,290,650,663,293,240,415,416,369,370,346,321,416,0,0,0,0,0,0,0,0,0,0,0,0,0,0,0,0,0,0,0,0,0,0,0,0,0,0,0,0,0,0,0,0,0,0,0,0,0,0,0,0,0,0,0,0,0,0,0,0,0,0,0,0,0,0,
356,484,416,416,416,369,416,416,416,416,370,417,466,240,503,291,664,242,504,415,416,369,365,371,321,416,0,0,0,0,0,0,0,0,0,0,0,0,0,0,0,0,0,0,0,0,0,0,0,0,0,0,0,0,0,0,0,0,0,0,0,0,0,0,0,0,0,0,0,0,0,0,0,0,0,0,0,0,0,0,
2147484157,509,416,416,416,416,416,416,365,369,365,417,240,321,484,353,354,291,431,415,365,416,416,396,321,416,0,0,0,0,0,0,0,0,0,0,0,0,0,0,0,0,0,0,0,0,0,0,0,0,0,0,0,0,0,0,0,0,0,0,0,0,0,0,0,0,0,0,0,0,0,0,0,0,0,0,0,0,0,0,
2147484182,1084,2147484728,416,416,65,416,416,416,416,416,443,392,321,459,402,403,404,456,440,341,342,343,442,321,416,0,0,0,0,0,0,0,0,0,0,0,0,0,0,0,0,0,0,0,0,0,0,0,0,0,0,0,0,0,0,0,0,0,0,0,0,0,0,0,0,0,0,0,0,0,0,0,0,0,0,0,0,0,0,
2147484207,559,1011,1011,1011,2147484709,1132,2684355645,416,416,416,416,417,321,484,402,403,404,481,321,240,240,240,340,321,416,0,0,0,0,0,0,0,0,0,0,0,0,0,0,0,0,0,0,0,0,0,0,0,0,0,0,0,0,0,0,0,0,0,0,0,0,0,0,0,0,0,0,0,0,0,0,0,0,0,0,0,0,0,0,
2147484232,584,1005,2684355690,7765,1011,1011,1011,1011,1011,3221226478,416,443,501,459,402,403,404,456,240,390,129,130,1035,3758097439,536871922,0,0,0,0,0,0,0,0,0,0,0,0,0,0,0,0,0,0,0,0,0,0,0,0,0,0,0,0,0,0,0,0,0,0,0,0,0,0,0,0,0,0,0,0,0,0,0,0,0,0,0,0,0,0,
606,609,7789,7789,1110,416,1011,1036,1011,1011,1055,416,7819,417,484,402,403,404,481,240,415,154,416,1085,2147484684,367,0,0,0,0,0,0,0,0,0,0,0,0,0,0,0,0,0,0,0,0,0,0,0,0,0,0,0,0,0,0,0,0,0,0,0,0,0,0,0,0,0,0,0,0,0,0,0,0,0,0,0,0,0,0,
0,451,7789,0,1073742934,1011,1011,1061,1011,7765,2684355695,7789,441,442,459,378,379,379,456,215,415,179,419,420,1011,420,0,0,0,0,0,0,0,0,0,0,0,0,0,0,0,0,0,0,0,0,0,0,0,0,0,0,0,0,0,0,0,0,0,0,0,0,0,0,0,0,0,0,0,0,0,0,0,0,0,0,0,0,0,0,
0,451,365,416,1610613866,1011,1011,1011,469,2147484757,471,443,392,466,484,626,577,628,481,466,415,416,322,7789,2684355565,1011,0,0,0,0,0,0,0,0,0,0,0,0,0,0,0,0,0,0,0,0,0,0,0,0,0,0,0,0,0,0,0,0,0,0,0,0,0,0,0,0,0,0,0,0,0,0,0,0,0,0,0,0,0,0,
0,451,416,416,1011,1011,470,416,1610613866,1011,416,416,417,322,459,0,0,0,456,240,415,416,78,79,1006,1008,0,0,0,0,0,0,0,0,0,0,0,0,0,0,0,0,0,0,0,0,0,0,0,0,0,0,0,0,0,0,0,0,0,0,0,0,0,0,0,0,0,0,0,0,0,0,0,0,0,0,0,0,0,0,
0,451,369,416,1011,1009,1010,416,1011,369,416,365,417,216,484,0,0,0,481,216,415,416,416,104,105,1011,0,0,0,0,0,0,0,0,0,0,0,0,0,0,0,0,0,0,0,0,0,0,0,0,0,0,0,0,0,0,0,0,0,0,0,0,0,0,0,0,0,0,0,0,0,0,0,0,0,0,0,0,0,0,
0,476,441,468,418,173,7789,416,1011,416,418,441,442,340,509,0,0,0,431,240,415,416,416,129,130,1011,0,0,0,0,0,0,0,0,0,0,0,0,0,0,0,0,0,0,0,0,0,0,0,0,0,0,0,0,0,0,0,0,0,0,0,0,0,0,0,0,0,0,0,0,0,0,0,0,0,0,0,0,0,0,
0,501,2147483863,440,197,198,393,416,7789,416,417,340,340,361,534,0,0,0,456,2147483864,415,369,416,416,416,370,0,0,0,0,0,0,0,0,0,0,0,0,0,0,0,0,0,0,0,0,0,0,0,0,0,0,0,0,0,0,0,0,0,0,0,0,0,0,0,0,0,0,0,0,0,0,0,0,0,0,0,0,0,0,
511,532,2147484008,2147484007,222,223,2147483801,7789,441,2147483846,2147483845,359,360,386,559,0,0,0,481,240,415,416,416,416,2147484020,416,0,0,0,0,0,0,0,0,0,0,0,0,0,0,0,0,0,0,0,0,0,0,0,0,0,0,0,0,0,0,0,0,0,0,0,0,0,0,0,0,0,0,0,0,0,0,0,0,0,0,0,0,0,0,
558,557,380,2147484157,340,340,340,340,340,2147483871,2147483870,509,386,411,584,0,0,0,431,240,415,416,416,416,2147483717,2147483716,0,0,0,0,0,0,0,0,0,0,0,0,0,0,0,0,0,0,0,0,0,0,0,0,0,0,0,0,0,0,0,0,0,0,0,0,0,0,0,0,0,0,0,0,0,0,0,0,0,0,0,0,0,0
</data>
 </layer>
 <layer id="18" name="Buildings2" width="80" height="45">
  <data encoding="csv">
0,0,0,0,0,0,0,0,0,0,0,0,0,0,0,0,0,0,0,0,0,0,0,0,0,0,0,0,0,0,0,0,0,0,0,0,0,0,0,0,0,0,0,0,0,0,0,0,0,0,0,0,0,0,0,0,0,0,0,0,0,0,0,0,0,0,0,0,0,0,0,0,0,0,0,0,0,0,0,0,
0,0,0,0,0,0,0,0,0,0,0,0,0,0,0,0,0,0,0,0,0,0,0,0,0,0,0,0,0,0,0,0,0,0,0,0,0,0,0,0,0,0,0,0,0,0,0,0,0,0,0,0,0,0,0,0,0,0,0,0,0,0,0,0,0,0,0,0,0,0,0,0,0,0,0,0,0,0,0,0,
0,0,0,0,0,0,0,0,0,0,0,0,0,0,0,0,0,0,0,0,0,0,0,0,0,0,0,0,0,0,0,0,0,0,0,0,0,0,0,0,0,0,0,0,0,0,0,0,0,0,0,0,0,0,0,0,0,0,0,0,0,0,0,0,0,0,0,0,0,0,0,0,0,0,0,0,0,0,0,0,
0,0,0,0,0,0,0,0,0,0,0,0,0,0,0,0,0,0,0,0,0,0,0,0,0,0,0,0,0,0,0,0,0,0,0,0,0,0,0,0,0,0,0,0,0,0,0,0,0,0,0,0,0,0,0,0,0,0,0,0,0,0,0,0,0,0,0,0,0,0,0,0,0,0,0,0,0,0,0,0,
0,0,0,0,0,0,0,0,0,0,0,0,0,0,0,0,0,0,0,0,0,0,0,0,0,0,0,0,0,0,0,0,0,0,0,0,0,0,0,0,0,0,0,0,0,0,0,0,0,0,0,0,0,0,0,0,0,0,0,0,0,0,0,0,0,0,0,0,0,0,0,0,0,0,0,0,0,0,0,0,
0,0,0,0,0,0,0,0,0,0,0,0,0,0,0,0,0,0,0,0,0,0,0,0,0,0,0,0,0,0,0,0,0,0,0,0,0,0,0,0,0,0,0,0,0,0,0,0,0,0,0,0,0,0,0,0,0,0,0,0,0,0,0,0,0,0,0,0,0,0,0,0,0,0,0,0,0,0,0,0,
0,0,0,0,0,0,0,0,0,0,0,0,0,0,0,0,0,0,0,0,0,0,0,0,0,0,0,0,0,0,0,0,0,0,0,0,0,0,0,0,0,0,0,0,0,0,0,0,0,0,0,0,0,0,0,0,0,0,0,0,0,0,0,0,0,0,0,0,0,0,0,0,0,0,0,0,0,0,0,0,
0,0,0,0,0,0,0,0,0,0,0,0,0,0,0,0,0,0,0,0,0,0,0,0,0,0,0,0,0,0,0,0,0,0,0,0,0,0,0,0,0,0,0,0,0,0,0,0,0,0,0,0,0,0,0,0,0,0,0,0,0,0,0,0,0,0,0,0,0,0,0,0,0,0,0,0,0,0,0,0,
0,0,0,0,0,0,0,0,0,0,0,0,0,0,0,0,0,0,0,0,0,0,0,0,0,0,0,0,0,0,0,0,0,0,0,0,0,0,0,0,0,0,0,0,0,0,0,0,0,0,0,0,0,0,0,0,0,0,0,0,0,0,0,0,0,0,0,0,0,0,0,0,0,0,0,0,0,0,0,0,
0,0,0,0,0,0,0,0,0,0,0,0,0,0,0,0,0,0,0,0,0,0,0,0,0,0,0,0,0,0,0,0,0,0,0,0,0,0,0,0,0,0,0,0,0,0,0,0,0,0,0,0,0,0,0,0,0,0,0,0,0,0,0,0,0,0,0,0,0,0,0,0,0,0,0,0,0,0,0,0,
0,0,0,0,0,0,0,0,0,0,0,0,0,0,0,0,0,0,0,0,0,0,0,0,0,0,0,0,0,0,0,0,0,0,0,0,0,0,0,0,0,0,0,0,0,0,0,0,0,0,0,0,0,0,0,0,0,0,0,0,0,0,0,0,0,0,0,0,0,0,0,0,0,0,0,0,0,0,0,0,
0,0,0,0,0,0,0,0,0,0,0,0,0,0,0,0,0,0,0,0,0,0,0,0,0,0,0,0,0,0,0,0,0,0,0,0,0,0,0,0,0,0,0,0,0,0,0,0,0,0,0,0,0,0,0,0,0,0,0,0,0,0,0,0,0,0,0,0,0,0,0,0,0,0,0,0,0,0,0,0,
0,0,0,0,0,0,0,0,0,0,0,0,0,0,0,0,0,0,0,0,0,0,0,0,0,0,0,0,0,0,0,0,0,0,0,0,0,0,0,0,0,0,0,0,0,0,0,0,0,0,0,0,0,0,0,0,0,0,0,0,0,0,0,0,0,0,0,0,0,0,0,0,0,0,0,0,0,0,0,0,
0,0,0,0,0,0,0,0,0,0,0,0,0,0,0,0,0,0,0,0,0,0,0,0,0,0,0,0,0,0,0,0,0,0,0,0,0,0,0,0,0,0,0,0,0,0,0,0,0,0,0,0,0,0,0,0,0,0,0,0,0,0,0,0,0,0,0,0,0,0,0,0,0,0,0,0,0,0,0,0,
0,0,0,0,0,0,0,0,0,0,0,0,0,0,0,0,0,0,0,0,0,0,0,0,0,0,0,0,0,0,0,0,0,0,0,0,0,0,0,0,0,0,0,0,0,0,0,0,0,0,0,0,0,0,0,0,0,0,0,0,0,0,0,0,0,0,0,0,0,0,0,0,0,0,0,0,0,0,0,0,
0,0,0,0,0,0,0,0,0,0,0,0,0,0,0,0,0,0,0,0,0,0,0,0,0,0,0,0,0,0,0,0,0,0,0,0,0,0,0,0,0,0,0,0,0,0,0,0,0,0,0,0,0,0,0,0,0,0,0,0,0,0,0,0,0,0,0,0,0,0,0,0,0,0,0,0,0,0,0,0,
0,0,0,0,0,0,0,0,0,0,0,0,0,0,0,0,0,0,0,0,0,0,0,0,0,0,0,0,0,0,0,0,0,0,0,0,0,0,0,0,0,0,0,0,0,0,0,0,0,0,0,0,0,0,0,0,0,0,0,0,0,0,0,0,0,0,0,0,0,0,0,0,0,0,0,0,0,0,0,0,
0,0,0,0,0,0,0,0,0,0,0,0,0,0,0,0,0,0,0,0,0,0,0,0,0,0,0,0,0,0,0,0,0,0,0,0,0,0,0,0,0,0,0,0,0,0,0,0,0,0,0,0,0,0,0,0,0,0,0,0,0,0,0,0,0,0,0,0,0,0,0,0,0,0,0,0,0,0,0,0,
0,0,0,0,0,0,0,0,0,0,0,0,0,0,0,0,0,0,0,0,0,0,0,0,0,0,0,0,0,0,0,0,0,0,0,0,0,0,0,0,0,0,0,0,0,0,0,0,0,0,0,0,0,0,0,0,0,0,0,0,0,0,0,0,0,0,0,0,0,0,0,0,0,0,0,0,0,0,0,0,
0,0,0,0,0,0,0,0,0,0,0,0,0,0,0,0,0,0,0,0,0,0,0,0,0,0,0,0,0,0,0,0,0,0,0,0,0,0,0,0,0,0,0,0,0,0,0,0,0,0,0,0,0,0,0,0,0,0,0,0,0,0,0,0,0,0,0,0,0,0,0,0,0,0,0,0,0,0,0,0,
0,0,0,0,0,0,0,0,0,0,0,0,0,0,0,0,0,0,0,0,0,0,0,0,0,0,0,0,0,0,0,0,0,0,0,0,0,0,0,0,0,0,0,0,0,0,0,0,0,0,0,0,0,0,0,0,0,0,0,0,0,0,0,0,0,0,0,0,0,0,0,0,0,0,0,0,0,0,0,0,
0,0,0,0,0,0,0,0,0,0,0,0,0,0,0,0,0,0,0,0,0,0,0,0,0,0,0,0,0,0,0,0,0,0,0,0,0,0,0,0,0,0,0,0,0,0,0,0,0,0,0,0,0,0,0,0,0,0,0,0,0,0,0,0,0,0,0,0,0,0,0,0,0,0,0,0,0,0,0,0,
0,0,0,0,0,0,0,0,0,0,0,0,0,0,0,0,0,0,0,0,0,0,0,0,0,0,0,0,0,0,0,0,0,0,0,0,0,0,0,0,0,0,0,0,0,0,0,0,0,0,0,0,0,0,0,0,0,0,0,0,0,0,0,0,0,0,0,0,0,0,0,0,0,0,0,0,0,0,0,0,
0,0,0,0,0,0,0,0,0,0,0,0,0,0,0,0,0,0,0,0,0,0,0,0,0,0,0,0,0,0,0,0,0,0,0,0,0,0,0,0,0,0,0,0,0,0,0,0,0,0,0,0,0,0,0,0,0,0,0,0,0,0,0,0,0,0,0,0,0,0,0,0,0,0,0,0,0,0,0,0,
0,0,0,0,0,0,0,0,0,0,0,0,0,0,0,0,0,0,0,0,0,0,0,0,0,0,0,0,0,0,0,0,0,0,0,0,0,0,0,0,0,0,0,0,0,0,0,0,0,0,0,0,0,0,0,0,0,0,0,0,0,0,0,0,0,0,0,0,0,0,0,0,0,0,0,0,0,0,0,0,
0,0,0,0,0,0,0,0,0,0,0,0,0,0,0,0,0,0,0,0,0,0,0,0,0,0,0,0,0,0,0,0,0,0,0,0,0,0,0,0,0,0,0,0,0,0,0,0,0,0,0,0,0,0,0,0,0,0,0,0,0,0,0,0,0,0,0,0,0,0,0,0,0,0,0,0,0,0,0,0,
0,0,0,0,0,0,0,0,0,0,0,0,0,0,0,0,0,0,0,0,0,0,0,0,0,0,0,0,0,0,0,0,0,0,0,0,0,0,0,0,0,0,0,0,0,0,0,0,0,0,0,0,0,0,0,0,0,0,0,0,0,0,0,0,0,0,0,0,0,0,0,0,0,0,0,0,0,0,0,0,
0,0,0,0,0,0,0,0,0,0,0,0,0,0,0,0,0,0,0,0,0,0,0,0,0,0,0,0,0,0,0,0,0,0,0,0,0,0,0,0,0,0,0,0,0,0,0,0,0,0,0,0,0,0,0,0,0,0,0,0,0,0,0,0,0,0,0,0,0,0,0,0,0,0,0,0,0,0,0,0,
0,0,0,0,0,0,0,0,0,0,0,0,0,0,0,0,0,0,0,0,0,0,0,0,0,0,0,0,0,0,0,0,0,0,0,0,0,0,0,0,0,0,0,0,0,0,0,0,0,0,0,0,0,0,0,0,0,0,0,0,0,0,0,0,0,0,0,0,0,0,0,0,0,0,0,0,0,0,0,0,
0,0,0,0,0,0,0,0,0,0,0,0,0,0,0,0,0,0,0,0,0,0,0,0,0,0,0,0,0,0,0,0,0,0,0,0,0,0,0,0,0,0,0,0,0,0,0,0,0,0,0,0,0,0,0,0,0,0,0,0,0,0,0,0,0,0,0,0,0,0,0,0,0,0,0,0,0,0,0,0,
0,0,0,0,0,0,0,0,0,0,0,0,0,0,0,0,0,0,0,0,0,0,0,0,0,0,0,0,0,0,0,0,0,0,0,0,0,0,0,0,0,0,0,0,0,0,0,0,0,0,0,0,0,0,0,0,0,0,0,0,0,0,0,0,0,0,0,0,0,0,0,0,0,0,0,0,0,0,0,0,
0,0,0,0,0,0,0,0,0,0,0,0,0,0,0,0,0,0,0,0,0,0,0,0,0,0,0,0,0,0,0,0,0,0,0,0,0,0,0,0,0,0,0,0,0,0,0,0,0,0,0,0,0,0,0,0,0,0,0,0,0,0,0,0,0,0,0,0,0,0,0,0,0,0,0,0,0,0,0,0,
0,0,0,0,0,0,0,0,0,0,0,0,0,0,0,0,0,0,0,0,0,0,0,0,0,0,0,0,0,0,0,0,0,0,0,0,0,0,0,0,0,0,0,0,0,0,0,0,0,0,0,0,0,0,0,0,0,0,0,0,0,0,0,0,0,0,0,0,0,0,0,0,0,0,0,0,0,0,0,0,
0,0,0,0,0,0,0,0,0,0,0,0,0,0,0,0,0,0,0,0,0,0,0,0,0,0,0,0,0,0,0,0,0,0,0,0,0,0,0,0,0,0,0,0,0,0,0,0,0,0,0,0,0,0,0,0,0,0,0,0,0,0,0,0,0,0,0,0,0,0,0,0,0,0,0,0,0,0,0,0,
0,0,0,0,0,0,0,0,0,0,0,0,0,0,0,0,0,0,0,0,0,0,0,0,0,0,0,0,0,0,0,0,0,0,0,0,0,0,0,0,0,0,0,0,0,0,0,0,0,0,0,0,0,0,0,0,0,0,0,0,0,0,0,0,0,0,0,0,0,0,0,0,0,0,0,0,0,0,0,0,
0,0,0,0,0,0,0,0,0,0,0,0,0,0,0,0,0,0,0,0,0,0,0,0,0,0,0,0,0,0,0,0,0,0,0,0,0,0,0,0,0,0,0,0,0,0,0,0,0,0,0,0,0,0,0,0,0,0,0,0,0,0,0,0,0,0,0,0,0,0,0,0,0,0,0,0,0,0,0,0,
0,0,0,0,0,0,0,0,0,0,0,0,0,0,0,0,0,0,0,0,0,0,0,0,0,0,0,0,0,0,0,0,0,0,0,0,0,0,0,0,0,0,0,0,0,0,0,0,0,0,0,0,0,0,0,0,0,0,0,0,0,0,0,0,0,0,0,0,0,0,0,0,0,0,0,0,0,0,0,0,
0,0,0,0,0,0,0,0,0,0,0,0,0,0,0,0,0,0,0,0,0,0,0,0,0,0,0,0,0,0,0,0,0,0,0,0,0,0,0,0,0,0,0,0,0,0,0,0,0,0,0,0,0,0,0,0,0,0,0,0,0,0,0,0,0,0,0,0,0,0,0,0,0,0,0,0,0,0,0,0,
0,0,0,0,0,0,0,0,0,0,0,0,0,0,0,0,0,0,0,0,0,0,0,0,0,0,0,0,0,0,0,0,0,0,0,0,0,0,0,0,0,0,0,0,0,0,0,0,0,0,0,0,0,0,0,0,0,0,0,0,0,0,0,0,0,0,0,0,0,0,0,0,0,0,0,0,0,0,0,0,
0,0,0,0,0,0,0,0,0,0,0,0,0,0,0,0,0,0,0,0,0,0,0,0,0,0,0,0,0,0,0,0,0,0,0,0,0,0,0,0,0,0,0,0,0,0,0,0,0,0,0,0,0,0,0,0,0,0,0,0,0,0,0,0,0,0,0,0,0,0,0,0,0,0,0,0,0,0,0,0,
0,0,0,0,0,0,0,0,0,0,0,0,0,0,0,0,0,0,0,0,0,0,0,0,0,0,0,0,0,0,0,0,0,0,0,0,0,0,0,0,0,0,0,0,0,0,0,0,0,0,0,0,0,0,0,0,0,0,0,0,0,0,0,0,0,0,0,0,0,0,0,0,0,0,0,0,0,0,0,0,
0,0,0,0,0,0,0,0,0,0,0,0,0,0,0,0,0,0,0,0,0,0,0,0,0,0,0,0,0,0,0,0,0,0,0,0,0,0,0,0,0,0,0,0,0,0,0,0,0,0,0,0,0,0,0,0,0,0,0,0,0,0,0,0,0,0,0,0,0,0,0,0,0,0,0,0,0,0,0,0,
0,0,0,0,0,0,0,0,0,0,0,0,0,0,0,0,0,0,0,0,0,0,0,0,0,0,0,0,0,0,0,0,0,0,0,0,0,0,0,0,0,0,0,0,0,0,0,0,0,0,0,0,0,0,0,0,0,0,0,0,0,0,0,0,0,0,0,0,0,0,0,0,0,0,0,0,0,0,0,0,
0,0,0,0,0,0,0,0,0,0,0,0,0,0,0,0,0,0,0,0,0,0,0,0,0,0,0,0,0,0,0,0,0,0,0,0,0,0,0,0,0,0,0,0,0,0,0,0,0,0,0,0,0,0,0,0,0,0,0,0,0,0,0,0,0,0,0,0,0,0,0,0,0,0,0,0,0,0,0,0,
0,0,0,0,0,0,0,0,0,0,0,0,0,0,0,0,0,0,0,0,0,0,0,0,0,0,0,0,0,0,0,0,0,0,0,0,0,0,0,0,0,0,0,0,0,0,0,0,0,0,0,0,0,0,0,0,0,0,0,0,0,0,0,0,0,0,0,0,0,0,0,0,0,0,0,0,0,0,0,0
</data>
 </layer>
 <layer id="3" name="Paths" width="80" height="45">
  <data encoding="csv">
0,0,0,0,0,0,0,0,0,0,0,0,0,0,0,0,0,0,0,0,0,0,0,0,0,0,0,0,0,0,0,0,0,0,0,0,0,0,0,0,0,0,0,0,0,0,0,0,0,0,0,0,0,0,0,0,0,0,0,0,0,0,0,0,0,0,0,0,0,0,0,0,0,0,0,0,0,0,0,0,
0,0,0,0,0,0,0,0,0,0,0,0,0,0,0,0,0,0,0,0,0,0,0,0,0,0,0,0,0,0,0,0,0,0,0,0,0,0,0,0,0,0,0,0,0,0,0,0,0,0,0,0,0,0,0,0,0,0,0,0,0,0,0,0,0,0,0,0,0,0,0,0,0,0,0,0,0,0,0,0,
0,0,0,0,0,0,0,0,0,0,0,0,0,0,0,0,0,0,0,0,0,0,0,0,0,0,0,0,0,0,0,0,0,0,0,0,0,0,0,0,0,0,0,0,0,0,0,0,0,0,0,0,0,0,0,0,0,0,0,0,0,0,0,0,0,0,0,0,0,0,0,0,0,0,0,0,0,0,0,0,
0,0,0,0,0,0,0,0,0,0,0,0,0,0,0,0,0,0,0,0,0,0,0,0,0,0,0,0,0,0,0,0,0,0,0,0,0,0,0,0,0,0,0,0,0,0,0,0,0,0,0,0,0,0,0,0,0,0,0,0,0,0,0,0,0,0,0,0,0,0,0,0,0,0,0,0,0,0,0,0,
0,0,0,0,0,0,0,0,0,0,0,0,0,0,0,0,0,0,0,0,0,0,0,0,0,0,0,0,0,0,0,0,0,0,0,0,0,0,0,0,0,0,0,0,0,0,0,0,0,0,0,0,0,0,0,0,0,0,0,0,0,0,0,0,0,0,0,0,0,0,0,0,0,0,0,0,0,0,0,0,
0,0,0,0,0,0,0,0,0,0,0,0,0,0,0,0,0,0,0,0,0,0,0,0,0,0,0,0,0,0,0,0,0,0,0,0,0,0,0,0,0,0,0,0,0,0,0,0,0,0,0,0,0,0,0,0,0,0,0,0,0,0,0,0,0,0,0,0,0,0,0,0,0,0,0,0,0,0,0,0,
0,0,0,0,0,0,0,0,0,0,0,0,0,0,0,0,0,0,0,0,0,0,0,0,0,0,0,0,0,0,0,0,0,0,0,0,0,0,0,0,0,0,0,0,0,0,0,0,0,0,0,0,0,0,0,0,0,0,0,0,0,0,0,0,0,0,0,0,0,0,0,0,0,0,0,0,0,0,0,0,
0,0,0,0,0,0,0,0,0,0,0,0,0,0,0,0,0,0,0,0,0,0,0,0,0,0,0,0,0,0,0,0,0,0,0,0,0,0,0,0,0,0,0,0,0,0,0,0,0,0,0,0,0,0,0,0,0,0,0,0,0,0,0,0,0,0,0,0,0,0,0,0,0,0,0,0,0,0,0,0,
0,0,0,0,0,0,0,0,0,0,0,0,0,0,0,0,0,0,0,0,0,0,0,0,0,0,0,0,0,0,0,0,0,0,0,0,0,0,0,0,0,0,0,0,0,0,0,0,0,0,0,0,0,0,0,0,0,0,0,0,0,0,0,0,0,0,0,0,0,0,0,0,0,0,0,0,0,0,0,0,
0,0,0,0,0,0,0,0,0,0,0,0,0,0,0,0,0,0,0,0,0,0,0,0,0,0,0,0,0,0,0,0,0,0,0,0,0,0,0,0,0,0,0,0,0,0,0,0,0,0,0,0,0,0,18,0,0,0,0,0,0,0,0,18,0,0,0,0,0,0,0,0,18,0,0,0,0,0,0,0,
0,0,0,0,0,0,14,0,19,0,16,26,0,0,0,0,0,0,0,0,0,0,14,0,19,0,16,26,0,0,0,0,0,0,0,0,0,0,14,0,19,0,16,26,0,0,0,0,19,0,0,0,0,0,0,0,0,19,0,0,0,0,0,0,0,0,19,0,0,0,0,0,0,0,0,0,0,0,0,0,
0,0,0,16,0,18,0,15,0,0,17,0,0,0,0,0,0,0,0,16,0,18,0,15,0,0,17,0,0,0,0,0,0,0,0,16,0,18,0,15,0,0,17,0,0,0,0,0,0,0,0,0,0,0,0,0,0,0,0,0,0,0,0,0,0,0,0,0,0,0,0,0,0,0,0,0,0,0,0,0,
0,0,0,0,0,0,0,0,0,0,0,0,0,0,0,0,0,0,0,0,0,0,0,0,0,0,0,0,0,0,0,0,0,0,0,0,0,0,0,0,0,0,0,0,0,0,0,0,0,0,0,0,0,0,0,0,0,0,0,0,0,0,0,0,0,0,0,0,0,0,0,0,0,0,0,0,0,0,0,0,
0,0,0,0,0,0,0,0,0,0,0,0,0,0,0,0,0,0,0,0,0,0,0,0,0,0,0,0,0,0,0,0,0,0,0,0,0,0,0,0,0,0,0,0,0,0,0,0,0,0,0,0,0,0,0,0,0,0,0,0,0,0,0,0,0,0,0,0,0,0,0,0,0,0,0,0,0,0,0,0,
0,0,0,0,0,0,0,0,0,0,0,0,0,0,0,0,0,0,0,0,0,0,0,0,0,0,0,0,0,0,0,0,0,0,0,0,0,0,0,0,0,0,0,0,0,0,0,0,0,0,0,0,0,0,0,0,0,0,0,0,0,0,0,0,0,0,0,0,0,0,0,0,0,0,0,0,0,0,0,0,
0,0,0,0,0,0,0,0,0,0,0,0,0,0,0,0,0,0,0,0,0,0,0,0,0,0,0,0,0,0,0,0,0,0,0,0,0,0,0,0,0,0,0,0,0,0,0,0,0,0,0,0,0,0,0,0,0,0,0,0,0,0,0,0,0,0,0,0,0,0,0,0,0,0,0,0,0,0,0,0,
0,0,0,0,0,0,0,0,0,0,0,0,0,0,0,0,0,0,0,0,0,0,0,0,0,0,0,0,0,0,0,0,0,0,0,0,0,0,0,0,0,0,0,0,0,0,0,0,0,0,0,0,0,0,0,0,0,0,0,0,0,0,0,0,0,0,0,0,0,0,0,0,0,0,0,0,0,0,0,0,
0,0,0,0,0,0,0,0,0,0,0,0,0,0,0,0,0,0,0,0,0,0,0,0,0,0,0,0,0,0,0,0,0,0,0,0,0,0,0,0,0,0,0,0,0,0,0,0,0,0,0,0,0,0,0,0,0,0,0,0,0,0,0,0,0,0,0,23,23,23,23,23,23,0,0,27,0,0,0,0,
0,0,0,0,0,0,0,0,0,0,0,0,0,0,0,0,0,0,0,0,0,0,0,0,0,0,0,0,0,0,0,0,0,0,0,0,0,0,0,0,0,0,0,0,0,0,0,23,0,0,0,0,16,0,0,0,0,0,0,0,18,0,0,16,0,0,0,23,0,0,0,14,0,0,23,23,0,0,0,0,
0,0,0,0,0,0,0,0,0,0,0,0,0,0,0,0,0,0,0,0,0,0,0,0,0,0,0,0,0,0,0,0,0,0,0,0,0,0,0,0,0,0,0,0,0,0,0,23,0,0,0,0,0,0,17,0,0,23,0,0,0,0,0,0,0,19,0,0,0,15,0,0,0,19,0,0,0,0,0,0,
0,0,0,0,0,0,0,0,0,0,0,0,0,0,0,0,0,0,0,0,0,0,0,0,0,0,0,0,0,0,0,0,0,0,0,0,0,0,0,0,0,0,0,0,0,0,0,0,0,23,23,23,0,14,0,0,0,23,23,0,16,0,17,0,0,0,14,0,0,19,0,17,0,0,15,0,0,0,0,0,
0,0,0,0,0,0,0,0,0,0,0,0,0,0,0,0,0,0,0,0,0,0,0,0,0,0,0,0,0,0,0,0,0,0,0,0,0,0,0,0,0,0,0,0,0,0,0,15,0,23,0,0,0,0,0,0,0,23,23,0,0,0,0,24,0,0,0,0,18,0,0,0,16,0,0,0,0,0,0,0,
0,0,0,0,0,0,0,0,0,0,0,0,0,0,0,0,0,0,0,0,0,0,0,0,0,0,0,0,0,0,0,0,0,0,0,0,0,0,0,0,0,0,0,0,0,0,19,0,0,0,0,19,0,0,0,0,14,0,15,0,0,19,0,0,23,0,0,0,0,14,0,0,0,0,0,0,0,0,0,0,
0,0,0,0,0,0,0,0,0,0,0,0,0,0,0,0,0,0,0,0,0,0,0,0,0,0,0,0,0,0,0,0,0,0,0,0,0,0,0,0,0,0,0,0,0,0,0,0,14,17,0,0,24,0,19,0,0,0,0,0,0,14,0,0,0,0,16,0,0,0,0,19,0,0,0,0,0,0,0,0,
0,0,0,0,0,0,0,0,0,0,0,0,0,0,0,0,0,0,0,0,0,0,0,0,0,0,0,0,0,0,0,0,0,0,0,0,0,0,0,0,0,0,0,0,0,0,0,0,0,0,0,0,0,0,15,0,0,0,18,0,16,0,0,0,0,19,0,15,0,0,0,0,0,0,0,0,0,0,0,0,
0,0,0,0,0,0,0,0,0,0,0,0,0,0,0,0,0,0,0,0,0,0,0,0,0,0,0,0,0,0,0,0,0,0,0,0,0,0,0,0,0,0,0,0,0,0,0,0,0,23,23,23,23,0,0,0,19,0,0,0,0,0,15,0,17,0,24,0,0,0,0,0,0,0,0,0,0,0,0,0,
0,0,0,0,0,0,0,0,0,0,0,0,0,0,0,0,0,0,0,0,0,0,0,0,0,0,0,0,0,0,0,0,0,0,0,0,0,0,0,0,0,0,0,0,0,0,0,0,18,0,23,23,23,0,0,0,0,0,0,23,19,0,0,0,0,0,0,19,0,0,0,0,0,0,0,0,0,0,0,0,
0,0,0,0,0,0,0,0,0,0,0,0,0,0,0,0,0,0,0,0,0,0,0,0,0,0,0,0,0,0,0,0,0,0,0,0,0,0,0,0,0,0,0,0,0,0,0,0,0,0,0,0,0,0,0,0,0,0,0,0,0,0,0,0,0,0,0,0,0,0,0,0,0,0,0,0,0,0,0,0,
0,0,0,0,0,0,0,0,0,0,0,0,0,0,0,0,0,0,0,0,0,0,0,0,0,0,0,0,0,0,0,0,0,0,0,0,0,0,0,0,0,0,0,0,0,0,0,0,0,0,0,0,0,0,0,0,0,0,0,0,0,0,0,0,0,0,0,0,0,0,0,0,0,0,0,0,0,0,0,0,
0,0,0,0,0,0,0,0,0,0,0,0,0,0,0,0,0,0,0,0,0,0,0,0,0,0,0,0,0,0,0,0,0,0,0,0,0,0,0,0,0,0,0,0,0,0,0,0,0,0,0,0,0,0,0,0,0,0,0,0,0,0,0,0,0,0,0,0,0,0,0,0,0,0,0,0,0,0,0,0,
0,0,0,0,0,0,0,0,0,0,0,0,0,0,0,0,0,0,0,0,0,0,0,0,0,0,0,0,0,0,0,0,0,0,0,0,0,0,0,0,0,0,0,0,0,0,0,0,0,0,0,0,0,0,0,0,0,0,0,0,0,0,0,0,0,0,0,0,0,0,0,0,0,0,0,0,0,0,0,0,
0,0,0,0,0,0,0,0,0,0,0,0,0,0,0,0,0,0,0,0,0,0,0,0,0,0,0,0,0,0,0,0,0,0,0,0,0,0,0,0,0,0,0,0,0,0,0,0,0,0,0,0,0,0,0,0,0,0,0,0,0,0,0,0,0,0,0,0,0,0,0,0,0,0,0,0,0,0,0,0,
0,0,0,0,0,0,0,0,0,0,0,0,0,0,0,0,0,0,0,0,0,0,0,0,0,0,0,0,0,0,0,0,0,0,0,0,0,0,0,0,0,0,0,0,0,0,0,0,0,0,0,0,0,0,0,0,0,0,0,0,0,0,0,0,0,0,0,0,0,0,0,0,0,0,0,0,0,0,0,0,
0,0,0,0,0,0,0,0,0,0,0,0,0,0,0,0,0,0,0,0,0,0,0,0,0,0,0,0,0,0,0,0,0,0,0,0,0,0,0,0,0,0,0,0,0,0,0,0,0,0,0,0,0,0,0,0,0,0,0,0,0,0,0,0,0,0,0,0,0,0,0,0,0,0,0,0,0,0,0,0,
0,0,0,0,0,0,0,0,0,0,0,0,0,0,0,0,0,0,0,0,0,0,0,0,0,0,0,0,0,0,0,0,0,0,0,0,0,0,0,0,0,0,0,0,0,0,0,0,0,0,0,0,0,0,0,0,0,0,0,0,0,0,0,0,0,0,0,0,0,0,0,0,0,0,0,0,0,0,0,0,
0,0,0,0,0,0,0,0,0,0,0,0,0,0,0,0,0,0,0,0,0,0,0,0,0,0,0,0,0,0,0,0,0,0,0,0,0,0,0,0,0,0,0,0,0,0,0,0,0,0,0,0,0,0,0,0,0,0,0,0,0,0,0,0,0,0,0,0,0,0,0,0,0,0,0,0,0,0,0,0,
0,0,0,0,0,0,0,0,0,0,0,0,0,0,0,0,0,0,0,0,0,0,0,0,0,0,0,0,0,0,0,0,0,0,0,0,0,0,0,0,0,0,0,0,0,0,0,0,0,0,0,0,0,0,0,0,0,0,0,0,0,0,0,0,0,0,0,0,0,0,0,0,0,0,0,0,0,0,0,0,
27,0,0,0,0,0,0,0,0,0,0,0,0,0,0,0,0,0,0,0,0,0,0,0,0,0,0,0,0,0,0,0,0,0,0,0,0,0,0,0,0,0,0,0,0,0,0,0,0,0,0,0,0,0,0,0,0,0,0,0,0,0,0,0,0,0,0,0,0,0,0,0,0,0,0,0,0,0,0,0,
19,0,0,0,0,0,0,0,0,0,0,0,0,0,0,0,0,0,0,0,0,0,0,0,0,0,0,0,0,0,0,0,0,0,0,0,0,0,0,0,0,0,0,0,0,0,0,0,0,0,0,0,0,0,0,0,0,0,0,0,0,0,0,0,0,0,0,0,0,0,0,0,0,0,0,0,0,0,0,0,
0,0,0,0,0,0,0,0,0,0,0,0,0,0,0,0,0,0,0,0,0,0,0,0,0,0,0,0,0,0,0,0,0,0,0,0,0,0,0,0,0,0,0,0,0,0,0,0,0,0,0,0,0,0,0,0,0,0,0,0,0,0,0,0,0,0,0,0,0,0,0,0,0,0,0,0,0,0,0,0,
0,0,0,0,0,0,0,0,0,0,0,0,0,0,0,0,0,0,0,0,0,0,0,0,0,0,0,0,0,0,0,0,0,0,0,0,0,0,0,0,0,0,0,0,0,0,0,0,0,0,0,0,0,0,0,0,0,0,0,0,0,0,0,0,0,0,0,0,0,0,0,0,0,0,0,0,0,0,0,0,
0,0,0,0,0,0,0,0,0,0,0,0,0,0,0,0,0,0,0,0,0,0,0,0,0,0,0,0,0,0,0,0,0,0,0,0,0,0,0,0,0,0,0,0,0,0,0,0,0,0,0,0,0,0,0,0,0,0,0,0,0,0,0,0,0,0,0,0,0,0,0,0,0,0,0,0,0,0,0,0,
0,0,0,0,0,0,0,0,0,0,0,0,0,0,0,0,0,0,0,0,0,0,0,0,0,0,0,0,0,0,0,0,0,0,0,0,0,0,0,0,0,0,0,0,0,0,0,0,0,0,0,0,0,0,0,0,0,0,0,0,0,0,0,0,0,0,0,0,0,0,0,0,0,0,0,0,0,0,0,0,
0,0,0,0,0,0,0,0,0,0,0,0,0,0,0,0,0,0,0,0,0,0,0,0,0,0,0,0,0,0,0,0,0,0,0,0,0,0,0,0,0,0,0,0,0,0,0,0,0,0,0,0,0,0,0,0,0,0,0,0,0,0,0,0,0,0,0,0,0,0,0,0,0,0,0,0,0,0,0,0,
0,0,0,0,0,0,0,0,0,0,0,0,0,0,0,0,0,0,0,0,0,0,0,0,0,0,0,0,0,0,0,0,0,0,0,0,0,0,0,0,0,0,0,0,0,0,0,0,0,0,0,0,0,0,0,0,0,0,0,0,0,0,0,0,0,0,0,0,0,0,0,0,0,0,0,0,0,0,0,0
</data>
 </layer>
 <layer id="4" name="Front" width="80" height="45">
  <data encoding="csv">
0,0,0,0,0,0,0,0,0,0,7429,7430,7431,0,0,0,0,0,0,0,0,0,0,0,0,0,7429,7430,7431,0,0,0,0,0,0,0,0,0,0,0,0,0,7429,7430,7431,0,0,0,4106,4107,4108,0,0,0,7454,0,0,4106,4107,4108,0,0,0,7462,0,0,4106,4107,4108,0,0,0,7470,0,0,0,0,0,0,0,
0,0,0,0,0,0,0,0,0,0,7453,7454,7455,0,0,0,0,0,0,0,0,0,0,0,0,0,7461,7454,7455,0,0,0,0,0,0,0,0,0,0,0,0,0,7453,7454,7455,0,0,0,0,7473,0,0,0,0,7842,7771,0,0,7481,0,0,0,0,7842,7771,0,0,7489,0,0,0,0,7842,7771,0,0,0,0,0,0,
0,0,0,0,0,0,0,0,0,0,0,0,0,0,0,0,0,0,0,0,0,0,0,0,0,0,0,0,0,0,0,0,0,0,0,0,0,0,0,0,0,0,0,0,0,0,0,0,7496,0,0,0,0,0,0,7842,0,7504,0,0,0,0,0,0,7842,0,7512,0,0,0,0,0,0,7842,0,0,0,0,0,0,
0,0,0,0,0,0,0,0,0,0,0,7822,7798,0,0,0,0,0,0,0,0,0,0,0,0,0,0,7822,7798,0,0,0,0,0,0,0,0,0,0,0,0,0,0,7822,7798,0,0,0,0,0,0,0,0,0,0,0,0,0,0,0,0,0,0,0,0,0,0,0,0,0,0,0,0,0,0,0,0,0,0,0,
0,0,0,0,0,0,0,0,0,0,0,7821,7527,0,0,0,0,0,0,0,0,0,0,0,0,0,0,7821,7535,0,0,0,0,0,0,0,0,0,0,0,0,0,0,7821,7543,0,0,0,0,0,0,0,0,0,0,0,0,0,0,0,0,0,0,0,0,0,0,0,0,0,0,0,0,0,0,0,0,0,0,0,
0,0,0,0,0,0,0,0,0,0,0,1610620510,0,0,0,0,0,0,0,0,0,0,0,0,0,0,0,1610620510,0,0,0,0,0,0,0,0,0,0,0,0,0,0,0,1610620510,0,0,0,0,0,0,0,0,0,0,0,0,0,0,0,0,0,0,0,0,0,0,0,0,0,0,0,0,0,0,0,0,0,0,0,0,
0,0,0,0,0,0,0,0,0,2684362359,2147491446,7799,0,6014,0,0,0,0,0,0,0,0,0,0,0,2684362359,2147491446,7799,0,6014,0,0,0,0,0,0,0,0,0,0,0,2684362359,2147491446,7799,0,6014,0,0,0,0,0,0,0,0,0,0,0,0,0,0,0,0,0,0,0,0,0,0,0,0,0,0,0,0,0,0,0,0,0,0,
0,0,0,0,0,0,0,0,0,0,0,0,0,0,0,0,0,0,0,0,0,0,0,0,0,0,0,0,0,0,0,0,0,0,0,0,0,0,0,0,0,0,0,0,0,0,0,0,0,0,0,0,0,0,0,0,0,0,0,0,0,0,0,0,0,0,0,0,0,0,0,0,0,0,0,0,0,0,0,0,
0,0,0,0,0,0,0,0,0,0,0,0,0,0,5910,0,0,0,0,0,0,0,0,0,0,0,0,0,0,0,5910,0,0,0,0,0,0,0,0,0,0,0,0,0,0,0,5910,0,0,0,0,0,0,0,0,0,0,0,0,0,0,0,0,0,0,0,0,0,0,0,0,0,0,0,0,0,0,0,0,0,
0,0,0,0,0,0,0,0,0,0,0,0,0,0,5940,0,0,0,0,0,0,0,0,0,0,0,0,0,0,0,5940,0,0,0,0,0,0,0,0,0,0,0,0,0,0,0,5940,0,0,0,0,0,0,0,0,0,0,0,0,0,0,0,0,0,0,0,0,0,0,0,0,0,0,0,0,0,0,0,0,0,
0,0,0,0,0,0,0,0,0,0,0,0,0,0,0,0,0,0,0,0,0,0,0,0,0,0,0,0,0,0,0,0,0,0,0,0,0,0,0,0,0,0,0,0,0,0,0,0,0,0,0,0,0,0,0,0,0,0,0,0,0,0,0,0,0,0,0,0,0,0,0,0,0,0,0,0,0,0,0,0,
0,0,0,0,0,0,0,0,0,0,0,0,0,0,0,0,0,0,0,0,0,0,0,0,0,0,0,0,0,0,0,0,0,0,0,0,0,0,0,0,0,0,0,0,0,0,0,0,0,0,0,0,0,0,0,0,0,0,0,0,0,0,0,0,0,0,0,0,0,0,0,0,0,0,0,0,0,0,0,0,
0,0,0,0,0,0,0,0,0,0,0,0,0,0,0,0,0,0,0,0,0,0,0,0,0,0,0,0,0,0,0,0,0,0,0,0,0,0,0,0,0,0,0,0,0,0,0,0,0,0,0,0,0,0,0,0,0,0,0,0,0,0,0,0,0,0,0,0,0,0,0,0,0,0,0,0,0,0,0,0,
0,7424,7425,7426,7427,7428,7429,7430,7431,0,0,0,0,0,0,0,7432,7433,7434,7435,7436,7437,7438,7439,0,0,0,0,0,0,0,7440,7441,7442,7443,7444,7445,7446,7447,0,0,0,0,0,0,0,0,0,0,0,0,0,0,0,0,0,0,0,0,0,0,0,0,0,0,0,0,0,0,0,0,0,0,0,0,0,0,0,0,0,
0,7448,7449,7450,7451,7452,7453,7454,7455,0,0,0,0,0,0,0,7456,7457,7458,7459,7460,7461,7462,7463,0,0,0,0,0,0,0,7464,7465,7466,7467,7468,7469,7470,7471,0,0,0,0,0,0,0,0,0,0,0,0,0,0,0,0,0,0,0,0,0,0,0,0,0,0,0,0,0,0,0,0,0,0,0,0,0,0,0,0,0,
0,7472,0,0,0,0,0,0,7479,0,0,0,0,0,0,0,7480,0,0,0,0,0,0,7487,0,0,0,0,0,0,0,7488,0,0,0,0,0,0,7495,0,0,0,0,0,0,0,0,0,0,0,0,0,0,0,0,0,0,0,0,0,0,0,0,0,0,0,0,0,0,0,0,0,0,0,0,0,0,0,0,0,
0,0,0,0,0,0,0,0,7503,0,0,0,0,0,0,0,0,0,0,0,0,0,0,7511,0,0,0,0,0,0,0,0,0,0,0,0,0,0,7519,0,0,0,0,0,0,0,0,0,0,0,0,0,0,0,0,0,0,0,0,0,0,0,0,0,0,0,0,0,0,0,0,0,0,0,0,0,0,0,0,0,
0,0,0,0,0,0,0,0,7527,0,0,0,0,0,0,0,0,0,0,0,0,0,0,7535,0,0,0,0,0,0,0,0,0,0,0,0,0,0,7543,0,0,0,0,0,0,0,0,0,0,0,0,0,0,0,0,0,0,0,0,0,0,0,0,0,0,0,0,0,0,0,0,0,0,0,0,0,0,178,179,0,
0,0,0,0,0,0,0,0,0,0,0,0,0,0,0,0,0,0,0,0,0,0,0,0,0,0,0,0,0,0,0,0,0,0,0,0,0,0,0,0,0,0,0,0,0,0,0,0,0,0,0,0,0,0,0,0,0,0,0,0,0,0,0,0,0,0,0,0,0,0,0,0,0,0,0,0,4206,0,0,2147491457,
0,0,0,0,0,0,0,0,0,0,0,0,0,0,0,0,0,0,0,0,0,0,0,0,0,0,0,0,0,0,0,0,0,0,0,0,0,0,0,0,0,0,0,0,0,0,0,0,0,0,0,0,0,0,0,0,0,0,0,0,0,0,0,0,0,0,0,0,0,0,0,0,0,0,0,0,0,0,0,7786,
0,0,0,0,0,0,0,0,0,0,0,0,0,0,0,0,0,0,0,0,0,0,0,0,0,0,0,0,0,0,0,0,0,0,0,0,0,0,0,0,0,0,0,0,0,0,0,0,0,0,0,0,0,0,0,0,0,0,0,0,0,0,0,0,0,0,0,0,0,0,0,0,0,0,0,0,2684362340,2147491483,536878676,2147491432,
0,0,0,0,0,0,0,0,0,0,0,0,0,0,0,0,0,0,0,0,0,0,0,0,0,0,0,0,0,0,0,0,0,0,0,0,0,0,0,0,0,0,0,0,0,0,0,0,0,0,0,0,0,0,0,0,0,0,0,0,0,0,0,0,0,0,0,0,0,0,0,0,0,0,504,479,7787,2147491497,2147491411,2147491411,
0,0,0,0,0,0,0,0,0,0,0,0,0,0,0,0,0,0,0,0,0,0,0,0,0,0,0,0,0,0,0,0,0,0,0,0,0,0,0,0,0,0,0,0,0,0,0,0,0,0,0,0,0,0,0,0,0,0,0,0,0,0,0,0,0,0,0,0,0,0,0,0,0,0,0,0,7828,7804,2147491497,7763,
0,0,0,0,0,0,0,0,0,0,0,0,0,0,0,0,0,0,0,0,0,0,0,0,0,0,0,0,0,0,0,0,0,0,0,0,0,0,0,0,0,0,0,0,0,0,0,0,0,0,0,0,0,0,0,0,0,0,0,0,0,0,0,0,0,0,0,0,0,0,0,0,0,0,0,0,7765,7765,2147491412,2147491457,
0,0,0,0,0,0,0,0,0,0,0,0,0,0,0,0,0,0,0,0,0,0,0,0,0,0,0,0,0,0,0,0,0,0,0,0,0,0,0,0,0,0,0,0,0,0,0,0,0,0,0,0,0,0,0,0,0,0,0,0,0,0,0,0,0,0,0,0,0,504,478,479,478,479,2147484729,2147491411,1610620500,0,2147491433,2147491432,
0,0,0,0,0,0,0,0,0,0,0,0,0,0,0,0,0,0,0,0,0,0,0,0,0,0,0,0,0,0,0,0,0,0,0,0,0,0,0,0,0,0,0,0,0,0,0,0,0,0,0,0,0,0,0,0,0,0,0,0,0,0,0,0,0,0,0,0,0,0,0,0,0,0,0,7796,7789,3221226502,2147491408,0,
0,0,0,0,0,0,0,0,0,0,0,0,0,0,0,0,0,0,0,0,0,0,0,0,0,0,0,0,0,0,0,0,0,0,0,0,0,0,0,0,0,0,0,0,0,0,0,0,0,0,0,0,0,0,0,0,0,0,0,0,0,0,0,0,0,0,0,0,0,1073742830,7834,2684362324,536878676,1081,7844,7795,3221226553,2147491482,2147491432,7788,
0,0,0,0,0,0,0,0,0,0,0,0,0,0,0,0,0,0,0,0,0,0,0,0,0,0,0,0,0,0,0,0,0,0,0,0,0,0,0,0,0,0,0,0,0,0,0,0,0,0,0,0,0,0,0,0,0,0,0,0,0,0,0,0,0,504,479,478,479,1073742934,7765,0,0,0,7789,7789,2684362337,2684362324,1073749625,7788,
0,0,0,0,0,0,0,0,0,0,0,0,0,0,0,0,0,0,0,0,0,0,0,0,0,0,0,0,0,0,0,0,0,0,0,0,0,0,0,0,0,0,0,0,0,0,0,0,2147484073,2147484072,2147484072,424,424,424,2147484072,474,424,424,424,2147484122,2147484072,424,2147484072,425,425,2147483720,2147483719,7797,1133,7785,7765,0,0,7789,1083,7789,7828,7763,7801,7788,
0,0,0,0,0,0,0,0,0,0,0,0,0,0,0,0,0,0,0,0,0,0,0,0,0,0,0,0,0,0,0,0,0,0,0,0,0,0,0,0,0,0,0,0,0,0,7788,7788,0,0,0,0,0,0,0,0,0,0,0,0,0,0,0,2147483747,2147483746,2147483745,2147483744,7797,2147484679,7765,1006,0,0,7789,7789,7788,7788,7788,7788,7788,
0,82,83,84,0,0,2147483728,2147483727,2147483726,2147483827,2147483826,0,0,0,0,0,0,0,128,129,130,154,0,0,451,484,0,0,0,0,0,0,0,0,0,0,0,0,0,0,0,0,0,0,0,0,0,0,0,0,0,0,0,0,0,0,0,0,0,0,0,0,0,0,0,0,0,0,0,0,0,0,0,0,0,0,0,0,0,0,
106,107,108,109,110,111,2147483753,2147483752,2147483751,0,0,0,0,426,0,0,0,0,0,426,178,179,153,154,451,459,0,0,0,0,0,0,0,0,0,0,0,0,0,0,0,0,0,0,0,0,0,0,0,0,0,0,0,0,0,0,0,0,0,0,0,0,0,0,0,0,0,0,0,0,0,0,0,0,0,0,0,0,0,0,
131,132,133,134,135,136,2147483778,2147483777,2147483776,82,83,84,85,451,0,0,0,0,0,451,0,0,178,179,451,484,0,0,0,0,0,0,0,0,0,0,0,0,0,0,0,0,0,0,0,0,0,0,0,0,0,0,0,0,0,0,0,0,0,0,0,0,0,0,0,0,0,0,0,0,0,0,0,0,0,0,0,0,0,0,
156,0,1610620537,159,160,0,0,0,106,107,108,109,110,451,0,0,0,0,0,451,78,79,80,0,451,459,0,0,0,0,0,0,0,0,0,0,0,0,0,0,0,0,0,0,0,0,0,0,0,0,0,0,0,0,0,0,0,0,0,0,0,0,0,0,0,0,0,0,0,0,0,0,0,0,0,0,0,0,0,0,
0,0,1610620584,7835,536878676,7834,7834,1610620537,0,132,133,134,135,476,0,0,0,0,0,476,103,104,105,0,476,484,0,0,0,0,0,0,0,0,0,0,0,0,0,0,0,0,0,0,0,0,0,0,0,0,0,0,0,0,0,0,0,0,0,0,0,0,0,0,0,0,0,0,0,0,0,0,0,0,0,0,0,0,0,0,
0,0,7763,7849,1057,7765,0,1610620584,7835,7835,1610620540,159,160,161,0,0,0,0,0,501,128,7818,7795,2684362337,2684362324,7835,0,0,0,0,0,0,0,0,0,0,0,0,0,0,0,0,0,0,0,0,0,0,0,0,0,0,0,0,0,0,0,0,0,0,0,0,0,0,0,0,0,0,0,0,0,0,0,0,0,0,0,0,0,0,
0,7797,1033,2147484679,7849,0,7788,7788,7788,7765,2147491412,7789,1057,2684362335,7819,0,0,0,0,0,153,7796,7789,7764,7793,536878673,0,0,0,0,0,0,0,0,0,0,0,0,0,0,0,0,0,0,0,0,0,0,0,0,0,0,0,0,0,0,0,0,0,0,0,0,0,0,0,0,0,0,0,0,0,0,0,0,0,0,0,0,0,0,
0,2684362358,1057,7789,7828,2684362408,7788,7788,7788,1083,7784,2684355669,7794,0,1610620534,0,0,0,0,0,178,7796,7789,3758097390,2684362360,0,0,0,0,0,0,0,0,0,0,0,0,0,0,0,0,0,0,0,0,0,0,0,0,0,0,0,0,0,0,0,0,0,0,0,0,0,0,0,0,0,0,0,0,0,0,0,0,0,0,0,0,0,0,0,
0,7796,7789,0,2684362340,2684362409,7788,7788,1073742831,7785,233,234,0,7822,7850,0,0,0,0,65,66,67,7771,1610613845,7849,7848,0,0,0,0,0,0,0,0,0,0,0,0,0,0,0,0,0,0,0,0,0,0,0,0,0,0,0,0,0,0,0,0,0,0,0,0,0,0,0,0,0,0,0,0,0,0,0,0,0,0,0,0,0,0,
0,3758104182,0,2684355565,2684362409,0,0,1011,7786,0,0,0,7822,7802,0,0,0,0,0,90,91,92,7775,7823,7828,7804,0,0,0,0,0,0,0,0,0,0,0,0,0,0,0,0,0,0,0,0,0,0,0,0,0,0,0,0,0,0,0,0,0,0,0,0,0,0,0,0,0,0,0,0,0,0,0,0,0,0,0,0,0,0,
0,2684362358,7789,3758097390,7763,7763,7763,1085,2684362409,0,143,0,7821,0,0,0,0,0,0,115,116,117,103,7797,7789,7788,0,0,0,0,0,0,0,0,0,0,0,0,0,0,0,0,0,0,0,0,0,0,0,0,0,0,0,0,0,0,0,0,0,0,0,0,0,0,0,0,0,0,0,0,0,0,0,0,0,0,0,0,0,0,
0,7842,7771,7789,0,7789,1033,1073742957,7763,0,0,7822,7802,0,0,0,0,0,0,140,141,142,128,2684362358,7789,7788,0,0,0,0,0,0,0,0,0,0,0,0,0,0,0,0,0,0,0,0,0,0,0,0,0,0,0,0,0,0,0,0,0,0,0,0,0,0,0,0,0,0,0,0,0,0,0,0,0,0,0,0,0,0,
0,0,7842,7771,7822,7823,7789,7789,1033,0,0,7821,0,0,0,0,0,0,0,0,166,75,76,7775,7823,0,0,0,0,0,0,0,0,0,0,0,0,0,0,0,0,0,0,0,0,0,0,0,0,0,0,0,0,0,0,0,0,0,0,0,0,0,0,0,0,0,0,0,0,0,0,0,0,0,0,0,0,0,0,0,
0,5862,5863,7842,1610620511,2147483802,7771,1057,7789,7789,7822,7802,0,0,0,0,0,0,0,0,191,100,101,102,2684362358,7789,0,0,0,0,0,0,0,0,0,0,0,0,0,0,0,0,0,0,0,0,0,0,0,0,0,0,0,0,0,0,0,0,0,0,0,0,0,0,0,0,0,0,0,0,0,0,0,0,0,0,0,0,0,0,
5887,5858,5893,0,0,2147483827,2147483826,7774,7773,7798,1610620511,0,0,0,0,0,0,0,0,0,0,125,126,127,7842,7772,0,0,0,0,0,0,0,0,0,0,0,0,0,0,0,0,0,0,0,0,0,0,0,0,0,0,0,0,0,0,0,0,0,0,0,0,0,0,0,0,0,0,0,0,0,0,0,0,0,0,0,0,0,0
</data>
 </layer>
 <layer id="17" name="Front2" width="80" height="45">
  <data encoding="csv">
0,0,0,0,0,0,0,0,0,0,0,0,0,0,0,0,0,0,0,0,0,0,0,0,0,0,0,0,0,0,0,0,0,0,0,0,0,0,0,0,0,0,0,0,0,0,0,0,0,0,0,0,0,0,0,0,0,0,0,0,0,0,0,0,0,0,0,0,0,0,0,0,0,0,0,0,0,0,0,0,
0,0,0,0,0,0,0,0,0,0,0,0,0,0,0,0,0,0,0,0,0,0,0,0,0,0,0,0,0,0,0,0,0,0,0,0,0,0,0,0,0,0,0,0,0,0,0,0,0,0,0,0,0,0,0,0,0,0,0,0,0,0,0,0,0,0,0,0,0,0,0,0,0,0,0,0,0,0,0,0,
0,0,0,0,0,0,0,0,0,0,0,0,0,0,0,0,0,0,0,0,0,0,0,0,0,0,0,0,0,0,0,0,0,0,0,0,0,0,0,0,0,0,0,0,0,0,0,0,0,0,0,0,0,0,0,0,0,0,0,0,0,0,0,0,0,0,0,0,0,0,0,0,0,0,0,0,0,0,0,0,
0,0,0,0,0,0,0,0,0,0,0,0,0,0,0,0,0,0,0,0,0,0,0,0,0,0,0,0,0,0,0,0,0,0,0,0,0,0,0,0,0,0,0,0,0,0,0,0,0,0,0,0,0,0,0,0,0,0,0,0,0,0,0,0,0,0,0,0,0,0,0,0,0,0,0,0,0,0,0,0,
0,0,0,0,0,0,0,0,0,0,0,0,0,0,0,0,0,0,0,0,0,0,0,0,0,0,0,0,0,0,0,0,0,0,0,0,0,0,0,0,0,0,0,0,0,0,0,0,0,0,0,0,0,0,0,0,0,0,0,0,0,0,0,0,0,0,0,0,0,0,0,0,0,0,0,0,0,0,0,0,
0,0,0,0,0,0,0,0,0,0,0,0,0,0,0,0,0,0,0,0,0,0,0,0,0,0,0,0,0,0,0,0,0,0,0,0,0,0,0,0,0,0,0,0,0,0,0,0,0,0,0,0,0,0,0,0,0,0,0,0,0,0,0,0,0,0,0,0,0,0,0,0,0,0,0,0,0,0,0,0,
0,0,0,0,0,0,0,0,0,0,0,0,0,0,0,0,0,0,0,0,0,0,0,0,0,0,0,0,0,0,0,0,0,0,0,0,0,0,0,0,0,0,0,0,0,0,0,0,0,0,0,0,0,0,0,0,0,0,0,0,0,0,0,0,0,0,0,0,0,0,0,0,0,0,0,0,0,0,0,0,
0,0,0,0,0,0,0,0,0,0,0,0,0,0,0,0,0,0,0,0,0,0,0,0,0,0,0,0,0,0,0,0,0,0,0,0,0,0,0,0,0,0,0,0,0,0,0,0,0,0,0,0,0,0,0,0,0,0,0,0,0,0,0,0,0,0,0,0,0,0,0,0,0,0,0,0,0,0,0,0,
0,0,0,0,0,0,0,0,0,0,0,0,0,0,0,0,0,0,0,0,0,0,0,0,0,0,0,0,0,0,0,0,0,0,0,0,0,0,0,0,0,0,0,0,0,0,0,0,0,0,0,0,0,0,0,0,0,0,0,0,0,0,0,0,0,0,0,0,0,0,0,0,0,0,0,0,0,0,0,0,
0,0,0,0,0,0,0,0,0,0,0,0,0,0,0,0,0,0,0,0,0,0,0,0,0,0,0,0,0,0,0,0,0,0,0,0,0,0,0,0,0,0,0,0,0,0,0,0,0,0,0,0,0,0,0,0,0,0,0,0,0,0,0,0,0,0,0,0,0,0,0,0,0,0,0,0,0,0,0,0,
0,0,0,0,0,0,0,0,0,0,0,0,0,0,0,0,0,0,0,0,0,0,0,0,0,0,0,0,0,0,0,0,0,0,0,0,0,0,0,0,0,0,0,0,0,0,0,0,0,0,0,0,0,0,0,0,0,0,0,0,0,0,0,0,0,0,0,0,0,0,0,0,0,0,0,0,0,0,0,0,
0,0,0,0,0,0,0,0,0,0,0,0,0,0,0,0,0,0,0,0,0,0,0,0,0,0,0,0,0,0,0,0,0,0,0,0,0,0,0,0,0,0,0,0,0,0,0,0,0,0,0,0,0,0,0,0,0,0,0,0,0,0,0,0,0,0,0,0,0,0,0,0,0,0,0,0,0,0,0,0,
0,0,0,0,0,0,0,0,0,0,0,0,0,0,0,0,0,0,0,0,0,0,0,0,0,0,0,0,0,0,0,0,0,0,0,0,0,0,0,0,0,0,0,0,0,0,0,0,0,0,0,0,0,0,0,0,0,0,0,0,0,0,0,0,0,0,0,0,0,0,0,0,0,0,0,0,0,0,0,0,
0,0,0,0,0,0,0,0,0,0,0,0,0,0,0,0,0,0,0,0,0,0,0,0,0,0,0,0,0,0,0,0,0,0,0,0,0,0,0,0,0,0,0,0,0,0,0,0,0,0,0,0,0,0,0,0,0,0,0,0,0,0,0,0,0,0,0,0,0,0,0,0,0,0,0,0,0,0,0,0,
0,0,0,0,0,0,0,0,0,0,0,0,0,0,0,0,0,0,0,0,0,0,0,0,0,0,0,0,0,0,0,0,0,0,0,0,0,0,0,0,0,0,0,0,0,0,0,0,0,0,0,0,0,0,0,0,0,0,0,0,0,0,0,0,0,0,0,0,0,0,0,0,0,0,0,0,0,0,0,0,
0,0,0,0,0,0,0,0,0,0,0,0,0,0,0,0,0,0,0,0,0,0,0,0,0,0,0,0,0,0,0,0,0,0,0,0,0,0,0,0,0,0,0,0,0,0,0,0,0,0,0,0,0,0,0,0,0,0,0,0,0,0,0,0,0,0,0,0,0,0,0,0,0,0,0,0,0,0,0,0,
0,0,0,0,0,0,0,0,0,0,0,0,0,0,0,0,0,0,0,0,0,0,0,0,0,0,0,0,0,0,0,0,0,0,0,0,0,0,0,0,0,0,0,0,0,0,0,0,0,0,0,0,0,0,0,0,0,0,0,0,0,0,0,0,0,0,0,0,0,0,0,0,0,0,0,0,0,0,0,0,
0,0,0,0,0,0,0,0,0,0,0,0,0,0,0,0,0,0,0,0,0,0,0,0,0,0,0,0,0,0,0,0,0,0,0,0,0,0,0,0,0,0,0,0,0,0,0,0,0,0,0,0,0,0,0,0,0,0,0,0,0,0,0,0,0,0,0,0,0,0,0,0,0,0,0,0,0,0,0,0,
0,0,0,0,0,0,0,0,0,0,0,0,0,0,0,0,0,0,0,0,0,0,0,0,0,0,0,0,0,0,0,0,0,0,0,0,0,0,0,0,0,0,0,0,0,0,0,0,0,0,0,0,0,0,0,0,0,0,0,0,0,0,0,0,0,0,0,0,0,0,0,0,0,0,0,0,0,0,0,0,
0,0,0,0,0,0,0,0,0,0,0,0,0,0,0,0,0,0,0,0,0,0,0,0,0,0,0,0,0,0,0,0,0,0,0,0,0,0,0,0,0,0,0,0,0,0,0,0,0,0,0,0,0,0,0,0,0,0,0,0,0,0,0,0,0,0,0,0,0,0,0,0,0,0,0,0,0,0,0,0,
0,0,0,0,0,0,0,0,0,0,0,0,0,0,0,0,0,0,0,0,0,0,0,0,0,0,0,0,0,0,0,0,0,0,0,0,0,0,0,0,0,0,0,0,0,0,0,0,0,0,0,0,0,0,0,0,0,0,0,0,0,0,0,0,0,0,0,0,0,0,0,0,0,0,0,0,0,0,0,0,
0,0,0,0,0,0,0,0,0,0,0,0,0,0,0,0,0,0,0,0,0,0,0,0,0,0,0,0,0,0,0,0,0,0,0,0,0,0,0,0,0,0,0,0,0,0,0,0,0,0,0,0,0,0,0,0,0,0,0,0,0,0,0,0,0,0,0,0,0,0,0,0,0,0,0,0,0,0,0,0,
0,0,0,0,0,0,0,0,0,0,0,0,0,0,0,0,0,0,0,0,0,0,0,0,0,0,0,0,0,0,0,0,0,0,0,0,0,0,0,0,0,0,0,0,0,0,0,0,0,0,0,0,0,0,0,0,0,0,0,0,0,0,0,0,0,0,0,0,0,0,0,0,0,0,0,0,0,0,0,0,
0,0,0,0,0,0,0,0,0,0,0,0,0,0,0,0,0,0,0,0,0,0,0,0,0,0,0,0,0,0,0,0,0,0,0,0,0,0,0,0,0,0,0,0,0,0,0,0,0,0,0,0,0,0,0,0,0,0,0,0,0,0,0,0,0,0,0,0,0,0,0,0,0,0,0,0,0,0,0,0,
0,0,0,0,0,0,0,0,0,0,0,0,0,0,0,0,0,0,0,0,0,0,0,0,0,0,0,0,0,0,0,0,0,0,0,0,0,0,0,0,0,0,0,0,0,0,0,0,0,0,0,0,0,0,0,0,0,0,0,0,0,0,0,0,0,0,0,0,0,0,0,0,0,0,0,0,0,0,0,0,
0,0,0,0,0,0,0,0,0,0,0,0,0,0,0,0,0,0,0,0,0,0,0,0,0,0,0,0,0,0,0,0,0,0,0,0,0,0,0,0,0,0,0,0,0,0,0,0,0,0,0,0,0,0,0,0,0,0,0,0,0,0,0,0,0,0,0,0,0,0,0,0,0,0,0,0,0,0,0,0,
0,0,0,0,0,0,0,0,0,0,0,0,0,0,0,0,0,0,0,0,0,0,0,0,0,0,0,0,0,0,0,0,0,0,0,0,0,0,0,0,0,0,0,0,0,0,0,0,0,0,0,0,0,0,0,0,0,0,0,0,0,0,0,0,0,0,0,0,0,0,0,0,0,0,0,0,0,0,0,0,
0,0,0,0,0,0,0,0,0,0,0,0,0,0,0,0,0,0,0,0,0,0,0,0,0,0,0,0,0,0,0,0,0,0,0,0,0,0,0,0,0,0,0,0,0,0,0,0,0,0,0,0,0,0,0,0,0,0,0,0,0,0,0,0,0,0,0,0,0,0,0,0,0,0,0,0,0,0,0,0,
0,0,0,0,0,0,0,0,0,0,0,0,0,0,0,0,0,0,0,0,0,0,0,0,0,0,0,0,0,0,0,0,0,0,0,0,0,0,0,0,0,0,0,0,0,0,0,0,0,0,0,0,0,0,0,0,0,0,0,0,0,0,0,0,0,0,0,0,0,0,0,0,0,0,0,0,0,0,0,0,
0,0,0,0,0,0,0,0,0,0,0,0,0,0,0,0,0,0,0,0,0,0,0,0,0,0,0,0,0,0,0,0,0,0,0,0,0,0,0,0,0,0,0,0,0,0,0,0,0,0,0,0,0,0,0,0,0,0,0,0,0,0,0,0,0,0,0,0,0,0,0,0,0,0,0,0,0,0,0,0,
0,0,0,0,0,0,0,0,0,0,0,0,0,0,0,0,0,0,0,0,0,0,0,0,0,0,0,0,0,0,0,0,0,0,0,0,0,0,0,0,0,0,0,0,0,0,0,0,0,0,0,0,0,0,0,0,0,0,0,0,0,0,0,0,0,0,0,0,0,0,0,0,0,0,0,0,0,0,0,0,
0,0,0,0,0,0,0,0,0,0,0,0,0,0,0,0,0,0,0,0,0,0,0,0,0,0,0,0,0,0,0,0,0,0,0,0,0,0,0,0,0,0,0,0,0,0,0,0,0,0,0,0,0,0,0,0,0,0,0,0,0,0,0,0,0,0,0,0,0,0,0,0,0,0,0,0,0,0,0,0,
0,0,0,0,0,0,0,0,0,0,0,0,0,0,0,0,0,0,0,0,0,0,0,0,0,0,0,0,0,0,0,0,0,0,0,0,0,0,0,0,0,0,0,0,0,0,0,0,0,0,0,0,0,0,0,0,0,0,0,0,0,0,0,0,0,0,0,0,0,0,0,0,0,0,0,0,0,0,0,0,
0,0,0,0,0,0,0,0,0,0,0,0,0,0,0,0,0,0,0,0,0,0,0,0,0,0,0,0,0,0,0,0,0,0,0,0,0,0,0,0,0,0,0,0,0,0,0,0,0,0,0,0,0,0,0,0,0,0,0,0,0,0,0,0,0,0,0,0,0,0,0,0,0,0,0,0,0,0,0,0,
0,0,0,0,0,0,0,0,0,0,0,0,0,0,0,0,0,0,0,0,0,0,0,0,0,0,0,0,0,0,0,0,0,0,0,0,0,0,0,0,0,0,0,0,0,0,0,0,0,0,0,0,0,0,0,0,0,0,0,0,0,0,0,0,0,0,0,0,0,0,0,0,0,0,0,0,0,0,0,0,
0,0,0,0,0,0,0,0,0,0,0,0,0,0,0,0,0,0,0,0,0,0,0,0,0,0,0,0,0,0,0,0,0,0,0,0,0,0,0,0,0,0,0,0,0,0,0,0,0,0,0,0,0,0,0,0,0,0,0,0,0,0,0,0,0,0,0,0,0,0,0,0,0,0,0,0,0,0,0,0,
0,0,0,0,0,0,0,0,0,0,0,0,0,0,0,0,0,0,0,0,0,0,0,0,0,0,0,0,0,0,0,0,0,0,0,0,0,0,0,0,0,0,0,0,0,0,0,0,0,0,0,0,0,0,0,0,0,0,0,0,0,0,0,0,0,0,0,0,0,0,0,0,0,0,0,0,0,0,0,0,
0,0,0,0,0,0,0,0,0,0,0,0,0,0,0,0,0,0,0,0,0,0,0,0,0,0,0,0,0,0,0,0,0,0,0,0,0,0,0,0,0,0,0,0,0,0,0,0,0,0,0,0,0,0,0,0,0,0,0,0,0,0,0,0,0,0,0,0,0,0,0,0,0,0,0,0,0,0,0,0,
0,0,0,0,0,0,0,0,0,0,0,0,0,0,0,0,0,0,0,0,0,0,0,0,0,0,0,0,0,0,0,0,0,0,0,0,0,0,0,0,0,0,0,0,0,0,0,0,0,0,0,0,0,0,0,0,0,0,0,0,0,0,0,0,0,0,0,0,0,0,0,0,0,0,0,0,0,0,0,0,
0,0,0,0,0,0,0,0,0,0,0,0,0,0,0,0,0,0,0,0,0,0,0,0,0,0,0,0,0,0,0,0,0,0,0,0,0,0,0,0,0,0,0,0,0,0,0,0,0,0,0,0,0,0,0,0,0,0,0,0,0,0,0,0,0,0,0,0,0,0,0,0,0,0,0,0,0,0,0,0,
0,0,0,0,0,0,0,0,0,0,0,0,0,0,0,0,0,0,0,0,0,0,0,0,0,0,0,0,0,0,0,0,0,0,0,0,0,0,0,0,0,0,0,0,0,0,0,0,0,0,0,0,0,0,0,0,0,0,0,0,0,0,0,0,0,0,0,0,0,0,0,0,0,0,0,0,0,0,0,0,
0,0,0,0,0,0,0,0,0,0,0,0,0,0,0,0,0,0,0,0,0,0,0,0,0,0,0,0,0,0,0,0,0,0,0,0,0,0,0,0,0,0,0,0,0,0,0,0,0,0,0,0,0,0,0,0,0,0,0,0,0,0,0,0,0,0,0,0,0,0,0,0,0,0,0,0,0,0,0,0,
0,0,0,0,0,0,0,0,0,0,0,0,0,0,0,0,0,0,0,0,0,0,0,0,0,0,0,0,0,0,0,0,0,0,0,0,0,0,0,0,0,0,0,0,0,0,0,0,0,0,0,0,0,0,0,0,0,0,0,0,0,0,0,0,0,0,0,0,0,0,0,0,0,0,0,0,0,0,0,0,
0,0,0,0,0,0,0,0,0,0,0,0,0,0,0,0,0,0,0,0,0,0,0,0,0,0,0,0,0,0,0,0,0,0,0,0,0,0,0,0,0,0,0,0,0,0,0,0,0,0,0,0,0,0,0,0,0,0,0,0,0,0,0,0,0,0,0,0,0,0,0,0,0,0,0,0,0,0,0,0,
0,0,0,0,0,0,0,0,0,0,0,0,0,0,0,0,0,0,0,0,0,0,0,0,0,0,0,0,0,0,0,0,0,0,0,0,0,0,0,0,0,0,0,0,0,0,0,0,0,0,0,0,0,0,0,0,0,0,0,0,0,0,0,0,0,0,0,0,0,0,0,0,0,0,0,0,0,0,0,0
</data>
 </layer>
 <layer id="5" name="AlwaysFront" width="80" height="45">
  <data encoding="csv">
0,0,0,0,0,0,0,1011,1132,1131,1130,536871918,1081,0,0,0,0,0,0,0,0,0,0,1011,1132,1131,1130,536871918,1081,0,0,0,0,0,0,0,0,0,0,1011,1132,1131,1130,536871918,1081,0,0,0,7448,7449,7450,0,0,7453,1073742883,1073742957,0,7456,7457,7458,0,0,7461,1073742883,1073742957,0,7464,7465,7466,0,0,7469,1073742883,1073742957,0,0,0,0,0,0,
0,0,0,0,0,0,0,1011,1011,1011,1036,1030,2147484757,1082,0,0,0,0,0,0,0,0,0,1011,1011,1011,1036,1030,2147484757,1082,0,0,0,0,0,0,0,0,0,1011,1011,1011,1036,1030,2147484757,1082,0,0,7472,0,0,0,0,0,1058,1032,0,7480,0,0,0,0,0,1058,1032,0,7488,0,0,0,0,0,1058,1032,0,0,0,0,0,0,
0,0,0,0,0,0,0,0,0,1011,1061,1009,2684355694,1056,0,0,0,0,0,0,0,0,0,0,0,1011,1061,1009,2684355694,1056,0,0,0,0,0,0,0,0,0,0,0,1011,1061,1009,2684355694,1056,0,0,0,0,0,0,0,0,0,0,0,0,0,0,0,0,0,0,0,0,0,0,0,0,0,0,0,0,0,0,0,0,0,0,
0,0,0,0,0,0,0,0,0,1011,1073742854,1031,1033,1057,0,0,0,0,0,0,0,0,0,0,0,1011,1073742854,1031,1033,1057,0,0,0,0,0,0,0,0,0,0,0,1011,1073742854,1031,1033,1057,0,0,0,0,0,0,0,0,0,0,0,0,0,0,0,0,0,0,0,0,0,0,0,0,0,0,0,0,0,0,0,0,0,0,
0,0,0,0,0,0,7762,7833,1084,1006,1055,1081,0,0,0,0,0,0,0,0,0,0,7762,7833,1084,1006,1055,1081,0,0,0,0,0,0,0,0,0,0,7762,7833,1084,1006,1055,1081,0,0,0,0,0,0,0,0,0,0,0,0,0,0,0,0,0,0,0,0,0,0,0,0,0,0,0,0,0,0,0,0,0,0,0,0,
0,0,0,0,0,0,0,0,1058,2147484679,1007,1056,0,0,0,0,0,0,0,0,0,0,0,0,1058,2147484679,1007,1056,0,0,0,0,0,0,0,0,0,0,0,0,1058,2147484679,1007,1056,0,0,0,0,0,0,0,0,0,0,0,0,0,0,0,0,0,0,0,0,0,0,0,0,0,0,0,0,0,0,0,0,0,0,0,0,
0,0,0,0,0,0,0,0,0,1058,1032,1057,0,0,0,0,0,0,0,0,0,0,0,0,0,1058,1032,1057,0,0,0,0,0,0,0,0,0,0,0,0,0,1058,1032,1057,0,0,0,0,0,0,0,0,0,0,0,0,0,0,0,0,0,0,0,0,0,0,0,0,0,0,0,0,0,0,0,0,0,0,0,0,
0,0,0,0,0,0,0,0,0,0,0,0,0,0,0,0,0,0,0,0,0,0,0,0,0,0,0,0,0,0,0,0,0,0,0,0,0,0,0,0,0,0,0,0,0,0,0,0,0,0,0,0,0,0,0,0,0,0,0,0,0,0,0,0,0,0,0,0,0,0,0,0,0,0,0,0,0,0,0,0,
0,0,0,0,0,0,0,0,0,0,0,0,0,0,0,0,0,0,0,0,0,0,0,0,0,0,0,0,0,0,0,0,0,0,0,0,0,0,0,0,0,0,0,0,0,0,0,0,0,0,0,0,0,0,0,0,0,0,0,0,0,0,0,0,0,0,0,0,0,0,0,0,0,0,0,0,0,0,0,0,
0,0,0,0,0,0,0,0,0,0,0,0,0,0,0,0,0,0,0,0,0,0,0,0,0,0,0,0,0,0,0,0,0,0,0,0,0,0,0,0,0,0,0,0,0,0,0,0,0,0,0,0,0,0,0,0,0,0,0,0,0,0,0,0,0,0,0,0,0,0,0,0,0,0,0,0,0,0,0,0,
0,0,0,0,0,0,0,0,0,0,0,0,0,0,0,0,0,0,0,0,0,0,0,0,0,0,0,0,0,0,0,0,0,0,0,0,0,0,0,0,0,0,0,0,0,0,0,0,0,0,0,0,0,0,0,0,0,0,0,0,0,0,0,0,0,0,0,0,0,0,0,0,0,0,0,0,0,0,0,0,
0,0,0,0,0,0,0,0,0,0,0,0,0,0,0,0,0,0,0,0,0,0,0,0,0,0,0,0,0,0,0,0,0,0,0,0,0,0,0,0,0,0,0,0,0,0,0,0,0,0,0,0,0,0,0,0,0,0,0,0,0,0,0,0,0,0,0,0,0,0,0,0,0,0,0,0,0,0,0,0,
0,0,0,0,0,0,0,0,0,0,0,0,0,0,0,0,0,0,0,0,0,0,0,0,0,0,0,0,0,0,0,0,0,0,0,0,0,0,0,0,0,0,0,0,0,0,0,0,0,0,0,0,0,0,0,0,0,0,0,0,0,0,0,0,0,0,0,0,0,0,0,0,0,0,0,0,0,0,0,0,
0,0,0,0,0,0,0,0,0,0,0,7832,0,0,0,0,0,0,0,0,0,0,0,0,0,0,7832,0,0,0,0,0,0,0,0,0,0,0,0,0,0,7832,0,0,0,0,0,0,0,0,0,0,0,0,0,0,0,0,0,0,0,0,0,0,0,0,0,0,0,0,0,0,0,0,0,0,0,0,0,0,
0,0,0,0,0,0,0,0,0,0,0,1011,1011,0,0,0,0,0,0,0,0,0,0,0,0,0,1011,1011,0,0,0,0,0,0,0,0,0,0,0,0,0,1011,1011,0,0,0,0,0,0,0,0,0,0,0,0,0,0,0,0,0,0,0,0,0,0,0,0,0,0,0,0,0,0,0,0,0,0,0,0,0,
0,0,0,0,0,0,0,0,0,0,0,1610613797,3758097519,1011,0,0,0,0,0,0,0,0,0,0,0,0,1610613797,3758097519,1011,0,0,0,0,0,0,0,0,0,0,0,0,1610613797,3758097519,1011,0,0,0,0,0,0,0,0,0,0,0,0,0,0,0,0,0,0,0,0,0,0,0,0,0,0,0,0,0,0,0,0,0,0,0,0,
0,0,0,0,0,0,0,0,0,0,0,1011,1130,1135,0,0,0,0,0,0,0,0,0,0,0,0,1011,1130,1135,0,0,0,0,0,0,0,0,0,0,0,0,1011,1130,1135,0,0,0,0,0,0,0,0,0,0,0,0,0,0,0,0,0,0,0,0,0,0,0,0,0,0,0,0,0,0,0,0,0,0,0,0,
0,0,0,0,0,0,0,0,0,0,7787,0,0,0,0,0,0,0,0,0,0,0,0,0,0,7787,0,0,0,0,0,0,0,0,0,0,0,0,0,0,7787,0,0,0,0,0,0,0,0,0,0,0,0,0,0,0,0,0,0,0,0,0,0,0,0,0,0,0,0,0,0,0,0,0,0,0,0,0,2147484730,2147484755,
0,0,0,0,0,0,0,0,0,0,7780,7763,0,0,0,0,0,0,0,0,0,0,0,0,0,7780,7763,0,0,0,0,0,0,0,0,0,0,0,0,0,7780,7763,0,0,0,0,0,0,0,0,0,0,0,0,0,0,0,0,0,0,0,0,0,0,0,0,0,0,0,0,0,0,0,0,0,0,0,0,3221226528,2147484730,
0,0,0,0,0,0,0,0,0,0,0,0,0,0,0,0,0,0,0,0,0,0,0,0,0,0,0,0,0,0,0,0,0,0,0,0,0,0,0,0,0,0,0,0,0,0,0,0,0,0,0,0,0,0,0,0,0,0,0,0,0,0,0,0,0,0,0,0,0,0,0,0,0,0,0,2147484730,1107,1108,1109,1073742908,
0,0,0,0,0,0,0,0,0,0,0,0,0,0,0,0,0,0,0,0,0,0,0,0,0,0,0,0,0,0,0,0,0,0,0,0,0,0,0,0,0,0,0,0,0,0,0,0,0,0,0,0,0,0,0,0,0,0,0,0,0,0,0,0,0,0,0,0,0,0,0,0,0,0,0,1073742883,2147484730,2147484755,1108,2147484754,
0,0,0,0,0,0,0,0,0,0,0,0,0,0,0,0,0,0,0,0,0,0,0,0,0,0,0,0,0,0,0,0,0,0,0,0,0,0,0,0,0,0,0,0,0,0,0,0,0,0,0,0,0,0,0,0,0,0,0,0,0,0,0,0,0,0,0,0,0,0,0,0,0,2147484730,1108,1109,1059,1031,1033,2147484681,
0,0,0,0,0,0,0,0,0,0,0,0,0,0,0,0,0,0,0,0,0,0,0,0,0,0,0,0,0,0,0,0,0,0,0,0,0,0,0,0,0,0,0,0,0,0,0,0,0,0,0,0,0,0,0,0,0,0,0,0,0,0,0,0,0,0,0,0,0,0,0,0,2147484730,1109,1073742884,1131,1058,2147484706,1031,2147484681,
0,0,0,0,0,0,0,0,0,0,0,0,0,0,0,0,0,0,0,0,0,0,0,0,0,0,0,0,0,0,0,0,0,0,0,0,0,0,0,0,0,0,0,0,0,0,0,0,0,0,0,0,0,0,0,0,0,0,0,0,0,0,0,0,0,0,0,0,0,0,0,0,1058,3221226579,2147484679,2147484654,1031,1032,2147484706,2147484730,
0,0,0,0,0,0,0,0,0,0,0,0,0,0,0,0,0,0,0,0,0,0,0,0,0,0,0,0,0,0,0,0,0,0,0,0,0,0,0,0,0,0,0,0,0,1107,1082,0,0,0,0,0,0,0,0,0,0,0,0,0,0,0,0,0,0,0,0,0,0,6059,1083,2147484755,1108,1082,1073742908,1033,2147484706,7761,2147484730,1109,
0,0,0,0,0,0,0,0,0,0,0,0,0,0,0,0,0,0,0,0,0,0,0,0,0,0,0,0,0,0,0,0,0,0,0,0,0,0,0,0,0,0,0,0,0,1134,2147484757,1082,0,0,0,0,0,0,0,0,0,0,0,0,0,0,0,0,0,0,0,0,1083,1108,2147484754,1133,2147484781,1073742880,2147484705,2147484680,2147484679,2147491481,3221226528,536872045,
0,0,0,0,0,0,0,0,0,0,0,0,0,0,0,0,0,0,0,0,0,0,0,0,0,0,0,0,0,0,0,0,0,0,0,0,0,0,0,0,0,0,0,0,0,1073742885,536871918,1056,0,0,0,0,0,0,0,0,0,0,0,0,0,0,0,0,0,0,0,0,1073742883,7808,1083,1107,2147484755,1108,1082,2147484730,2147484756,1108,1109,1031,
0,0,0,0,0,0,0,0,0,0,0,0,0,0,0,0,0,0,0,0,0,0,0,0,0,0,0,0,0,0,0,0,0,0,0,0,0,0,0,0,0,0,0,0,0,1610613821,1030,1081,0,1073742882,1073742881,0,0,0,0,0,0,0,0,0,0,0,0,0,0,0,1083,1108,1109,7786,1059,1610613816,1610613791,1610613743,1056,1084,1083,1107,1082,2147484707,
0,0,0,0,0,0,0,0,0,0,0,0,0,0,0,0,0,0,0,0,0,0,0,0,0,0,0,0,0,0,0,0,0,0,0,0,0,0,0,0,0,0,0,0,0,2147484779,1009,2147484757,1082,1073742883,1073742855,1073742881,1073742882,3221226505,1073742856,1073742881,0,0,0,1073742882,2147484755,1108,1073742881,2147483722,2147483721,0,1058,1610613845,7808,1083,1109,1073742934,1073742854,1031,1057,1109,1058,1033,1057,2147484732,
0,0,0,0,0,0,0,0,0,0,0,0,0,0,0,0,0,0,0,0,0,0,0,0,0,0,0,0,0,0,0,0,0,0,0,0,0,0,0,0,0,0,0,0,0,1073742854,1031,1610613845,1106,3221226503,1035,1073742855,3221226503,1035,2147484683,1056,0,0,1073742882,3221226503,1035,2147484683,1073742880,0,0,0,0,1058,7786,1084,1610613816,2147484684,1055,1073742905,1059,3221226581,2147484681,2147484680,2684355591,2147484757,
1010,1036,1073742854,1056,85,0,0,0,0,0,0,0,0,0,0,0,0,0,0,0,153,0,0,0,0,0,0,0,0,0,0,0,0,0,0,0,0,0,0,0,0,0,0,0,0,0,0,0,0,0,0,0,0,0,0,0,0,0,0,0,0,0,0,0,0,0,0,0,0,0,0,0,0,0,0,0,0,0,0,0,
1006,1008,1055,1081,0,0,0,0,0,0,0,0,0,0,0,0,0,0,0,0,0,0,0,0,0,0,0,0,0,0,0,0,0,0,0,0,0,0,0,0,0,0,0,0,0,0,0,0,0,0,0,0,0,0,0,0,0,0,0,0,0,0,0,0,0,0,0,0,0,0,0,0,0,0,0,0,0,0,0,0,
1033,1034,1007,1106,1107,1108,1082,0,0,0,0,0,0,0,0,0,0,0,0,0,0,0,0,0,0,0,0,0,0,0,0,0,0,0,0,0,0,0,0,0,0,0,0,0,0,0,0,0,0,0,0,0,0,0,0,0,0,0,0,0,0,0,0,0,0,0,0,0,0,0,0,0,0,0,0,0,0,0,0,0,
1083,1108,1082,1131,1132,1133,1106,1107,1108,1108,1082,0,0,111,0,0,0,0,0,0,0,0,0,0,0,0,0,0,0,0,0,0,0,0,0,0,0,0,0,0,0,0,0,0,0,0,0,0,0,0,0,0,0,0,0,0,0,0,0,0,0,0,0,0,0,0,0,0,0,0,0,0,0,0,0,0,0,0,0,0,
1059,1134,1106,1107,1082,2684355618,536871996,2684355643,1610613791,1133,1106,1082,0,136,0,0,0,0,0,0,0,0,1083,1108,1107,1108,0,0,0,0,0,0,0,0,0,0,0,0,0,0,0,0,0,0,0,0,0,0,0,0,0,0,0,0,0,0,0,0,0,0,0,0,0,0,0,0,0,0,0,0,0,0,0,0,0,0,0,0,0,0,
1073742883,3221226606,1031,3221226579,2684355618,2684355594,1610613870,2684355669,2684355619,536871971,2684355643,1610613767,1082,0,0,0,0,0,0,0,0,1083,1109,1083,1108,2684355619,0,0,0,0,0,0,0,0,0,0,0,0,0,0,0,0,0,0,0,0,0,0,0,0,0,0,0,0,0,0,0,0,0,0,0,0,0,0,0,0,0,0,0,0,0,0,0,0,0,0,0,0,0,0,
1058,1034,1073742905,7780,1084,2684355567,2684355666,2684355641,2684355591,1031,1057,2147484682,1083,1107,1082,0,0,0,0,0,0,536871994,1610613845,1058,1610613845,536871918,0,0,0,0,0,0,0,0,0,0,0,0,0,0,0,0,0,0,0,0,0,0,0,0,0,0,0,0,0,0,0,0,0,0,0,0,0,0,0,0,0,0,0,0,0,0,0,0,0,0,0,0,0,0,
0,1058,2684355618,1610613842,2684355617,2684355591,2684355668,2684355618,3221226503,1081,2684355619,1108,1109,1134,1056,0,0,0,0,0,0,0,536872019,7786,536872019,1007,0,0,0,0,0,0,0,0,0,0,0,0,0,0,0,0,0,0,0,0,0,0,0,0,0,0,0,0,0,0,0,0,0,0,0,0,0,0,0,0,0,0,0,0,0,0,0,0,0,0,0,0,0,0,
0,2684355618,3758097415,2684355566,1083,1109,2684355669,1109,7808,3758097417,1073742929,2684355595,2147484682,1033,1057,0,0,0,0,0,0,7842,536871994,7777,1084,1031,0,0,0,0,0,0,0,0,0,0,0,0,0,0,0,0,0,0,0,0,0,0,0,0,0,0,0,0,0,0,0,0,0,0,0,0,0,0,0,0,0,0,0,0,0,0,0,0,0,0,0,0,0,0,
0,2684355593,2684355566,3221233276,2684355592,536871919,3758097391,1133,2684355618,2684355594,2684355568,1055,2684355668,0,0,0,0,0,0,0,0,0,0,536872020,536871994,1057,0,0,0,0,0,0,0,0,0,0,0,0,0,0,0,0,0,0,0,0,0,0,0,0,0,0,0,0,0,0,0,0,0,0,0,0,0,0,0,0,0,0,0,0,0,0,0,0,0,0,0,0,0,0,
0,2684355617,2684355591,7780,2684355617,1033,2684355591,2684362340,2684355592,1035,2684355621,3221226507,2684355667,0,0,0,0,0,0,0,0,0,0,536871994,1610613845,2147484682,0,0,0,0,0,0,0,0,0,0,0,0,0,0,0,0,0,0,0,0,0,0,0,0,0,0,0,0,0,0,0,0,0,0,0,0,0,0,0,0,0,0,0,0,0,0,0,0,0,0,0,0,0,0,
0,0,2684355617,2684355591,2684355665,2684355666,2684355593,7828,3758097416,3221226527,2684355692,536871943,2684355642,0,0,0,0,0,0,0,0,0,0,0,536872019,1610613767,0,0,0,0,0,0,0,0,0,0,0,0,0,0,0,0,0,0,0,0,0,0,0,0,0,0,0,0,0,0,0,0,0,0,0,0,0,0,0,0,0,0,0,0,0,0,0,0,0,0,0,0,0,0,
0,0,0,2684355617,2684355616,2684355642,1059,2147484682,2684355593,1073742859,3221226507,2684355667,0,0,0,0,0,0,0,0,0,0,0,0,536872020,3758097391,0,0,0,0,0,0,0,0,0,0,0,0,0,0,0,0,0,0,0,0,0,0,0,0,0,0,0,0,0,0,0,0,0,0,0,0,0,0,0,0,0,0,0,0,0,0,0,0,0,0,0,0,0,0,
0,0,0,0,0,2684362359,1058,2684355618,3221226503,3758097493,2684355641,2684355642,0,0,0,0,0,0,0,0,0,0,0,0,536871994,536871968,0,0,0,0,0,0,0,0,0,0,0,0,0,0,0,0,0,0,0,0,0,0,0,0,0,0,0,0,0,0,0,0,0,0,0,0,0,0,0,0,0,0,0,0,0,0,0,0,0,0,0,0,0,0,
0,0,0,0,0,0,7842,2684355617,1033,2684355642,0,0,0,0,0,0,0,0,0,0,0,0,0,2147483718,0,0,0,0,0,0,0,0,0,0,0,0,0,0,0,0,0,0,0,0,0,0,0,0,0,0,0,0,0,0,0,0,0,0,0,0,0,0,0,0,0,0,0,0,0,0,0,0,0,0,0,0,0,0,0,0
</data>
 </layer>
 <layer id="12" name="AlwaysFront2" width="80" height="45">
  <data encoding="csv">
0,1073742908,2147484781,2147484757,1109,1073742934,1055,0,0,0,0,0,0,0,0,0,0,1073742908,2147484781,2147484757,1109,1073742934,1055,0,0,0,0,0,0,0,0,0,0,1073742908,2147484781,2147484757,1109,1073742934,1055,0,0,0,0,0,0,0,0,0,0,0,0,0,0,0,0,0,0,0,0,0,0,0,0,0,0,0,0,0,0,0,0,0,0,0,0,0,0,0,0,0,
2147484755,1109,1073742934,1132,1131,1011,1030,0,0,0,0,0,0,0,0,0,2147484755,1109,1073742934,1132,1131,1011,1030,0,0,0,0,0,0,0,0,0,2147484755,1109,1073742934,1132,1131,1011,1030,0,0,0,0,0,0,0,0,0,0,0,0,0,0,0,0,0,0,0,0,0,0,0,0,0,0,0,0,0,0,0,0,0,0,0,0,0,0,0,0,0,
2684355645,1131,1135,1011,1011,0,1011,1132,2147484781,0,0,0,0,0,0,0,2684355645,1131,1135,1011,1011,0,1011,1132,2147484781,0,0,0,0,0,0,0,2684355645,1131,1135,1011,1011,0,1011,1132,2147484781,0,0,0,0,0,0,0,0,0,0,0,0,0,0,0,0,0,0,0,0,0,0,0,0,0,0,0,0,0,0,0,0,0,0,0,0,0,0,0,
1011,1036,1011,0,0,1011,1073742956,2684355615,2147484654,0,0,0,0,0,0,0,1011,1036,1011,0,0,1011,1073742956,2684355615,2147484654,0,0,0,0,0,0,0,1011,1036,1011,0,0,1011,1073742956,2684355615,2147484654,0,0,0,0,0,0,0,0,0,0,0,0,0,0,0,0,0,0,0,0,0,0,0,0,0,0,0,0,0,0,0,0,0,0,0,0,0,0,0,
1011,1011,1011,0,0,1073742854,1031,1033,1032,0,0,0,0,0,0,0,1011,1011,1011,0,0,1073742854,1031,1033,1032,0,0,0,0,0,0,0,1011,1011,1011,0,0,1073742854,1031,1033,1032,0,0,0,0,0,0,0,0,0,0,0,0,0,0,0,0,0,0,0,0,0,0,0,0,0,0,0,0,0,0,0,0,0,0,0,0,0,0,0,
0,1011,2147484709,1011,1011,1055,1081,0,0,0,0,0,0,0,0,0,0,1011,2147484709,1011,1011,1055,1081,0,0,0,0,0,0,0,0,0,0,1011,2147484709,1011,1011,1055,1081,0,0,0,0,0,0,0,0,0,0,0,0,0,0,0,0,0,0,0,0,0,0,0,0,0,0,0,0,0,0,0,0,0,0,0,0,0,0,0,0,0,
0,1011,1011,2684355570,1009,1006,1073742880,0,0,0,0,0,0,0,0,0,0,1011,1011,2684355570,1009,1006,1073742880,0,0,0,0,0,0,0,0,0,0,1011,1011,2684355570,1009,1006,1073742880,0,0,0,0,0,0,0,0,0,0,0,0,0,0,0,0,0,0,0,0,0,0,0,0,0,0,0,0,0,0,0,0,0,0,0,0,0,0,0,0,0,
0,0,1011,2684355640,1031,1032,1057,0,0,0,0,0,0,0,0,0,0,0,1011,2684355640,1031,1032,1057,0,0,0,0,0,0,0,0,0,0,0,1011,2684355640,1031,1032,1057,0,0,0,0,0,0,0,0,0,0,0,0,0,0,0,0,0,0,0,0,0,0,0,0,0,0,0,0,0,0,0,0,0,0,0,0,0,0,0,0,0,
1011,1610613746,1031,1032,1057,0,0,0,0,0,0,0,0,0,0,0,1011,1610613746,1031,1032,1057,0,0,0,0,0,0,0,0,0,0,0,1011,1610613746,1031,1032,1057,0,0,0,0,0,0,0,0,0,0,0,0,0,0,0,0,0,0,0,0,0,0,0,0,0,0,0,0,0,0,0,0,0,0,0,0,0,0,0,0,0,0,0,
1011,1055,1073742905,0,0,0,0,0,0,0,0,0,0,0,0,0,1011,1055,1073742905,0,0,0,0,0,0,0,0,0,0,0,0,0,1011,1055,1073742905,0,0,0,0,0,0,0,0,0,0,0,0,0,0,0,0,0,0,0,0,0,0,0,0,0,0,0,0,0,0,0,0,0,0,0,0,0,0,0,0,0,0,0,0,0,
1011,2684355640,1056,0,0,0,0,0,0,0,0,0,0,0,0,0,1011,2684355640,1056,0,0,0,0,0,0,0,0,0,0,0,0,0,1011,2684355640,1056,0,0,0,0,0,0,0,0,0,0,0,0,0,0,0,0,0,0,0,0,0,0,0,0,0,0,0,0,0,0,0,0,0,0,0,0,0,0,0,0,0,0,0,0,0,
1073742854,1031,1057,0,0,0,0,0,0,0,0,0,0,0,0,0,1073742854,1031,1057,0,0,0,0,0,0,0,0,0,0,0,0,0,1073742854,1031,1057,0,0,0,0,0,0,0,0,0,0,0,0,0,0,0,0,0,0,0,0,0,0,0,0,0,0,0,0,0,0,0,0,0,0,0,0,0,0,0,0,0,0,0,0,0,
0,0,0,0,0,0,0,0,0,0,0,0,0,0,0,0,0,0,0,0,0,0,0,0,0,0,0,0,0,0,0,0,0,0,0,0,0,0,0,0,0,0,0,0,0,0,0,0,0,0,0,0,0,0,0,0,0,0,0,0,0,0,0,0,0,0,0,0,0,0,0,0,0,0,0,0,0,0,0,0,
0,0,0,0,0,0,0,0,0,0,1073742883,2684355665,1085,2147484709,0,0,0,0,0,0,0,0,0,0,0,1073742883,2684355665,1085,2147484709,0,0,0,0,0,0,0,0,0,0,0,1073742883,2684355665,1085,2147484709,0,0,0,0,0,0,0,0,0,0,0,0,0,0,0,0,0,0,0,0,0,0,0,0,0,0,0,0,0,0,0,0,0,0,0,0,
0,0,0,0,0,0,0,0,0,1083,1109,7824,7825,1006,0,0,0,0,0,0,0,0,0,0,1083,1109,7824,7825,1006,0,0,0,0,0,0,0,0,0,0,1083,1109,7824,7825,1006,0,0,0,0,0,0,0,0,0,0,0,0,0,0,0,0,0,0,0,0,0,0,0,0,0,0,0,0,0,0,0,0,0,0,0,0,
0,0,0,0,0,0,0,0,0,1084,1134,7817,7827,7825,0,0,0,0,0,0,0,0,0,0,1084,1134,7817,7827,7825,0,0,0,0,0,0,0,0,0,0,1084,1134,7817,7827,7825,0,0,0,0,0,0,0,0,0,0,0,0,0,0,0,0,0,0,0,0,0,0,0,0,0,0,0,0,0,0,0,0,0,0,0,0,
0,0,0,0,0,0,0,0,0,1059,3221226606,1610620560,7841,2684362385,0,0,0,0,0,0,0,0,0,0,1059,3221226606,1610620560,7841,2684362385,0,0,0,0,0,0,0,0,0,0,1059,3221226606,1610620560,7841,2684362385,0,0,0,0,0,0,0,0,0,0,0,0,0,0,0,0,0,0,0,0,0,0,0,0,0,0,0,0,0,0,0,0,0,0,0,0,
0,0,0,0,0,0,0,0,0,1058,1034,1007,2684355690,1061,0,0,0,0,0,0,0,0,0,0,1058,1034,1007,2684355690,1061,0,0,0,0,0,0,0,0,0,0,1058,1034,1007,2684355690,1061,0,0,0,0,0,0,0,0,0,0,0,0,0,0,0,0,0,0,0,0,0,0,0,0,0,0,0,0,0,0,0,0,0,0,0,0,
0,0,0,0,0,0,0,0,0,0,1058,1032,2147484679,1110,0,0,0,0,0,0,0,0,0,0,0,1058,1032,2147484679,1110,0,0,0,0,0,0,0,0,0,0,0,1058,1032,2147484679,1110,0,0,0,0,0,0,0,0,0,0,0,0,0,0,0,0,0,0,0,0,0,0,0,0,0,0,0,0,0,0,0,0,0,0,0,0,
0,0,0,0,0,0,0,0,0,0,0,0,1059,1006,0,0,0,0,0,0,0,0,0,0,0,0,0,1059,1006,0,0,0,0,0,0,0,0,0,0,0,0,0,1059,1006,0,0,0,0,0,0,0,0,0,0,0,0,0,0,0,0,0,0,0,0,0,0,0,0,0,0,0,0,0,0,0,0,0,0,0,0,
0,0,0,0,0,0,0,0,0,0,0,0,1058,2147484679,0,0,0,0,0,0,0,0,0,0,0,0,0,1058,2147484679,0,0,0,0,0,0,0,0,0,0,0,0,0,1058,2147484679,0,0,0,0,0,0,0,0,0,0,0,0,0,0,0,0,0,0,0,0,0,0,0,0,0,0,0,0,0,0,0,0,0,0,0,0,
0,0,0,0,0,0,0,0,0,0,0,0,0,1058,0,0,0,0,0,0,0,0,0,0,0,0,0,0,1058,0,0,0,0,0,0,0,0,0,0,0,0,0,0,1058,0,0,0,0,0,0,0,0,0,0,0,0,0,0,0,0,0,0,0,0,0,0,0,0,0,0,0,0,0,0,0,0,0,0,0,0,
0,0,0,0,0,0,0,0,0,0,0,0,0,0,0,0,0,0,0,0,0,0,0,0,0,0,0,0,0,0,0,0,0,0,0,0,0,0,0,0,0,0,0,0,0,0,0,0,0,0,0,0,0,0,0,0,0,0,0,0,0,0,0,0,0,0,0,0,0,0,0,0,0,0,0,0,0,0,0,0,
0,0,0,0,0,0,0,0,0,0,0,0,0,0,0,0,0,0,0,0,0,0,0,0,0,0,0,0,0,0,0,0,0,0,0,0,0,0,0,0,0,0,0,0,0,0,0,0,0,0,0,0,0,0,0,0,0,0,0,0,0,0,0,0,0,0,0,0,0,0,0,0,0,0,0,0,0,0,0,0,
0,0,0,0,0,0,0,0,0,0,0,0,0,0,0,0,0,0,0,0,0,0,0,0,0,0,0,0,0,0,0,0,0,0,0,0,0,0,0,0,0,0,0,0,0,0,0,0,0,0,0,0,0,0,0,0,0,0,0,0,0,0,0,0,0,0,0,0,0,0,0,0,0,0,0,0,0,0,0,0,
0,0,0,0,0,0,0,0,0,0,0,0,0,0,0,0,0,0,0,0,0,0,0,0,0,0,0,0,0,0,0,0,0,0,0,0,0,0,0,0,0,0,0,0,0,0,0,0,0,0,0,0,0,0,0,0,0,0,0,0,0,0,0,0,0,0,0,0,0,0,0,0,0,0,0,0,0,0,0,0,
0,0,0,0,0,0,0,0,0,0,0,0,0,0,0,0,0,0,0,0,0,0,0,0,0,0,0,0,0,0,0,0,0,0,0,0,0,0,0,0,0,0,0,0,0,0,0,0,0,0,0,0,0,0,0,0,0,0,0,0,0,0,0,0,0,0,0,0,0,0,0,0,0,0,0,0,0,0,0,0,
0,0,0,0,0,0,0,0,0,0,0,0,0,0,0,0,0,0,0,0,0,0,0,0,0,0,0,0,0,0,0,0,0,0,0,0,0,0,0,0,0,0,0,0,0,0,0,0,0,0,0,0,0,0,0,0,0,0,0,0,0,0,0,0,0,0,0,0,0,0,0,0,0,0,0,0,0,0,0,0,
0,0,0,0,0,0,0,0,0,0,0,0,0,0,0,0,0,0,0,0,0,0,0,0,0,0,0,0,0,0,0,0,0,0,0,0,0,0,0,0,0,0,0,0,0,0,0,0,0,0,0,0,0,0,0,0,0,0,0,0,0,0,0,0,0,0,0,0,0,0,0,0,0,0,0,0,0,0,0,0,
0,0,0,0,0,0,0,0,0,0,0,0,0,0,0,0,0,0,0,0,0,0,0,0,0,0,0,0,0,0,0,0,0,0,0,0,0,0,0,0,0,0,0,0,0,0,0,0,0,0,0,0,0,0,0,0,0,0,0,0,0,0,0,0,0,0,0,0,0,0,0,0,0,0,0,0,0,0,0,0,
0,0,0,0,0,0,0,0,0,0,0,0,0,0,0,0,0,0,0,0,0,0,0,0,0,0,0,0,0,0,0,0,0,0,0,0,0,0,0,0,0,0,0,0,0,0,0,0,0,0,0,0,0,0,0,0,0,0,0,0,0,0,0,0,0,0,0,0,0,0,0,0,0,0,0,0,0,0,0,0,
0,0,0,0,0,0,0,0,0,0,0,0,0,0,0,0,0,0,0,0,0,0,0,0,0,0,0,0,0,0,0,0,0,0,0,0,0,0,0,0,0,0,0,0,0,0,0,0,0,0,0,0,0,0,0,0,0,0,0,0,0,0,0,0,0,0,0,0,0,0,0,0,0,0,0,0,0,0,0,0,
0,0,0,0,0,0,0,0,0,0,0,0,0,0,0,0,0,0,0,0,0,0,0,0,0,0,0,0,0,0,0,0,0,0,0,0,0,0,0,0,0,0,0,0,0,0,0,0,0,0,0,0,0,0,0,0,0,0,0,0,0,0,0,0,0,0,0,0,0,0,0,0,0,0,0,0,0,0,0,0,
0,0,0,0,0,0,0,0,0,0,0,0,0,0,0,0,0,0,0,0,0,0,0,0,0,0,0,0,0,0,0,0,0,0,0,0,0,0,0,0,0,0,0,0,0,0,0,0,0,0,0,0,0,0,0,0,0,0,0,0,0,0,0,0,0,0,0,0,0,0,0,0,0,0,0,0,0,0,0,0,
0,0,0,0,0,0,0,0,0,0,0,0,0,0,0,0,0,0,0,0,0,0,0,0,0,0,0,0,0,0,0,0,0,0,0,0,0,0,0,0,0,0,0,0,0,0,0,0,0,0,0,0,0,0,0,0,0,0,0,0,0,0,0,0,0,0,0,0,0,0,0,0,0,0,0,0,0,0,0,0,
0,0,0,0,0,0,0,0,0,0,0,0,0,0,0,0,0,0,0,0,0,0,0,0,0,0,0,0,0,0,0,0,0,0,0,0,0,0,0,0,0,0,0,0,0,0,0,0,0,0,0,0,0,0,0,0,0,0,0,0,0,0,0,0,0,0,0,0,0,0,0,0,0,0,0,0,0,0,0,0,
0,0,0,0,0,0,0,0,0,0,0,0,0,0,0,0,0,0,0,0,0,0,0,0,0,0,0,0,0,0,0,0,0,0,0,0,0,0,0,0,0,0,0,0,0,0,0,0,0,0,0,0,0,0,0,0,0,0,0,0,0,0,0,0,0,0,0,0,0,0,0,0,0,0,0,0,0,0,0,0,
0,0,0,0,0,0,0,0,0,0,0,0,0,0,0,0,0,0,0,0,0,0,0,0,0,0,0,0,0,0,0,0,0,0,0,0,0,0,0,0,0,0,0,0,0,0,0,0,0,0,0,0,0,0,0,0,0,0,0,0,0,0,0,0,0,0,0,0,0,0,0,0,0,0,0,0,0,0,0,0,
0,0,0,0,0,0,0,0,0,0,0,0,0,0,0,0,0,0,0,0,0,0,0,0,0,0,0,0,0,0,0,0,0,0,0,0,0,0,0,0,0,0,0,0,0,0,0,0,0,0,0,0,0,0,0,0,0,0,0,0,0,0,0,0,0,0,0,0,0,0,0,0,0,0,0,0,0,0,0,0,
0,0,0,0,0,0,0,0,0,0,0,0,0,0,0,0,0,0,0,0,0,0,0,0,0,0,0,0,0,0,0,0,0,0,0,0,0,0,0,0,0,0,0,0,0,0,0,0,0,0,0,0,0,0,0,0,0,0,0,0,0,0,0,0,0,0,0,0,0,0,0,0,0,0,0,0,0,0,0,0,
0,0,0,0,0,0,0,0,0,0,0,0,0,0,0,0,0,0,0,0,0,0,0,0,0,0,0,0,0,0,0,0,0,0,0,0,0,0,0,0,0,0,0,0,0,0,0,0,0,0,0,0,0,0,0,0,0,0,0,0,0,0,0,0,0,0,0,0,0,0,0,0,0,0,0,0,0,0,0,0,
0,0,0,0,0,0,0,0,0,0,0,0,0,0,0,0,0,0,0,0,0,0,0,0,0,0,0,0,0,0,0,0,0,0,0,0,0,0,0,0,0,0,0,0,0,0,0,0,0,0,0,0,0,0,0,0,0,0,0,0,0,0,0,0,0,0,0,0,0,0,0,0,0,0,0,0,0,0,0,0,
0,0,0,0,0,0,0,0,0,0,0,0,0,0,0,0,0,0,0,0,0,0,0,0,0,0,0,0,0,0,0,0,0,0,0,0,0,0,0,0,0,0,0,0,0,0,0,0,0,0,0,0,0,0,0,0,0,0,0,0,0,0,0,0,0,0,0,0,0,0,0,0,0,0,0,0,0,0,0,0,
0,0,0,0,0,0,0,0,0,0,0,0,0,0,0,0,0,0,0,0,0,0,0,0,0,0,0,0,0,0,0,0,0,0,0,0,0,0,0,0,0,0,0,0,0,0,0,0,0,0,0,0,0,0,0,0,0,0,0,0,0,0,0,0,0,0,0,0,0,0,0,0,0,0,0,0,0,0,0,0,
0,0,0,0,0,0,0,0,0,0,0,0,0,0,0,0,0,0,0,0,0,0,0,0,0,0,0,0,0,0,0,0,0,0,0,0,0,0,0,0,0,0,0,0,0,0,0,0,0,0,0,0,0,0,0,0,0,0,0,0,0,0,0,0,0,0,0,0,0,0,0,0,0,0,0,0,0,0,0,0
</data>
 </layer>
 <layer id="13" name="AlwaysFront3" width="80" height="45">
  <data encoding="csv">
0,0,0,0,0,7808,7809,7817,7784,7809,0,0,0,0,0,0,0,0,0,0,0,7808,7809,7817,7784,7809,0,0,0,0,0,0,0,0,0,0,0,7808,7809,7817,7784,7809,0,0,0,0,0,0,0,0,0,0,0,0,0,0,0,0,0,0,0,0,0,0,0,0,0,0,0,0,0,0,0,0,0,0,0,0,0,0,
0,0,0,0,7808,7785,7810,1610620560,3221233248,3221233236,0,0,0,0,0,0,0,0,0,0,7808,7785,7810,1610620560,3221233248,3221233236,0,0,0,0,0,0,0,0,0,0,7808,7785,7810,1610620560,3221233248,3221233236,0,0,0,0,0,0,0,0,0,0,0,0,0,0,0,0,0,0,0,0,0,0,0,0,0,0,0,0,0,0,0,0,0,0,0,0,0,0,
0,0,7808,7834,7785,0,7784,7809,0,7811,0,0,0,0,0,0,0,0,7808,7834,7785,0,7784,7809,0,7811,0,0,0,0,0,0,0,0,7808,7834,7785,0,7784,7809,0,7811,0,0,0,0,0,0,0,0,0,0,0,0,0,0,0,0,0,0,0,0,0,0,0,0,0,0,0,0,0,0,0,0,0,0,0,0,0,0,
7834,7834,7785,0,0,7765,7765,7810,0,7811,0,0,0,0,0,0,7834,7834,7785,0,0,7765,7765,7810,0,7811,0,0,0,0,0,0,7834,7834,7785,0,0,7765,7765,7810,0,7811,0,0,0,0,0,0,0,0,0,0,0,0,0,0,0,0,0,0,0,0,0,0,0,0,0,0,0,0,0,0,0,0,0,0,0,0,0,0,
7790,7840,7791,0,0,7760,0,0,0,2147491412,0,0,0,0,0,0,7790,7840,7791,0,0,7760,0,0,0,2147491412,0,0,0,0,0,0,7790,7840,7791,0,0,7760,0,0,0,2147491412,0,0,0,0,0,0,0,0,0,0,0,0,0,0,0,0,0,0,0,0,0,0,0,0,0,0,0,0,0,0,0,0,0,0,0,0,0,0,
0,7824,7803,7765,7765,7810,0,0,0,0,0,0,0,0,0,0,0,7824,7803,7765,7765,7810,0,0,0,0,0,0,0,0,0,0,0,7824,7803,7765,7765,7810,0,0,0,0,0,0,0,0,0,0,0,0,0,0,0,0,0,0,0,0,0,0,0,0,0,0,0,0,0,0,0,0,0,0,0,0,0,0,0,0,0,0,
0,7817,7848,1610620500,7762,7833,0,0,0,0,0,0,0,0,0,0,0,7817,7848,1610620500,7762,7833,0,0,0,0,0,0,0,0,0,0,0,7817,7848,1610620500,7762,7833,0,0,0,0,0,0,0,0,0,0,0,0,0,0,0,0,0,0,0,0,0,0,0,0,0,0,0,0,0,0,0,0,0,0,0,0,0,0,0,0,0,0,
0,0,7811,0,0,0,0,0,0,0,0,0,0,0,0,0,0,0,7811,0,0,0,0,0,0,0,0,0,0,0,0,0,0,0,7811,0,0,0,0,0,0,0,0,0,0,0,0,0,0,0,0,0,0,0,0,0,0,0,0,0,0,0,0,0,0,0,0,0,0,0,0,0,0,0,0,0,0,0,0,0,
7765,7848,7804,0,0,0,0,0,0,0,0,0,0,0,0,0,7765,7848,7804,0,0,0,0,0,0,0,0,0,0,0,0,0,7765,7848,7804,0,0,0,0,0,0,0,0,0,0,0,0,0,0,0,0,0,0,0,0,0,0,0,0,0,0,0,0,0,0,0,0,0,0,0,0,0,0,0,0,0,0,0,0,0,
7765,2147491412,0,0,0,0,0,0,0,0,0,0,0,0,0,0,7765,2147491412,0,0,0,0,0,0,0,0,0,0,0,0,0,0,7765,2147491412,0,0,0,0,0,0,0,0,0,0,0,0,0,0,0,0,0,0,0,0,0,0,0,0,0,0,0,0,0,0,0,0,0,0,0,0,0,0,0,0,0,0,0,0,0,0,
7760,7833,0,0,0,0,0,0,0,0,0,0,0,0,0,0,7760,7833,0,0,0,0,0,0,0,0,0,0,0,0,0,0,7760,7833,0,0,0,0,0,0,0,0,0,0,0,0,0,0,0,0,0,0,0,0,0,0,0,0,0,0,0,0,0,0,0,0,0,0,0,0,0,0,0,0,0,0,0,0,0,0,
0,0,0,0,0,0,0,0,0,0,0,0,0,0,0,0,0,0,0,0,0,0,0,0,0,0,0,0,0,0,0,0,0,0,0,0,0,0,0,0,0,0,0,0,0,0,0,0,0,0,0,0,0,0,0,0,0,0,0,0,0,0,0,0,0,0,0,0,0,0,0,0,0,0,0,0,0,0,0,0,
0,0,0,0,0,0,0,0,0,0,0,0,0,0,0,0,0,0,0,0,0,0,0,0,0,0,0,0,0,0,0,0,0,0,0,0,0,0,0,0,0,0,0,0,0,0,0,0,0,0,0,0,0,0,0,0,0,0,0,0,0,0,0,0,0,0,0,0,0,0,0,0,0,0,0,0,0,0,0,0,
0,0,0,0,0,0,0,0,0,0,0,7832,7761,0,0,0,0,0,0,0,0,0,0,0,0,0,7832,7761,0,0,0,0,0,0,0,0,0,0,0,0,0,7832,7761,0,0,0,0,0,0,0,0,0,0,0,0,0,0,0,0,0,0,0,0,0,0,0,0,0,0,0,0,0,0,0,0,0,0,0,0,0,
0,0,0,0,0,0,0,0,0,0,0,0,2147484679,7761,0,0,0,0,0,0,0,0,0,0,0,0,0,2147484679,7761,0,0,0,0,0,0,0,0,0,0,0,0,0,2147484679,7761,0,0,0,0,0,0,0,0,0,0,0,0,0,0,0,0,0,0,0,0,0,0,0,0,0,0,0,0,0,0,0,0,0,0,0,0,
0,0,0,0,0,0,0,0,0,0,0,0,0,1610613845,0,0,0,0,0,0,0,0,0,0,0,0,0,0,1610613845,0,0,0,0,0,0,0,0,0,0,0,0,0,0,1610613845,0,0,0,0,0,0,0,0,0,0,0,0,0,0,0,0,0,0,0,0,0,0,0,0,0,0,0,0,0,0,0,0,0,0,0,0,
0,0,0,0,0,0,0,0,0,0,0,0,0,0,0,0,0,0,0,0,0,0,0,0,0,0,0,0,0,0,0,0,0,0,0,0,0,0,0,0,0,0,0,0,0,0,0,0,0,0,0,0,0,0,0,0,0,0,0,0,0,0,0,0,0,0,0,0,0,0,0,0,0,0,0,0,0,0,0,0,
0,0,0,0,0,0,0,0,0,0,0,0,7765,7765,0,0,0,0,0,0,0,0,0,0,0,0,0,7765,7765,0,0,0,0,0,0,0,0,0,0,0,0,0,7765,7765,0,0,0,0,0,0,0,0,0,0,0,0,0,0,0,0,0,0,0,0,0,0,0,0,0,0,0,0,0,0,0,0,0,0,0,0,
0,0,0,0,0,0,0,0,0,0,0,0,1610620500,3758104148,0,0,0,0,0,0,0,0,0,0,0,0,0,1610620500,3758104148,0,0,0,0,0,0,0,0,0,0,0,0,0,1610620500,3758104148,0,0,0,0,0,0,0,0,0,0,0,0,0,0,0,0,0,0,0,0,0,0,0,0,0,0,0,0,0,0,0,0,0,0,0,0,
0,0,0,0,0,0,0,0,0,0,0,0,0,0,0,0,0,0,0,0,0,0,0,0,0,0,0,0,0,0,0,0,0,0,0,0,0,0,0,0,0,0,0,0,0,0,0,0,0,0,0,0,0,0,0,0,0,0,0,0,0,0,0,0,0,0,0,0,0,0,0,0,0,0,0,0,0,0,0,0,
0,0,0,0,0,0,0,0,0,0,0,0,0,0,0,0,0,0,0,0,0,0,0,0,0,0,0,0,0,0,0,0,0,0,0,0,0,0,0,0,0,0,0,0,0,0,0,0,0,0,0,0,0,0,0,0,0,0,0,0,0,0,0,0,0,0,0,0,0,0,0,0,0,0,0,0,0,0,0,0,
0,0,0,0,0,0,0,0,0,0,0,0,0,0,0,0,0,0,0,0,0,0,0,0,0,0,0,0,0,0,0,0,0,0,0,0,0,0,0,0,0,0,0,0,0,0,0,0,0,0,0,0,0,0,0,0,0,0,0,0,0,0,0,0,0,0,0,0,0,0,0,0,0,0,0,0,0,0,0,0,
0,0,0,0,0,0,0,0,0,0,0,0,0,0,0,0,0,0,0,0,0,0,0,0,0,0,0,0,0,0,0,0,0,0,0,0,0,0,0,0,0,0,0,0,0,0,0,0,0,0,0,0,0,0,0,0,0,0,0,0,0,0,0,0,0,0,0,0,0,0,0,0,0,0,0,0,0,0,0,0,
0,0,0,0,0,0,0,0,0,0,0,0,0,0,0,0,0,0,0,0,0,0,0,0,0,0,0,0,0,0,0,0,0,0,0,0,0,0,0,0,0,0,0,0,0,0,0,0,0,0,0,0,0,0,0,0,0,0,0,0,0,0,0,0,0,0,0,0,0,0,0,0,0,0,0,0,0,0,0,0,
0,0,0,0,0,0,0,0,0,0,0,0,0,0,0,0,0,0,0,0,0,0,0,0,0,0,0,0,0,0,0,0,0,0,0,0,0,0,0,0,0,0,0,0,0,0,0,0,0,0,0,0,0,0,0,0,0,0,0,0,0,0,0,0,0,0,0,0,0,0,0,0,0,0,0,0,0,0,0,0,
0,0,0,0,0,0,0,0,0,0,0,0,0,0,0,0,0,0,0,0,0,0,0,0,0,0,0,0,0,0,0,0,0,0,0,0,0,0,0,0,0,0,0,0,0,0,0,0,0,0,0,0,0,0,0,0,0,0,0,0,0,0,0,0,0,0,0,0,0,0,0,0,0,0,0,0,0,0,0,0,
0,0,0,0,0,0,0,0,0,0,0,0,0,0,0,0,0,0,0,0,0,0,0,0,0,0,0,0,0,0,0,0,0,0,0,0,0,0,0,0,0,0,0,0,0,0,0,0,0,0,0,0,0,0,0,0,0,0,0,0,0,0,0,0,0,0,0,0,0,0,0,0,0,0,0,0,0,0,0,0,
0,0,0,0,0,0,0,0,0,0,0,0,0,0,0,0,0,0,0,0,0,0,0,0,0,0,0,0,0,0,0,0,0,0,0,0,0,0,0,0,0,0,0,0,0,0,0,0,0,0,0,0,0,0,0,0,0,0,0,0,0,0,0,0,0,0,0,0,0,0,0,0,0,0,0,0,0,0,0,0,
0,0,0,0,0,0,0,0,0,0,0,0,0,0,0,0,0,0,0,0,0,0,0,0,0,0,0,0,0,0,0,0,0,0,0,0,0,0,0,0,0,0,0,0,0,0,0,0,0,0,0,0,0,0,0,0,0,0,0,0,0,0,0,0,0,0,0,0,0,0,0,0,0,0,0,0,0,0,0,0,
0,0,0,0,0,0,0,0,0,0,0,0,0,0,0,0,0,0,0,0,0,0,0,0,0,0,0,0,0,0,0,0,0,0,0,0,0,0,0,0,0,0,0,0,0,0,0,0,0,0,0,0,0,0,0,0,0,0,0,0,0,0,0,0,0,0,0,0,0,0,0,0,0,0,0,0,0,0,0,0,
0,0,0,0,0,0,0,0,0,0,0,0,0,0,0,0,0,0,0,0,0,0,0,0,0,0,0,0,0,0,0,0,0,0,0,0,0,0,0,0,0,0,0,0,0,0,0,0,0,0,0,0,0,0,0,0,0,0,0,0,0,0,0,0,0,0,0,0,0,0,0,0,0,0,0,0,0,0,0,0,
0,0,0,0,0,0,0,0,0,0,0,0,0,0,0,0,0,0,0,0,0,0,0,0,0,0,0,0,0,0,0,0,0,0,0,0,0,0,0,0,0,0,0,0,0,0,0,0,0,0,0,0,0,0,0,0,0,0,0,0,0,0,0,0,0,0,0,0,0,0,0,0,0,0,0,0,0,0,0,0,
0,0,0,0,0,0,0,0,0,0,0,0,0,0,0,0,0,0,0,0,0,0,0,0,0,0,0,0,0,0,0,0,0,0,0,0,0,0,0,0,0,0,0,0,0,0,0,0,0,0,0,0,0,0,0,0,0,0,0,0,0,0,0,0,0,0,0,0,0,0,0,0,0,0,0,0,0,0,0,0,
0,0,0,0,0,0,0,0,0,0,0,0,0,0,0,0,0,0,0,0,0,0,0,0,0,0,0,0,0,0,0,0,0,0,0,0,0,0,0,0,0,0,0,0,0,0,0,0,0,0,0,0,0,0,0,0,0,0,0,0,0,0,0,0,0,0,0,0,0,0,0,0,0,0,0,0,0,0,0,0,
0,0,0,0,0,0,0,0,0,0,0,0,0,0,0,0,0,0,0,0,0,0,0,0,0,0,0,0,0,0,0,0,0,0,0,0,0,0,0,0,0,0,0,0,0,0,0,0,0,0,0,0,0,0,0,0,0,0,0,0,0,0,0,0,0,0,0,0,0,0,0,0,0,0,0,0,0,0,0,0,
0,0,0,0,0,0,0,0,0,0,0,0,0,0,0,0,0,0,0,0,0,0,0,0,0,0,0,0,0,0,0,0,0,0,0,0,0,0,0,0,0,0,0,0,0,0,0,0,0,0,0,0,0,0,0,0,0,0,0,0,0,0,0,0,0,0,0,0,0,0,0,0,0,0,0,0,0,0,0,0,
0,0,0,0,0,0,0,0,0,0,0,0,0,0,0,0,0,0,0,0,0,0,0,0,0,0,0,0,0,0,0,0,0,0,0,0,0,0,0,0,0,0,0,0,0,0,0,0,0,0,0,0,0,0,0,0,0,0,0,0,0,0,0,0,0,0,0,0,0,0,0,0,0,0,0,0,0,0,0,0,
0,0,0,0,0,0,0,0,0,0,0,0,0,0,0,0,0,0,0,0,0,0,0,0,0,0,0,0,0,0,0,0,0,0,0,0,0,0,0,0,0,0,0,0,0,0,0,0,0,0,0,0,0,0,0,0,0,0,0,0,0,0,0,0,0,0,0,0,0,0,0,0,0,0,0,0,0,0,0,0,
0,0,0,0,0,0,0,0,0,0,0,0,0,0,0,0,0,0,0,0,0,0,0,0,0,0,0,0,0,0,0,0,0,0,0,0,0,0,0,0,0,0,0,0,0,0,0,0,0,0,0,0,0,0,0,0,0,0,0,0,0,0,0,0,0,0,0,0,0,0,0,0,0,0,0,0,0,0,0,0,
0,0,0,0,0,0,0,0,0,0,0,0,0,0,0,0,0,0,0,0,0,0,0,0,0,0,0,0,0,0,0,0,0,0,0,0,0,0,0,0,0,0,0,0,0,0,0,0,0,0,0,0,0,0,0,0,0,0,0,0,0,0,0,0,0,0,0,0,0,0,0,0,0,0,0,0,0,0,0,0,
0,0,0,0,0,0,0,0,0,0,0,0,0,0,0,0,0,0,0,0,0,0,0,0,0,0,0,0,0,0,0,0,0,0,0,0,0,0,0,0,0,0,0,0,0,0,0,0,0,0,0,0,0,0,0,0,0,0,0,0,0,0,0,0,0,0,0,0,0,0,0,0,0,0,0,0,0,0,0,0,
0,0,0,0,0,0,0,0,0,0,0,0,0,0,0,0,0,0,0,0,0,0,0,0,0,0,0,0,0,0,0,0,0,0,0,0,0,0,0,0,0,0,0,0,0,0,0,0,0,0,0,0,0,0,0,0,0,0,0,0,0,0,0,0,0,0,0,0,0,0,0,0,0,0,0,0,0,0,0,0,
0,0,0,0,0,0,0,0,0,0,0,0,0,0,0,0,0,0,0,0,0,0,0,0,0,0,0,0,0,0,0,0,0,0,0,0,0,0,0,0,0,0,0,0,0,0,0,0,0,0,0,0,0,0,0,0,0,0,0,0,0,0,0,0,0,0,0,0,0,0,0,0,0,0,0,0,0,0,0,0,
0,0,0,0,0,0,0,0,0,0,0,0,0,0,0,0,0,0,0,0,0,0,0,0,0,0,0,0,0,0,0,0,0,0,0,0,0,0,0,0,0,0,0,0,0,0,0,0,0,0,0,0,0,0,0,0,0,0,0,0,0,0,0,0,0,0,0,0,0,0,0,0,0,0,0,0,0,0,0,0,
0,0,0,0,0,0,0,0,0,0,0,0,0,0,0,0,0,0,0,0,0,0,0,0,0,0,0,0,0,0,0,0,0,0,0,0,0,0,0,0,0,0,0,0,0,0,0,0,0,0,0,0,0,0,0,0,0,0,0,0,0,0,0,0,0,0,0,0,0,0,0,0,0,0,0,0,0,0,0,0
</data>
 </layer>
 <layer id="14" name="AlwaysFront4" width="80" height="45">
  <data encoding="csv">
0,0,0,0,0,1083,1082,3758097493,1057,0,0,0,0,0,0,0,0,0,0,0,0,1083,1082,3758097493,1057,0,0,0,0,0,0,0,0,0,0,0,0,1083,1082,3758097493,1057,0,0,0,0,0,0,0,0,0,0,0,0,0,0,0,0,0,0,0,0,0,0,0,0,0,0,0,0,0,0,0,0,0,0,0,0,0,0,0,
0,0,0,0,1083,1109,1081,2147484757,1107,1082,0,0,0,0,0,0,0,0,0,0,1083,1109,1081,2147484757,1107,1082,0,0,0,0,0,0,0,0,0,0,1083,1109,1081,2147484757,1107,1082,0,0,0,0,0,0,0,0,0,0,0,0,0,0,0,0,0,0,0,0,0,0,0,0,0,0,0,0,0,0,0,0,0,0,0,0,0,0,
0,0,1083,1108,1109,1007,2147484757,1082,0,1073742905,0,0,0,0,0,0,0,0,1083,1108,1109,1007,2147484757,1082,0,1073742905,0,0,0,0,0,0,0,0,1083,1108,1109,1007,2147484757,1082,0,1073742905,0,0,0,0,0,0,0,0,0,0,0,0,0,0,0,0,0,0,0,0,0,0,0,0,0,0,0,0,0,0,0,0,0,0,0,0,0,0,
1082,0,1084,2684355566,3221226478,1031,1033,1057,0,1081,0,0,0,0,0,0,1082,0,1084,2684355566,3221226478,1031,1033,1057,0,1081,0,0,0,0,0,0,1082,0,1084,2684355566,3221226478,1031,1033,1057,0,1081,0,0,0,0,0,0,0,0,0,0,0,0,0,0,0,0,0,0,0,0,0,0,0,0,0,0,0,0,0,0,0,0,0,0,0,0,0,0,
2147484757,1082,1059,1006,1610613742,1081,0,0,0,1057,0,0,0,0,0,0,2147484757,1082,1059,1006,1610613742,1081,0,0,0,1057,0,0,0,0,0,0,2147484757,1082,1059,1006,1610613742,1081,0,0,0,1057,0,0,0,0,0,0,0,0,0,0,0,0,0,0,0,0,0,0,0,0,0,0,0,0,0,0,0,0,0,0,0,0,0,0,0,0,0,0,
536871918,1081,1058,2147484680,1033,1057,0,0,0,0,0,0,0,0,0,0,536871918,1081,1058,2147484680,1033,1057,0,0,0,0,0,0,0,0,0,0,536871918,1081,1058,2147484680,1033,1057,0,0,0,0,0,0,0,0,0,0,0,0,0,0,0,0,0,0,0,0,0,0,0,0,0,0,0,0,0,0,0,0,0,0,0,0,0,0,0,0,0,0,
1055,2147484757,1082,0,0,0,0,0,0,0,0,0,0,0,0,0,1055,2147484757,1082,0,0,0,0,0,0,0,0,0,0,0,0,0,1055,2147484757,1082,0,0,0,0,0,0,0,0,0,0,0,0,0,0,0,0,0,0,0,0,0,0,0,0,0,0,0,0,0,0,0,0,0,0,0,0,0,0,0,0,0,0,0,0,0,
1610613742,2684355694,1056,0,0,0,0,0,0,0,0,0,0,0,0,0,1610613742,2684355694,1056,0,0,0,0,0,0,0,0,0,0,0,0,0,1610613742,2684355694,1056,0,0,0,0,0,0,0,0,0,0,0,0,0,0,0,0,0,0,0,0,0,0,0,0,0,0,0,0,0,0,0,0,0,0,0,0,0,0,0,0,0,0,0,0,0,
1031,2147484681,1057,0,0,0,0,0,0,0,0,0,0,0,0,0,1031,2147484681,1057,0,0,0,0,0,0,0,0,0,0,0,0,0,1031,2147484681,1057,0,0,0,0,0,0,0,0,0,0,0,0,0,0,0,0,0,0,0,0,0,0,0,0,0,0,0,0,0,0,0,0,0,0,0,0,0,0,0,0,0,0,0,0,0,
1056,0,0,0,0,0,0,0,0,0,0,0,0,0,0,0,1056,0,0,0,0,0,0,0,0,0,0,0,0,0,0,0,1056,0,0,0,0,0,0,0,0,0,0,0,0,0,0,0,0,0,0,0,0,0,0,0,0,0,0,0,0,0,0,0,0,0,0,0,0,0,0,0,0,0,0,0,0,0,0,0,
1081,0,0,0,0,0,0,0,0,0,0,0,0,0,0,0,1081,0,0,0,0,0,0,0,0,0,0,0,0,0,0,0,1081,0,0,0,0,0,0,0,0,0,0,0,0,0,0,0,0,0,0,0,0,0,0,0,0,0,0,0,0,0,0,0,0,0,0,0,0,0,0,0,0,0,0,0,0,0,0,0,
1057,0,0,0,0,0,0,0,0,0,0,0,0,0,0,0,1057,0,0,0,0,0,0,0,0,0,0,0,0,0,0,0,1057,0,0,0,0,0,0,0,0,0,0,0,0,0,0,0,0,0,0,0,0,0,0,0,0,0,0,0,0,0,0,0,0,0,0,0,0,0,0,0,0,0,0,0,0,0,0,0,
0,0,0,0,0,0,0,0,0,0,0,0,0,0,0,0,0,0,0,0,0,0,0,0,0,0,0,0,0,0,0,0,0,0,0,0,0,0,0,0,0,0,0,0,0,0,0,0,0,0,0,0,0,0,0,0,0,0,0,0,0,0,0,0,0,0,0,0,0,0,0,0,0,0,0,0,0,0,0,0,
0,0,0,0,0,0,0,0,0,0,0,1058,2147484681,1034,0,0,0,0,0,0,0,0,0,0,0,0,1058,2147484681,1034,0,0,0,0,0,0,0,0,0,0,0,0,1058,2147484681,1034,0,0,0,0,0,0,0,0,0,0,0,0,0,0,0,0,0,0,0,0,0,0,0,0,0,0,0,0,0,0,0,0,0,0,0,0,
0,0,0,0,0,0,0,0,0,0,0,1031,7832,1058,0,0,0,0,0,0,0,0,0,0,0,0,1031,7832,1058,0,0,0,0,0,0,0,0,0,0,0,0,1031,7832,1058,0,0,0,0,0,0,0,0,0,0,0,0,0,0,0,0,0,0,0,0,0,0,0,0,0,0,0,0,0,0,0,0,0,0,0,0,
0,0,0,0,0,0,0,0,0,0,0,1081,1058,7832,0,0,0,0,0,0,0,0,0,0,0,0,1081,1058,7832,0,0,0,0,0,0,0,0,0,0,0,0,1081,1058,7832,0,0,0,0,0,0,0,0,0,0,0,0,0,0,0,0,0,0,0,0,0,0,0,0,0,0,0,0,0,0,0,0,0,0,0,0,
0,0,0,0,0,0,0,0,0,0,0,1106,1108,1109,0,0,0,0,0,0,0,0,0,0,0,0,1106,1108,1109,0,0,0,0,0,0,0,0,0,0,0,0,1106,1108,1109,0,0,0,0,0,0,0,0,0,0,0,0,0,0,0,0,0,0,0,0,0,0,0,0,0,0,0,0,0,0,0,0,0,0,0,0,
0,0,0,0,0,0,0,0,0,0,0,0,1031,2147484681,0,0,0,0,0,0,0,0,0,0,0,0,0,1031,2147484681,0,0,0,0,0,0,0,0,0,0,0,0,0,1031,2147484681,0,0,0,0,0,0,0,0,0,0,0,0,0,0,0,0,0,0,0,0,0,0,0,0,0,0,0,0,0,0,0,0,0,0,0,0,
0,0,0,0,0,0,0,0,0,0,0,0,1057,0,0,0,0,0,0,0,0,0,0,0,0,0,0,1057,0,0,0,0,0,0,0,0,0,0,0,0,0,0,1057,0,0,0,0,0,0,0,0,0,0,0,0,0,0,0,0,0,0,0,0,0,0,0,0,0,0,0,0,0,0,0,0,0,0,0,0,0,
0,0,0,0,0,0,0,0,0,0,0,0,0,0,0,0,0,0,0,0,0,0,0,0,0,0,0,0,0,0,0,0,0,0,0,0,0,0,0,0,0,0,0,0,0,0,0,0,0,0,0,0,0,0,0,0,0,0,0,0,0,0,0,0,0,0,0,0,0,0,0,0,0,0,0,0,0,0,0,0,
0,0,0,0,0,0,0,0,0,0,0,0,0,0,0,0,0,0,0,0,0,0,0,0,0,0,0,0,0,0,0,0,0,0,0,0,0,0,0,0,0,0,0,0,0,0,0,0,0,0,0,0,0,0,0,0,0,0,0,0,0,0,0,0,0,0,0,0,0,0,0,0,0,0,0,0,0,0,0,0,
0,0,0,0,0,0,0,0,0,0,0,0,0,0,0,0,0,0,0,0,0,0,0,0,0,0,0,0,0,0,0,0,0,0,0,0,0,0,0,0,0,0,0,0,0,0,0,0,0,0,0,0,0,0,0,0,0,0,0,0,0,0,0,0,0,0,0,0,0,0,0,0,0,0,0,0,0,0,0,0,
0,0,0,0,0,0,0,0,0,0,0,0,0,0,0,0,0,0,0,0,0,0,0,0,0,0,0,0,0,0,0,0,0,0,0,0,0,0,0,0,0,0,0,0,0,0,0,0,0,0,0,0,0,0,0,0,0,0,0,0,0,0,0,0,0,0,0,0,0,0,0,0,0,0,0,0,0,0,0,0,
0,0,0,0,0,0,0,0,0,0,0,0,0,0,0,0,0,0,0,0,0,0,0,0,0,0,0,0,0,0,0,0,0,0,0,0,0,0,0,0,0,0,0,0,0,0,0,0,0,0,0,0,0,0,0,0,0,0,0,0,0,0,0,0,0,0,0,0,0,0,0,0,0,0,0,0,0,0,0,0,
0,0,0,0,0,0,0,0,0,0,0,0,0,0,0,0,0,0,0,0,0,0,0,0,0,0,0,0,0,0,0,0,0,0,0,0,0,0,0,0,0,0,0,0,0,0,0,0,0,0,0,0,0,0,0,0,0,0,0,0,0,0,0,0,0,0,0,0,0,0,0,0,0,0,0,0,0,0,0,0,
0,0,0,0,0,0,0,0,0,0,0,0,0,0,0,0,0,0,0,0,0,0,0,0,0,0,0,0,0,0,0,0,0,0,0,0,0,0,0,0,0,0,0,0,0,0,0,0,0,0,0,0,0,0,0,0,0,0,0,0,0,0,0,0,0,0,0,0,0,0,0,0,0,0,0,0,0,0,0,0,
0,0,0,0,0,0,0,0,0,0,0,0,0,0,0,0,0,0,0,0,0,0,0,0,0,0,0,0,0,0,0,0,0,0,0,0,0,0,0,0,0,0,0,0,0,0,0,0,0,0,0,0,0,0,0,0,0,0,0,0,0,0,0,0,0,0,0,0,0,0,0,0,0,0,0,0,0,0,0,0,
0,0,0,0,0,0,0,0,0,0,0,0,0,0,0,0,0,0,0,0,0,0,0,0,0,0,0,0,0,0,0,0,0,0,0,0,0,0,0,0,0,0,0,0,0,0,0,0,0,0,0,0,0,0,0,0,0,0,0,0,0,0,0,0,0,0,0,0,0,0,0,0,0,0,0,0,0,0,0,0,
0,0,0,0,0,0,0,0,0,0,0,0,0,0,0,0,0,0,0,0,0,0,0,0,0,0,0,0,0,0,0,0,0,0,0,0,0,0,0,0,0,0,0,0,0,0,0,0,0,0,0,0,0,0,0,0,0,0,0,0,0,0,0,0,0,0,0,0,0,0,0,0,0,0,0,0,0,0,0,0,
0,0,0,0,0,0,0,0,0,0,0,0,0,0,0,0,0,0,0,0,0,0,0,0,0,0,0,0,0,0,0,0,0,0,0,0,0,0,0,0,0,0,0,0,0,0,0,0,0,0,0,0,0,0,0,0,0,0,0,0,0,0,0,0,0,0,0,0,0,0,0,0,0,0,0,0,0,0,0,0,
0,0,0,0,0,0,0,0,0,0,0,0,0,0,0,0,0,0,0,0,0,0,0,0,0,0,0,0,0,0,0,0,0,0,0,0,0,0,0,0,0,0,0,0,0,0,0,0,0,0,0,0,0,0,0,0,0,0,0,0,0,0,0,0,0,0,0,0,0,0,0,0,0,0,0,0,0,0,0,0,
0,0,0,0,0,0,0,0,0,0,0,0,0,0,0,0,0,0,0,0,0,0,0,0,0,0,0,0,0,0,0,0,0,0,0,0,0,0,0,0,0,0,0,0,0,0,0,0,0,0,0,0,0,0,0,0,0,0,0,0,0,0,0,0,0,0,0,0,0,0,0,0,0,0,0,0,0,0,0,0,
0,0,0,0,0,0,0,0,0,0,0,0,0,0,0,0,0,0,0,0,0,0,0,0,0,0,0,0,0,0,0,0,0,0,0,0,0,0,0,0,0,0,0,0,0,0,0,0,0,0,0,0,0,0,0,0,0,0,0,0,0,0,0,0,0,0,0,0,0,0,0,0,0,0,0,0,0,0,0,0,
0,0,0,0,0,0,0,0,0,0,0,0,0,0,0,0,0,0,0,0,0,0,0,0,0,0,0,0,0,0,0,0,0,0,0,0,0,0,0,0,0,0,0,0,0,0,0,0,0,0,0,0,0,0,0,0,0,0,0,0,0,0,0,0,0,0,0,0,0,0,0,0,0,0,0,0,0,0,0,0,
0,0,0,0,0,0,0,0,0,0,0,0,0,0,0,0,0,0,0,0,0,0,0,0,0,0,0,0,0,0,0,0,0,0,0,0,0,0,0,0,0,0,0,0,0,0,0,0,0,0,0,0,0,0,0,0,0,0,0,0,0,0,0,0,0,0,0,0,0,0,0,0,0,0,0,0,0,0,0,0,
0,0,0,0,0,0,0,0,0,0,0,0,0,0,0,0,0,0,0,0,0,0,0,0,0,0,0,0,0,0,0,0,0,0,0,0,0,0,0,0,0,0,0,0,0,0,0,0,0,0,0,0,0,0,0,0,0,0,0,0,0,0,0,0,0,0,0,0,0,0,0,0,0,0,0,0,0,0,0,0,
0,0,0,0,0,0,0,0,0,0,0,0,0,0,0,0,0,0,0,0,0,0,0,0,0,0,0,0,0,0,0,0,0,0,0,0,0,0,0,0,0,0,0,0,0,0,0,0,0,0,0,0,0,0,0,0,0,0,0,0,0,0,0,0,0,0,0,0,0,0,0,0,0,0,0,0,0,0,0,0,
0,0,0,0,0,0,0,0,0,0,0,0,0,0,0,0,0,0,0,0,0,0,0,0,0,0,0,0,0,0,0,0,0,0,0,0,0,0,0,0,0,0,0,0,0,0,0,0,0,0,0,0,0,0,0,0,0,0,0,0,0,0,0,0,0,0,0,0,0,0,0,0,0,0,0,0,0,0,0,0,
0,0,0,0,0,0,0,0,0,0,0,0,0,0,0,0,0,0,0,0,0,0,0,0,0,0,0,0,0,0,0,0,0,0,0,0,0,0,0,0,0,0,0,0,0,0,0,0,0,0,0,0,0,0,0,0,0,0,0,0,0,0,0,0,0,0,0,0,0,0,0,0,0,0,0,0,0,0,0,0,
0,0,0,0,0,0,0,0,0,0,0,0,0,0,0,0,0,0,0,0,0,0,0,0,0,0,0,0,0,0,0,0,0,0,0,0,0,0,0,0,0,0,0,0,0,0,0,0,0,0,0,0,0,0,0,0,0,0,0,0,0,0,0,0,0,0,0,0,0,0,0,0,0,0,0,0,0,0,0,0,
0,0,0,0,0,0,0,0,0,0,0,0,0,0,0,0,0,0,0,0,0,0,0,0,0,0,0,0,0,0,0,0,0,0,0,0,0,0,0,0,0,0,0,0,0,0,0,0,0,0,0,0,0,0,0,0,0,0,0,0,0,0,0,0,0,0,0,0,0,0,0,0,0,0,0,0,0,0,0,0,
0,0,0,0,0,0,0,0,0,0,0,0,0,0,0,0,0,0,0,0,0,0,0,0,0,0,0,0,0,0,0,0,0,0,0,0,0,0,0,0,0,0,0,0,0,0,0,0,0,0,0,0,0,0,0,0,0,0,0,0,0,0,0,0,0,0,0,0,0,0,0,0,0,0,0,0,0,0,0,0,
0,0,0,0,0,0,0,0,0,0,0,0,0,0,0,0,0,0,0,0,0,0,0,0,0,0,0,0,0,0,0,0,0,0,0,0,0,0,0,0,0,0,0,0,0,0,0,0,0,0,0,0,0,0,0,0,0,0,0,0,0,0,0,0,0,0,0,0,0,0,0,0,0,0,0,0,0,0,0,0,
0,0,0,0,0,0,0,0,0,0,0,0,0,0,0,0,0,0,0,0,0,0,0,0,0,0,0,0,0,0,0,0,0,0,0,0,0,0,0,0,0,0,0,0,0,0,0,0,0,0,0,0,0,0,0,0,0,0,0,0,0,0,0,0,0,0,0,0,0,0,0,0,0,0,0,0,0,0,0,0,
0,0,0,0,0,0,0,0,0,0,0,0,0,0,0,0,0,0,0,0,0,0,0,0,0,0,0,0,0,0,0,0,0,0,0,0,0,0,0,0,0,0,0,0,0,0,0,0,0,0,0,0,0,0,0,0,0,0,0,0,0,0,0,0,0,0,0,0,0,0,0,0,0,0,0,0,0,0,0,0
</data>
 </layer>
 <layer id="15" name="AlwaysFront5" width="80" height="45">
  <data encoding="csv">
0,0,0,0,0,0,0,0,0,0,0,0,0,0,0,0,0,0,0,0,0,0,0,0,0,0,0,0,0,0,0,0,0,0,0,0,0,0,0,0,0,0,0,0,0,0,0,0,0,0,0,0,0,0,0,0,0,0,0,0,0,0,0,0,0,0,0,0,0,0,0,0,0,0,0,0,0,0,0,0,
0,0,0,0,0,0,0,0,0,0,0,0,0,0,0,0,0,0,0,0,0,0,0,0,0,0,0,0,0,0,0,0,0,0,0,0,0,0,0,0,0,0,0,0,0,0,0,0,0,0,0,0,0,0,0,0,0,0,0,0,0,0,0,0,0,0,0,0,0,0,0,0,0,0,0,0,0,0,0,0,
0,0,0,0,0,0,0,0,0,0,0,0,0,0,0,0,0,0,0,0,0,0,0,0,0,0,0,0,0,0,0,0,0,0,0,0,0,0,0,0,0,0,0,0,0,0,0,0,0,0,0,0,0,0,0,0,0,0,0,0,0,0,0,0,0,0,0,0,0,0,0,0,0,0,0,0,0,0,0,0,
0,0,0,0,0,0,0,0,0,0,0,0,0,0,0,0,0,0,0,0,0,0,0,0,0,0,0,0,0,0,0,0,0,0,0,0,0,0,0,0,0,0,0,0,0,0,0,0,0,0,0,0,0,0,0,0,0,0,0,0,0,0,0,0,0,0,0,0,0,0,0,0,0,0,0,0,0,0,0,0,
0,0,0,0,0,0,0,0,0,0,0,0,0,0,0,0,0,0,0,0,0,0,0,0,0,0,0,0,0,0,0,0,0,0,0,0,0,0,0,0,0,0,0,0,0,0,0,0,0,0,0,0,0,0,0,0,0,0,0,0,0,0,0,0,0,0,0,0,0,0,0,0,0,0,0,0,0,0,0,0,
0,0,0,0,0,0,0,0,0,0,0,0,0,0,0,0,0,0,0,0,0,0,0,0,0,0,0,0,0,0,0,0,0,0,0,0,0,0,0,0,0,0,0,0,0,0,0,0,0,0,0,0,0,0,0,0,0,0,0,0,0,0,0,0,0,0,0,0,0,0,0,0,0,0,0,0,0,0,0,0,
0,0,0,0,0,0,0,0,0,0,0,0,0,0,0,0,0,0,0,0,0,0,0,0,0,0,0,0,0,0,0,0,0,0,0,0,0,0,0,0,0,0,0,0,0,0,0,0,0,0,0,0,0,0,0,0,0,0,0,0,0,0,0,0,0,0,0,0,0,0,0,0,0,0,0,0,0,0,0,0,
0,0,0,0,0,0,0,0,0,0,0,0,0,0,0,0,0,0,0,0,0,0,0,0,0,0,0,0,0,0,0,0,0,0,0,0,0,0,0,0,0,0,0,0,0,0,0,0,0,0,0,0,0,0,0,0,0,0,0,0,0,0,0,0,0,0,0,0,0,0,0,0,0,0,0,0,0,0,0,0,
0,0,0,0,0,0,0,0,0,0,0,0,0,0,0,0,0,0,0,0,0,0,0,0,0,0,0,0,0,0,0,0,0,0,0,0,0,0,0,0,0,0,0,0,0,0,0,0,0,0,0,0,0,0,0,0,0,0,0,0,0,0,0,0,0,0,0,0,0,0,0,0,0,0,0,0,0,0,0,0,
0,0,0,0,0,0,0,0,0,0,0,0,0,0,0,0,0,0,0,0,0,0,0,0,0,0,0,0,0,0,0,0,0,0,0,0,0,0,0,0,0,0,0,0,0,0,0,0,0,0,0,0,0,0,0,0,0,0,0,0,0,0,0,0,0,0,0,0,0,0,0,0,0,0,0,0,0,0,0,0,
0,0,0,0,0,0,0,0,0,0,0,0,0,0,0,0,0,0,0,0,0,0,0,0,0,0,0,0,0,0,0,0,0,0,0,0,0,0,0,0,0,0,0,0,0,0,0,0,0,0,0,0,0,0,0,0,0,0,0,0,0,0,0,0,0,0,0,0,0,0,0,0,0,0,0,0,0,0,0,0,
0,0,0,0,0,0,0,0,0,0,0,0,0,0,0,0,0,0,0,0,0,0,0,0,0,0,0,0,0,0,0,0,0,0,0,0,0,0,0,0,0,0,0,0,0,0,0,0,0,0,0,0,0,0,0,0,0,0,0,0,0,0,0,0,0,0,0,0,0,0,0,0,0,0,0,0,0,0,0,0,
0,0,0,0,0,0,0,0,0,0,0,0,0,0,0,0,0,0,0,0,0,0,0,0,0,0,0,0,0,0,0,0,0,0,0,0,0,0,0,0,0,0,0,0,0,0,0,0,0,0,0,0,0,0,0,0,0,0,0,0,0,0,0,0,0,0,0,0,0,0,0,0,0,0,0,0,0,0,0,0,
0,0,0,0,0,0,0,0,0,0,0,0,0,0,0,0,0,0,0,0,0,0,0,0,0,0,0,0,0,0,0,0,0,0,0,0,0,0,0,0,0,0,0,0,0,0,0,0,0,0,0,0,0,0,0,0,0,0,0,0,0,0,0,0,0,0,0,0,0,0,0,0,0,0,0,0,0,0,0,0,
0,0,0,0,0,0,0,0,0,0,0,0,0,0,0,0,0,0,0,0,0,0,0,0,0,0,0,0,0,0,0,0,0,0,0,0,0,0,0,0,0,0,0,0,0,0,0,0,0,0,0,0,0,0,0,0,0,0,0,0,0,0,0,0,0,0,0,0,0,0,0,0,0,0,0,0,0,0,0,0,
0,0,0,0,0,0,0,0,0,0,0,0,0,0,0,0,0,0,0,0,0,0,0,0,0,0,0,0,0,0,0,0,0,0,0,0,0,0,0,0,0,0,0,0,0,0,0,0,0,0,0,0,0,0,0,0,0,0,0,0,0,0,0,0,0,0,0,0,0,0,0,0,0,0,0,0,0,0,0,0,
0,0,0,0,0,0,0,0,0,0,0,0,0,0,0,0,0,0,0,0,0,0,0,0,0,0,0,0,0,0,0,0,0,0,0,0,0,0,0,0,0,0,0,0,0,0,0,0,0,0,0,0,0,0,0,0,0,0,0,0,0,0,0,0,0,0,0,0,0,0,0,0,0,0,0,0,0,0,0,0,
0,0,0,0,0,0,0,0,0,0,0,0,0,0,0,0,0,0,0,0,0,0,0,0,0,0,0,0,0,0,0,0,0,0,0,0,0,0,0,0,0,0,0,0,0,0,0,0,0,0,0,0,0,0,0,0,0,0,0,0,0,0,0,0,0,0,0,0,0,0,0,0,0,0,0,0,0,0,0,0,
0,0,0,0,0,0,0,0,0,0,0,0,0,0,0,0,0,0,0,0,0,0,0,0,0,0,0,0,0,0,0,0,0,0,0,0,0,0,0,0,0,0,0,0,0,0,0,0,0,0,0,0,0,0,0,0,0,0,0,0,0,0,0,0,0,0,0,0,0,0,0,0,0,0,0,0,0,0,0,0,
0,0,0,0,0,0,0,0,0,0,0,0,0,0,0,0,0,0,0,0,0,0,0,0,0,0,0,0,0,0,0,0,0,0,0,0,0,0,0,0,0,0,0,0,0,0,0,0,0,0,0,0,0,0,0,0,0,0,0,0,0,0,0,0,0,0,0,0,0,0,0,0,0,0,0,0,0,0,0,0,
0,0,0,0,0,0,0,0,0,0,0,0,0,0,0,0,0,0,0,0,0,0,0,0,0,0,0,0,0,0,0,0,0,0,0,0,0,0,0,0,0,0,0,0,0,0,0,0,0,0,0,0,0,0,0,0,0,0,0,0,0,0,0,0,0,0,0,0,0,0,0,0,0,0,0,0,0,0,0,0,
0,0,0,0,0,0,0,0,0,0,0,0,0,0,0,0,0,0,0,0,0,0,0,0,0,0,0,0,0,0,0,0,0,0,0,0,0,0,0,0,0,0,0,0,0,0,0,0,0,0,0,0,0,0,0,0,0,0,0,0,0,0,0,0,0,0,0,0,0,0,0,0,0,0,0,0,0,0,0,0,
0,0,0,0,0,0,0,0,0,0,0,0,0,0,0,0,0,0,0,0,0,0,0,0,0,0,0,0,0,0,0,0,0,0,0,0,0,0,0,0,0,0,0,0,0,0,0,0,0,0,0,0,0,0,0,0,0,0,0,0,0,0,0,0,0,0,0,0,0,0,0,0,0,0,0,0,0,0,0,0,
0,0,0,0,0,0,0,0,0,0,0,0,0,0,0,0,0,0,0,0,0,0,0,0,0,0,0,0,0,0,0,0,0,0,0,0,0,0,0,0,0,0,0,0,0,0,0,0,0,0,0,0,0,0,0,0,0,0,0,0,0,0,0,0,0,0,0,0,0,0,0,0,0,0,0,0,0,0,0,0,
0,0,0,0,0,0,0,0,0,0,0,0,0,0,0,0,0,0,0,0,0,0,0,0,0,0,0,0,0,0,0,0,0,0,0,0,0,0,0,0,0,0,0,0,0,0,0,0,0,0,0,0,0,0,0,0,0,0,0,0,0,0,0,0,0,0,0,0,0,0,0,0,0,0,0,0,0,0,0,0,
0,0,0,0,0,0,0,0,0,0,0,0,0,0,0,0,0,0,0,0,0,0,0,0,0,0,0,0,0,0,0,0,0,0,0,0,0,0,0,0,0,0,0,0,0,0,0,0,0,0,0,0,0,0,0,0,0,0,0,0,0,0,0,0,0,0,0,0,0,0,0,0,0,0,0,0,0,0,0,0,
0,0,0,0,0,0,0,0,0,0,0,0,0,0,0,0,0,0,0,0,0,0,0,0,0,0,0,0,0,0,0,0,0,0,0,0,0,0,0,0,0,0,0,0,0,0,0,0,0,0,0,0,0,0,0,0,0,0,0,0,0,0,0,0,0,0,0,0,0,0,0,0,0,0,0,0,0,0,0,0,
0,0,0,0,0,0,0,0,0,0,0,0,0,0,0,0,0,0,0,0,0,0,0,0,0,0,0,0,0,0,0,0,0,0,0,0,0,0,0,0,0,0,0,0,0,0,0,0,0,0,0,0,0,0,0,0,0,0,0,0,0,0,0,0,0,0,0,0,0,0,0,0,0,0,0,0,0,0,0,0,
0,0,0,0,0,0,0,0,0,0,0,0,0,0,0,0,0,0,0,0,0,0,0,0,0,0,0,0,0,0,0,0,0,0,0,0,0,0,0,0,0,0,0,0,0,0,0,0,0,0,0,0,0,0,0,0,0,0,0,0,0,0,0,0,0,0,0,0,0,0,0,0,0,0,0,0,0,0,0,0,
0,0,0,0,0,0,0,0,0,0,0,0,0,0,0,0,0,0,0,0,0,0,0,0,0,0,0,0,0,0,0,0,0,0,0,0,0,0,0,0,0,0,0,0,0,0,0,0,0,0,0,0,0,0,0,0,0,0,0,0,0,0,0,0,0,0,0,0,0,0,0,0,0,0,0,0,0,0,0,0,
0,0,0,0,0,0,0,0,0,0,0,0,0,0,0,0,0,0,0,0,0,0,0,0,0,0,0,0,0,0,0,0,0,0,0,0,0,0,0,0,0,0,0,0,0,0,0,0,0,0,0,0,0,0,0,0,0,0,0,0,0,0,0,0,0,0,0,0,0,0,0,0,0,0,0,0,0,0,0,0,
0,0,0,0,0,0,0,0,0,0,0,0,0,0,0,0,0,0,0,0,0,0,0,0,0,0,0,0,0,0,0,0,0,0,0,0,0,0,0,0,0,0,0,0,0,0,0,0,0,0,0,0,0,0,0,0,0,0,0,0,0,0,0,0,0,0,0,0,0,0,0,0,0,0,0,0,0,0,0,0,
0,0,0,0,0,0,0,0,0,0,0,0,0,0,0,0,0,0,0,0,0,0,0,0,0,0,0,0,0,0,0,0,0,0,0,0,0,0,0,0,0,0,0,0,0,0,0,0,0,0,0,0,0,0,0,0,0,0,0,0,0,0,0,0,0,0,0,0,0,0,0,0,0,0,0,0,0,0,0,0,
0,0,0,0,0,0,0,0,0,0,0,0,0,0,0,0,0,0,0,0,0,0,0,0,0,0,0,0,0,0,0,0,0,0,0,0,0,0,0,0,0,0,0,0,0,0,0,0,0,0,0,0,0,0,0,0,0,0,0,0,0,0,0,0,0,0,0,0,0,0,0,0,0,0,0,0,0,0,0,0,
0,0,0,0,0,0,0,0,0,0,0,0,0,0,0,0,0,0,0,0,0,0,0,0,0,0,0,0,0,0,0,0,0,0,0,0,0,0,0,0,0,0,0,0,0,0,0,0,0,0,0,0,0,0,0,0,0,0,0,0,0,0,0,0,0,0,0,0,0,0,0,0,0,0,0,0,0,0,0,0,
0,0,0,0,0,0,0,0,0,0,0,0,0,0,0,0,0,0,0,0,0,0,0,0,0,0,0,0,0,0,0,0,0,0,0,0,0,0,0,0,0,0,0,0,0,0,0,0,0,0,0,0,0,0,0,0,0,0,0,0,0,0,0,0,0,0,0,0,0,0,0,0,0,0,0,0,0,0,0,0,
0,0,0,0,0,0,0,0,0,0,0,0,0,0,0,0,0,0,0,0,0,0,0,0,0,0,0,0,0,0,0,0,0,0,0,0,0,0,0,0,0,0,0,0,0,0,0,0,0,0,0,0,0,0,0,0,0,0,0,0,0,0,0,0,0,0,0,0,0,0,0,0,0,0,0,0,0,0,0,0,
0,0,0,0,0,0,0,0,0,0,0,0,0,0,0,0,0,0,0,0,0,0,0,0,0,0,0,0,0,0,0,0,0,0,0,0,0,0,0,0,0,0,0,0,0,0,0,0,0,0,0,0,0,0,0,0,0,0,0,0,0,0,0,0,0,0,0,0,0,0,0,0,0,0,0,0,0,0,0,0,
0,0,0,0,0,0,0,0,0,0,0,0,0,0,0,0,0,0,0,0,0,0,0,0,0,0,0,0,0,0,0,0,0,0,0,0,0,0,0,0,0,0,0,0,0,0,0,0,0,0,0,0,0,0,0,0,0,0,0,0,0,0,0,0,0,0,0,0,0,0,0,0,0,0,0,0,0,0,0,0,
0,0,0,0,0,0,0,0,0,0,0,0,0,0,0,0,0,0,0,0,0,0,0,0,0,0,0,0,0,0,0,0,0,0,0,0,0,0,0,0,0,0,0,0,0,0,0,0,0,0,0,0,0,0,0,0,0,0,0,0,0,0,0,0,0,0,0,0,0,0,0,0,0,0,0,0,0,0,0,0,
0,0,0,0,0,0,0,0,0,0,0,0,0,0,0,0,0,0,0,0,0,0,0,0,0,0,0,0,0,0,0,0,0,0,0,0,0,0,0,0,0,0,0,0,0,0,0,0,0,0,0,0,0,0,0,0,0,0,0,0,0,0,0,0,0,0,0,0,0,0,0,0,0,0,0,0,0,0,0,0,
0,0,0,0,0,0,0,0,0,0,0,0,0,0,0,0,0,0,0,0,0,0,0,0,0,0,0,0,0,0,0,0,0,0,0,0,0,0,0,0,0,0,0,0,0,0,0,0,0,0,0,0,0,0,0,0,0,0,0,0,0,0,0,0,0,0,0,0,0,0,0,0,0,0,0,0,0,0,0,0,
0,0,0,0,0,0,0,0,0,0,0,0,0,0,0,0,0,0,0,0,0,0,0,0,0,0,0,0,0,0,0,0,0,0,0,0,0,0,0,0,0,0,0,0,0,0,0,0,0,0,0,0,0,0,0,0,0,0,0,0,0,0,0,0,0,0,0,0,0,0,0,0,0,0,0,0,0,0,0,0,
0,0,0,0,0,0,0,0,0,0,0,0,0,0,0,0,0,0,0,0,0,0,0,0,0,0,0,0,0,0,0,0,0,0,0,0,0,0,0,0,0,0,0,0,0,0,0,0,0,0,0,0,0,0,0,0,0,0,0,0,0,0,0,0,0,0,0,0,0,0,0,0,0,0,0,0,0,0,0,0,
0,0,0,0,0,0,0,0,0,0,0,0,0,0,0,0,0,0,0,0,0,0,0,0,0,0,0,0,0,0,0,0,0,0,0,0,0,0,0,0,0,0,0,0,0,0,0,0,0,0,0,0,0,0,0,0,0,0,0,0,0,0,0,0,0,0,0,0,0,0,0,0,0,0,0,0,0,0,0,0
</data>
 </layer>
 <layer id="16" name="AlwaysFront6" width="80" height="45">
  <data encoding="csv">
0,0,0,0,0,0,0,0,0,0,0,0,0,0,0,0,0,0,0,0,0,0,0,0,0,0,0,0,0,0,0,0,0,0,0,0,0,0,0,0,0,0,0,0,0,0,0,0,0,0,0,0,0,0,0,0,0,0,0,0,0,0,0,0,0,0,0,0,0,0,0,0,0,0,0,0,0,0,0,0,
0,0,0,0,0,0,0,0,0,0,0,0,0,0,0,0,0,0,0,0,0,0,0,0,0,0,0,0,0,0,0,0,0,0,0,0,0,0,0,0,0,0,0,0,0,0,0,0,0,0,0,0,0,0,0,0,0,0,0,0,0,0,0,0,0,0,0,0,0,0,0,0,0,0,0,0,0,0,0,0,
0,0,0,0,0,0,0,0,0,0,0,0,0,0,0,0,0,0,0,0,0,0,0,0,0,0,0,0,0,0,0,0,0,0,0,0,0,0,0,0,0,0,0,0,0,0,0,0,0,0,0,0,0,0,0,0,0,0,0,0,0,0,0,0,0,0,0,0,0,0,0,0,0,0,0,0,0,0,0,0,
0,0,0,0,0,0,0,0,0,0,0,0,0,0,0,0,0,0,0,0,0,0,0,0,0,0,0,0,0,0,0,0,0,0,0,0,0,0,0,0,0,0,0,0,0,0,0,0,0,0,0,0,0,0,0,0,0,0,0,0,0,0,0,0,0,0,0,0,0,0,0,0,0,0,0,0,0,0,0,0,
0,0,0,0,0,0,0,0,0,0,0,0,0,0,0,0,0,0,0,0,0,0,0,0,0,0,0,0,0,0,0,0,0,0,0,0,0,0,0,0,0,0,0,0,0,0,0,0,0,0,0,0,0,0,0,0,0,0,0,0,0,0,0,0,0,0,0,0,0,0,0,0,0,0,0,0,0,0,0,0,
0,0,0,0,0,0,0,0,0,0,0,0,0,0,0,0,0,0,0,0,0,0,0,0,0,0,0,0,0,0,0,0,0,0,0,0,0,0,0,0,0,0,0,0,0,0,0,0,0,0,0,0,0,0,0,0,0,0,0,0,0,0,0,0,0,0,0,0,0,0,0,0,0,0,0,0,0,0,0,0,
0,0,0,0,0,0,0,0,0,0,0,0,0,0,0,0,0,0,0,0,0,0,0,0,0,0,0,0,0,0,0,0,0,0,0,0,0,0,0,0,0,0,0,0,0,0,0,0,0,0,0,0,0,0,0,0,0,0,0,0,0,0,0,0,0,0,0,0,0,0,0,0,0,0,0,0,0,0,0,0,
0,0,0,0,0,0,0,0,0,0,0,0,0,0,0,0,0,0,0,0,0,0,0,0,0,0,0,0,0,0,0,0,0,0,0,0,0,0,0,0,0,0,0,0,0,0,0,0,0,0,0,0,0,0,0,0,0,0,0,0,0,0,0,0,0,0,0,0,0,0,0,0,0,0,0,0,0,0,0,0,
0,0,0,0,0,0,0,0,0,0,0,0,0,0,0,0,0,0,0,0,0,0,0,0,0,0,0,0,0,0,0,0,0,0,0,0,0,0,0,0,0,0,0,0,0,0,0,0,0,0,0,0,0,0,0,0,0,0,0,0,0,0,0,0,0,0,0,0,0,0,0,0,0,0,0,0,0,0,0,0,
0,0,0,0,0,0,0,0,0,0,0,0,0,0,0,0,0,0,0,0,0,0,0,0,0,0,0,0,0,0,0,0,0,0,0,0,0,0,0,0,0,0,0,0,0,0,0,0,0,0,0,0,0,0,0,0,0,0,0,0,0,0,0,0,0,0,0,0,0,0,0,0,0,0,0,0,0,0,0,0,
0,0,0,0,0,0,0,0,0,0,0,0,0,0,0,0,0,0,0,0,0,0,0,0,0,0,0,0,0,0,0,0,0,0,0,0,0,0,0,0,0,0,0,0,0,0,0,0,0,0,0,0,0,0,0,0,0,0,0,0,0,0,0,0,0,0,0,0,0,0,0,0,0,0,0,0,0,0,0,0,
0,0,0,0,0,0,0,0,0,0,0,0,0,0,0,0,0,0,0,0,0,0,0,0,0,0,0,0,0,0,0,0,0,0,0,0,0,0,0,0,0,0,0,0,0,0,0,0,0,0,0,0,0,0,0,0,0,0,0,0,0,0,0,0,0,0,0,0,0,0,0,0,0,0,0,0,0,0,0,0,
0,0,0,0,0,0,0,0,0,0,0,0,0,0,0,0,0,0,0,0,0,0,0,0,0,0,0,0,0,0,0,0,0,0,0,0,0,0,0,0,0,0,0,0,0,0,0,0,0,0,0,0,0,0,0,0,0,0,0,0,0,0,0,0,0,0,0,0,0,0,0,0,0,0,0,0,0,0,0,0,
0,0,0,0,0,0,0,0,0,0,0,0,0,0,0,0,0,0,0,0,0,0,0,0,0,0,0,0,0,0,0,0,0,0,0,0,0,0,0,0,0,0,0,0,0,0,0,0,0,0,0,0,0,0,0,0,0,0,0,0,0,0,0,0,0,0,0,0,0,0,0,0,0,0,0,0,0,0,0,0,
0,0,0,0,0,0,0,0,0,0,0,0,0,0,0,0,0,0,0,0,0,0,0,0,0,0,0,0,0,0,0,0,0,0,0,0,0,0,0,0,0,0,0,0,0,0,0,0,0,0,0,0,0,0,0,0,0,0,0,0,0,0,0,0,0,0,0,0,0,0,0,0,0,0,0,0,0,0,0,0,
0,0,0,0,0,0,0,0,0,0,0,0,0,0,0,0,0,0,0,0,0,0,0,0,0,0,0,0,0,0,0,0,0,0,0,0,0,0,0,0,0,0,0,0,0,0,0,0,0,0,0,0,0,0,0,0,0,0,0,0,0,0,0,0,0,0,0,0,0,0,0,0,0,0,0,0,0,0,0,0,
0,0,0,0,0,0,0,0,0,0,0,0,0,0,0,0,0,0,0,0,0,0,0,0,0,0,0,0,0,0,0,0,0,0,0,0,0,0,0,0,0,0,0,0,0,0,0,0,0,0,0,0,0,0,0,0,0,0,0,0,0,0,0,0,0,0,0,0,0,0,0,0,0,0,0,0,0,0,0,0,
0,0,0,0,0,0,0,0,0,0,0,0,0,0,0,0,0,0,0,0,0,0,0,0,0,0,0,0,0,0,0,0,0,0,0,0,0,0,0,0,0,0,0,0,0,0,0,0,0,0,0,0,0,0,0,0,0,0,0,0,0,0,0,0,0,0,0,0,0,0,0,0,0,0,0,0,0,0,0,0,
0,0,0,0,0,0,0,0,0,0,0,0,0,0,0,0,0,0,0,0,0,0,0,0,0,0,0,0,0,0,0,0,0,0,0,0,0,0,0,0,0,0,0,0,0,0,0,0,0,0,0,0,0,0,0,0,0,0,0,0,0,0,0,0,0,0,0,0,0,0,0,0,0,0,0,0,0,0,0,0,
0,0,0,0,0,0,0,0,0,0,0,0,0,0,0,0,0,0,0,0,0,0,0,0,0,0,0,0,0,0,0,0,0,0,0,0,0,0,0,0,0,0,0,0,0,0,0,0,0,0,0,0,0,0,0,0,0,0,0,0,0,0,0,0,0,0,0,0,0,0,0,0,0,0,0,0,0,0,0,0,
0,0,0,0,0,0,0,0,0,0,0,0,0,0,0,0,0,0,0,0,0,0,0,0,0,0,0,0,0,0,0,0,0,0,0,0,0,0,0,0,0,0,0,0,0,0,0,0,0,0,0,0,0,0,0,0,0,0,0,0,0,0,0,0,0,0,0,0,0,0,0,0,0,0,0,0,0,0,0,0,
0,0,0,0,0,0,0,0,0,0,0,0,0,0,0,0,0,0,0,0,0,0,0,0,0,0,0,0,0,0,0,0,0,0,0,0,0,0,0,0,0,0,0,0,0,0,0,0,0,0,0,0,0,0,0,0,0,0,0,0,0,0,0,0,0,0,0,0,0,0,0,0,0,0,0,0,0,0,0,0,
0,0,0,0,0,0,0,0,0,0,0,0,0,0,0,0,0,0,0,0,0,0,0,0,0,0,0,0,0,0,0,0,0,0,0,0,0,0,0,0,0,0,0,0,0,0,0,0,0,0,0,0,0,0,0,0,0,0,0,0,0,0,0,0,0,0,0,0,0,0,0,0,0,0,0,0,0,0,0,0,
0,0,0,0,0,0,0,0,0,0,0,0,0,0,0,0,0,0,0,0,0,0,0,0,0,0,0,0,0,0,0,0,0,0,0,0,0,0,0,0,0,0,0,0,0,0,0,0,0,0,0,0,0,0,0,0,0,0,0,0,0,0,0,0,0,0,0,0,0,0,0,0,0,0,0,0,0,0,0,0,
0,0,0,0,0,0,0,0,0,0,0,0,0,0,0,0,0,0,0,0,0,0,0,0,0,0,0,0,0,0,0,0,0,0,0,0,0,0,0,0,0,0,0,0,0,0,0,0,0,0,0,0,0,0,0,0,0,0,0,0,0,0,0,0,0,0,0,0,0,0,0,0,0,0,0,0,0,0,0,0,
0,0,0,0,0,0,0,0,0,0,0,0,0,0,0,0,0,0,0,0,0,0,0,0,0,0,0,0,0,0,0,0,0,0,0,0,0,0,0,0,0,0,0,0,0,0,0,0,0,0,0,0,0,0,0,0,0,0,0,0,0,0,0,0,0,0,0,0,0,0,0,0,0,0,0,0,0,0,0,0,
0,0,0,0,0,0,0,0,0,0,0,0,0,0,0,0,0,0,0,0,0,0,0,0,0,0,0,0,0,0,0,0,0,0,0,0,0,0,0,0,0,0,0,0,0,0,0,0,0,0,0,0,0,0,0,0,0,0,0,0,0,0,0,0,0,0,0,0,0,0,0,0,0,0,0,0,0,0,0,0,
0,0,0,0,0,0,0,0,0,0,0,0,0,0,0,0,0,0,0,0,0,0,0,0,0,0,0,0,0,0,0,0,0,0,0,0,0,0,0,0,0,0,0,0,0,0,0,0,0,0,0,0,0,0,0,0,0,0,0,0,0,0,0,0,0,0,0,0,0,0,0,0,0,0,0,0,0,0,0,0,
0,0,0,0,0,0,0,0,0,0,0,0,0,0,0,0,0,0,0,0,0,0,0,0,0,0,0,0,0,0,0,0,0,0,0,0,0,0,0,0,0,0,0,0,0,0,0,0,0,0,0,0,0,0,0,0,0,0,0,0,0,0,0,0,0,0,0,0,0,0,0,0,0,0,0,0,0,0,0,0,
0,0,0,0,0,0,0,0,0,0,0,0,0,0,0,0,0,0,0,0,0,0,0,0,0,0,0,0,0,0,0,0,0,0,0,0,0,0,0,0,0,0,0,0,0,0,0,0,0,0,0,0,0,0,0,0,0,0,0,0,0,0,0,0,0,0,0,0,0,0,0,0,0,0,0,0,0,0,0,0,
0,0,0,0,0,0,0,0,0,0,0,0,0,0,0,0,0,0,0,0,0,0,0,0,0,0,0,0,0,0,0,0,0,0,0,0,0,0,0,0,0,0,0,0,0,0,0,0,0,0,0,0,0,0,0,0,0,0,0,0,0,0,0,0,0,0,0,0,0,0,0,0,0,0,0,0,0,0,0,0,
0,0,0,0,0,0,0,0,0,0,0,0,0,0,0,0,0,0,0,0,0,0,0,0,0,0,0,0,0,0,0,0,0,0,0,0,0,0,0,0,0,0,0,0,0,0,0,0,0,0,0,0,0,0,0,0,0,0,0,0,0,0,0,0,0,0,0,0,0,0,0,0,0,0,0,0,0,0,0,0,
0,0,0,0,0,0,0,0,0,0,0,0,0,0,0,0,0,0,0,0,0,0,0,0,0,0,0,0,0,0,0,0,0,0,0,0,0,0,0,0,0,0,0,0,0,0,0,0,0,0,0,0,0,0,0,0,0,0,0,0,0,0,0,0,0,0,0,0,0,0,0,0,0,0,0,0,0,0,0,0,
0,0,0,0,0,0,0,0,0,0,0,0,0,0,0,0,0,0,0,0,0,0,0,0,0,0,0,0,0,0,0,0,0,0,0,0,0,0,0,0,0,0,0,0,0,0,0,0,0,0,0,0,0,0,0,0,0,0,0,0,0,0,0,0,0,0,0,0,0,0,0,0,0,0,0,0,0,0,0,0,
0,0,0,0,0,0,0,0,0,0,0,0,0,0,0,0,0,0,0,0,0,0,0,0,0,0,0,0,0,0,0,0,0,0,0,0,0,0,0,0,0,0,0,0,0,0,0,0,0,0,0,0,0,0,0,0,0,0,0,0,0,0,0,0,0,0,0,0,0,0,0,0,0,0,0,0,0,0,0,0,
0,0,0,0,0,0,0,0,0,0,0,0,0,0,0,0,0,0,0,0,0,0,0,0,0,0,0,0,0,0,0,0,0,0,0,0,0,0,0,0,0,0,0,0,0,0,0,0,0,0,0,0,0,0,0,0,0,0,0,0,0,0,0,0,0,0,0,0,0,0,0,0,0,0,0,0,0,0,0,0,
0,0,0,0,0,0,0,0,0,0,0,0,0,0,0,0,0,0,0,0,0,0,0,0,0,0,0,0,0,0,0,0,0,0,0,0,0,0,0,0,0,0,0,0,0,0,0,0,0,0,0,0,0,0,0,0,0,0,0,0,0,0,0,0,0,0,0,0,0,0,0,0,0,0,0,0,0,0,0,0,
0,0,0,0,0,0,0,0,0,0,0,0,0,0,0,0,0,0,0,0,0,0,0,0,0,0,0,0,0,0,0,0,0,0,0,0,0,0,0,0,0,0,0,0,0,0,0,0,0,0,0,0,0,0,0,0,0,0,0,0,0,0,0,0,0,0,0,0,0,0,0,0,0,0,0,0,0,0,0,0,
0,0,0,0,0,0,0,0,0,0,0,0,0,0,0,0,0,0,0,0,0,0,0,0,0,0,0,0,0,0,0,0,0,0,0,0,0,0,0,0,0,0,0,0,0,0,0,0,0,0,0,0,0,0,0,0,0,0,0,0,0,0,0,0,0,0,0,0,0,0,0,0,0,0,0,0,0,0,0,0,
0,0,0,0,0,0,0,0,0,0,0,0,0,0,0,0,0,0,0,0,0,0,0,0,0,0,0,0,0,0,0,0,0,0,0,0,0,0,0,0,0,0,0,0,0,0,0,0,0,0,0,0,0,0,0,0,0,0,0,0,0,0,0,0,0,0,0,0,0,0,0,0,0,0,0,0,0,0,0,0,
0,0,0,0,0,0,0,0,0,0,0,0,0,0,0,0,0,0,0,0,0,0,0,0,0,0,0,0,0,0,0,0,0,0,0,0,0,0,0,0,0,0,0,0,0,0,0,0,0,0,0,0,0,0,0,0,0,0,0,0,0,0,0,0,0,0,0,0,0,0,0,0,0,0,0,0,0,0,0,0,
0,0,0,0,0,0,0,0,0,0,0,0,0,0,0,0,0,0,0,0,0,0,0,0,0,0,0,0,0,0,0,0,0,0,0,0,0,0,0,0,0,0,0,0,0,0,0,0,0,0,0,0,0,0,0,0,0,0,0,0,0,0,0,0,0,0,0,0,0,0,0,0,0,0,0,0,0,0,0,0,
0,0,0,0,0,0,0,0,0,0,0,0,0,0,0,0,0,0,0,0,0,0,0,0,0,0,0,0,0,0,0,0,0,0,0,0,0,0,0,0,0,0,0,0,0,0,0,0,0,0,0,0,0,0,0,0,0,0,0,0,0,0,0,0,0,0,0,0,0,0,0,0,0,0,0,0,0,0,0,0,
0,0,0,0,0,0,0,0,0,0,0,0,0,0,0,0,0,0,0,0,0,0,0,0,0,0,0,0,0,0,0,0,0,0,0,0,0,0,0,0,0,0,0,0,0,0,0,0,0,0,0,0,0,0,0,0,0,0,0,0,0,0,0,0,0,0,0,0,0,0,0,0,0,0,0,0,0,0,0,0,
0,0,0,0,0,0,0,0,0,0,0,0,0,0,0,0,0,0,0,0,0,0,0,0,0,0,0,0,0,0,0,0,0,0,0,0,0,0,0,0,0,0,0,0,0,0,0,0,0,0,0,0,0,0,0,0,0,0,0,0,0,0,0,0,0,0,0,0,0,0,0,0,0,0,0,0,0,0,0,0
</data>
 </layer>
 <objectgroup id="6" name="Back">
  <object id="713" name="TileData" x="256" y="624" width="16" height="16">
   <properties>
    <property name="NoSpawn" value="Grass"/>
   </properties>
  </object>
  <object id="714" name="TileData" x="720" y="272" width="176" height="16">
   <properties>
    <property name="NoSpawn" value="T"/>
   </properties>
  </object>
  <object id="715" name="TileData" x="1216" y="176" width="32" height="80">
   <properties>
    <property name="NoSpawn" value="T"/>
   </properties>
  </object>
  <object id="716" name="TileData" x="1216" y="144" width="32" height="32">
   <properties>
    <property name="NoSpawn" value="T"/>
   </properties>
  </object>
  <object id="717" name="TileData" x="816" y="160" width="48" height="16">
   <properties>
    <property name="NoSpawn" value="T"/>
   </properties>
  </object>
  <object id="718" name="TileData" x="800" y="176" width="64" height="16">
   <properties>
    <property name="NoSpawn" value="T"/>
   </properties>
  </object>
  <object id="719" name="TileData" x="816" y="144" width="32" height="16">
   <properties>
    <property name="NoSpawn" value="T"/>
   </properties>
  </object>
  <object id="720" name="TileData" x="768" y="192" width="128" height="16">
   <properties>
    <property name="NoSpawn" value="T"/>
   </properties>
  </object>
  <object id="721" name="TileData" x="912" y="192" width="128" height="16">
   <properties>
    <property name="NoSpawn" value="T"/>
   </properties>
  </object>
  <object id="722" name="TileData" x="1056" y="192" width="128" height="16">
   <properties>
    <property name="NoSpawn" value="T"/>
   </properties>
  </object>
  <object id="723" name="TileData" x="944" y="176" width="64" height="16">
   <properties>
    <property name="NoSpawn" value="T"/>
   </properties>
  </object>
  <object id="724" name="TileData" x="1088" y="176" width="64" height="16">
   <properties>
    <property name="NoSpawn" value="T"/>
   </properties>
  </object>
  <object id="725" name="TileData" x="960" y="160" width="48" height="16">
   <properties>
    <property name="NoSpawn" value="T"/>
   </properties>
  </object>
  <object id="726" name="TileData" x="1104" y="160" width="48" height="16">
   <properties>
    <property name="NoSpawn" value="T"/>
   </properties>
  </object>
  <object id="727" name="TileData" x="960" y="144" width="32" height="16">
   <properties>
    <property name="NoSpawn" value="T"/>
   </properties>
  </object>
  <object id="728" name="TileData" x="1104" y="144" width="32" height="16">
   <properties>
    <property name="NoSpawn" value="T"/>
   </properties>
  </object>
  <object id="729" name="TileData" x="256" y="640" width="16" height="16">
   <properties>
    <property name="NoSpawn" value="All"/>
   </properties>
  </object>
  <object id="730" name="TileData" x="256" y="656" width="16" height="64">
   <properties>
    <property name="NoSpawn" value="Grass"/>
   </properties>
  </object>
 </objectgroup>
 <objectgroup id="7" name="Buildings">
  <object id="731" name="TileData" x="128" y="144" width="16" height="16">
   <properties>
    <property name="Action" value="Dialogue It may lay in ruins for now, but this building will slowly get restored as your farm improves."/>
   </properties>
  </object>
  <object id="732" name="TileData" x="144" y="144" width="16" height="16">
   <properties>
    <property name="Action" value="Dialogue It may lay in ruins for now, but this building will slowly get restored as your farm improves."/>
   </properties>
  </object>
  <object id="733" name="TileData" x="640" y="144" width="16" height="16">
   <properties>
    <property name="Action" value="Warp 15 34 A_TK.FarmProjectForaging.Extra_Custom_waterfall_shed_F0"/>
   </properties>
  </object>
  <object id="734" name="TileData" x="656" y="144" width="16" height="16">
   <properties>
    <property name="Action" value="Warp 15 34 A_TK.FarmProjectForaging.Extra_Custom_waterfall_shed_F0"/>
   </properties>
  </object>
  <object id="735" name="TileData" x="384" y="144" width="16" height="16">
   <properties>
    <property name="Action" value="Warp 15 34 A_TK.FarmProjectForaging.Extra_Custom_waterfall_shed_F0"/>
   </properties>
  </object>
  <object id="736" name="TileData" x="400" y="144" width="16" height="16">
   <properties>
    <property name="Action" value="Warp 15 34 A_TK.FarmProjectForaging.Extra_Custom_waterfall_shed_F0"/>
   </properties>
  </object>
  <object id="737" name="TileData" x="64" y="352" width="16" height="16">
   <properties>
    <property name="Action" value="Dialogue It may lay in ruins for now, but this building will slowly get restored as your farm improves."/>
   </properties>
  </object>
  <object id="738" name="TileData" x="80" y="352" width="16" height="16">
   <properties>
    <property name="Action" value="Dialogue It may lay in ruins for now, but this building will slowly get restored as your farm improves."/>
   </properties>
  </object>
  <object id="739" name="TileData" x="304" y="352" width="16" height="16">
   <properties>
    <property name="Action" value="Warp 15 34 A_TK.FarmProjectForaging.Extra_Custom_waterfall_shed_F0"/>
   </properties>
  </object>
  <object id="740" name="TileData" x="320" y="352" width="16" height="16">
   <properties>
    <property name="Action" value="Warp 15 34 A_TK.FarmProjectForaging.Extra_Custom_waterfall_shed_F0"/>
   </properties>
  </object>
  <object id="741" name="TileData" x="544" y="352" width="16" height="16">
   <properties>
    <property name="Action" value="Warp 15 34 A_TK.FarmProjectForaging.Extra_Custom_waterfall_shed_F0"/>
   </properties>
  </object>
  <object id="742" name="TileData" x="560" y="352" width="16" height="16">
   <properties>
    <property name="Action" value="Warp 15 34 A_TK.FarmProjectForaging.Extra_Custom_waterfall_shed_F0"/>
   </properties>
  </object>
  <object id="745" name="TileData" x="352" y="384" width="16" height="16">
   <properties>
    <property name="Action" value="Dialogue Ce n'est pour le moment qu'une ruine, mais ce bâtiment sera restauré au fur et à mesure que votre ferme s'améliorera."/>
   </properties>
  </object>
  <object id="746" name="TileData" x="368" y="384" width="16" height="16">
   <properties>
    <property name="Action" value="Dialogue Ce n'est pour le moment qu'une ruine, mais ce bâtiment sera restauré au fur et à mesure que votre ferme s'améliorera."/>
   </properties>
  </object>
  <object id="747" name="TileData" x="368" y="400" width="16" height="16">
   <properties>
    <property name="Action" value="Dialogue Le travail de rénovation a débuté. Il ne manque plus grand chose pour qu'il devienne utilisable!"/>
   </properties>
  </object>
  <object id="748" name="TileData" x="352" y="400" width="16" height="16">
   <properties>
    <property name="Action" value="Dialogue Le travail de rénovation a débuté. Il ne manque plus grand chose pour qu'il devienne utilisable!"/>
   </properties>
  </object>
  <object id="749" name="TileData" x="160" y="384" width="16" height="16">
   <properties>
    <property name="Action" value="Dialogue Der ehrwürdige Flamingo des Waldes blickt dich schweigend an. Seine müden Augen sind erfüllt von der alten Weisheit eines vergessenen Zeitalters."/>
   </properties>
  </object>
  <object id="750" name="TileData" x="160" y="400" width="16" height="16">
   <properties>
    <property name="Action" value="Dialogue Der ehrwürdige Flamingo des Waldes blickt dich schweigend an. Seine müden Augen sind erfüllt von der alten Weisheit eines vergessenen Zeitalters."/>
   </properties>
  </object>
  <object id="751" name="TileData" x="192" y="384" width="16" height="16">
   <properties>
    <property name="Action" value="Dialogue Im Moment mag es noch in Trümmern liegen, aber dieses Gebäude wird langsam renoviert, während sich deine Farm verbessert."/>
   </properties>
  </object>
  <object id="752" name="TileData" x="208" y="384" width="16" height="16">
   <properties>
    <property name="Action" value="Dialogue Im Moment mag es noch in Trümmern liegen, aber dieses Gebäude wird langsam renoviert, während sich deine Farm verbessert."/>
   </properties>
  </object>
  <object id="753" name="TileData" x="208" y="400" width="16" height="16">
   <properties>
    <property name="Action" value="Dialogue Die Renovierungsarbeiten haben begonnen. Das Gebäude ist jetzt einen Schritt näher, nutzbar zu sein!"/>
   </properties>
  </object>
  <object id="754" name="TileData" x="192" y="400" width="16" height="16">
   <properties>
    <property name="Action" value="Dialogue Die Renovierungsarbeiten haben begonnen. Das Gebäude ist jetzt einen Schritt näher, nutzbar zu sein!"/>
   </properties>
  </object>
  <object id="755" name="TileData" x="736" y="240" width="16" height="16">
   <properties>
    <property name="Action" value="Dialogue Renovation work has started. It's one step closer from becoming usable!"/>
   </properties>
  </object>
  <object id="756" name="TileData" x="720" y="240" width="16" height="16">
   <properties>
    <property name="Action" value="Dialogue Renovation work has started. It's one step closer from becoming usable!"/>
   </properties>
  </object>
  <object id="757" name="TileData" x="960" y="128" width="16" height="16">
   <properties>
    <property name="Action" value="Warp 15 34 A_TK.FarmProjectForaging.Extra_Custom_waterfall_shed_F0"/>
   </properties>
  </object>
  <object id="758" name="TileData" x="976" y="128" width="16" height="16">
   <properties>
    <property name="Action" value="Warp 15 34 A_TK.FarmProjectForaging.Extra_Custom_waterfall_shed_F0"/>
   </properties>
  </object>
  <object id="759" name="TileData" x="1104" y="128" width="16" height="16">
   <properties>
    <property name="Action" value="Warp 15 34 A_TK.FarmProjectForaging.Extra_Custom_waterfall_shed_F0"/>
   </properties>
  </object>
  <object id="760" name="TileData" x="1120" y="128" width="16" height="16">
   <properties>
    <property name="Action" value="Warp 15 34 A_TK.FarmProjectForaging.Extra_Custom_waterfall_shed_F0"/>
   </properties>
  </object>
  <object id="761" name="TileData" x="816" y="128" width="16" height="16">
   <properties>
    <property name="Action" value="Dialogue It may lay in ruins for now, but this building will slowly get restored as your farm improves."/>
   </properties>
  </object>
  <object id="762" name="TileData" x="832" y="128" width="16" height="16">
   <properties>
    <property name="Action" value="Dialogue It may lay in ruins for now, but this building will slowly get restored as your farm improves."/>
   </properties>
  </object>
 </objectgroup>
 <objectgroup id="8" name="Paths"/>
 <objectgroup id="9" name="Front"/>
 <objectgroup id="10" name="AlwaysFront"/>
</map>
